; generated by PrusaSlicer 2.2.0+win64 on 2021-01-09 at 17:04:14 UTC


;
;

;
;
; 

; external perimeters extrusion width = 0.45mm
; perimeters extrusion width = 0.45mm
; infill extrusion width = 0.45mm
; solid infill extrusion width = 0.45mm
; top infill extrusion width = 0.40mm
; first layer extrusion width = 0.42mm

M73 P0 R165
M201 X1250 Y1250 Z400 E5000 ; sets maximum accelerations, mm/sec^2
M203 X180 Y180 Z12 E80 ; sets maximum feedrates, mm/sec
M204 P1250 R1250 T1250 ; sets acceleration (P, T) and retract acceleration (R), mm/sec^2
M205 X8.00 Y8.00 Z2.00 E10.00 ; sets the jerk limits, mm/sec
M205 S0 T0 ; sets the minimum extruding and travel feed rate, mm/sec
M107
G90 ; use absolute coordinates
M83 ; extruder relative mode
M104 S170 ; set extruder temp for bed leveling
M140 S60 ; set bed temp
M109 R170 ; wait for bed leveling temp
M190 S60 ; wait for bed temp
G28 ; home all without mesh bed level
G29 ; mesh bed leveling 
M104 S215 ; set extruder temp
G92 E0.0
G1 Y-2.0 X179 F2400
G1 Z3 F720
M109 S215 ; wait for extruder temp

; intro line
G1 X170 F1000
G1 Z0.2 F720
G1 X110.0 E8.0 F900
M73 P0 R164
G1 X40.0 E10.0 F700
G92 E0.0

M221 S95 ; set flow
G21 ; set units to millimeters
G90 ; use absolute coordinates
M83 ; use relative distances for extrusion
M900 K0.2 ; Filament gcode LA 1.5
; ; Filament gcode LA 1.0
;BEFORE_LAYER_CHANGE
G92 E0.0
;0.2


G1 Z0.200 F9000.000
;AFTER_LAYER_CHANGE
;0.2
G1 E-3.20000 F4200.00000
G1 Z0.400 F9000.000
G1 X61.992 Y50.007
G1 Z0.200
G1 E3.20000 F2400.00000
M204 S800
G1 F1200.000
G1 X62.487 Y49.569 E0.02071
G1 X63.083 Y49.284 E0.02071
G1 X63.738 Y49.174 E0.02083
G1 X116.204 Y49.173 E1.64503
G1 X117.092 Y49.347 E0.02837
G1 X117.851 Y49.839 E0.02837
G1 X118.370 Y50.580 E0.02837
G1 X118.575 Y51.461 E0.02837
G1 X118.577 Y104.958 E1.67734
G1 X118.522 Y105.460 E0.01585
G1 X118.363 Y105.936 E0.01574
G1 X101.951 Y129.809 E0.90833
G1 X101.263 Y130.464 E0.02977
G1 X100.664 Y130.733 E0.02060
G1 X100.018 Y130.827 E0.02048
G1 X79.977 Y130.827 E0.62836
G1 X79.486 Y130.771 E0.01550
G1 X79.014 Y130.613 E0.01562
G1 X78.480 Y130.277 E0.01977
G1 X78.051 Y129.811 E0.01989
G1 X61.834 Y106.287 E0.89585
G1 X61.477 Y105.455 E0.02837
G1 X61.423 Y104.953 E0.01585
G1 X61.423 Y51.542 E1.67464
G1 X61.478 Y51.040 E0.01585
G1 X61.637 Y50.564 E0.01574
G1 X61.960 Y50.057 E0.01883
M204 S1250
; printing object trafic_lights_box.stl id:0 copy 0
G1 E-2.24000 F4200.00000
G1 F7200.000
G1 X62.487 Y49.569 E-0.39817
G1 X63.083 Y49.284 E-0.36610
G1 X63.346 Y49.240 E-0.14774
G1 E-0.04800 F4200.00000
G1 Z0.400 F9000.000
G1 X64.587 Y52.337
G1 Z0.200
G1 E3.20000 F2400.00000
M204 S800
G1 F1200.000
G1 X115.413 Y52.337 E1.59361
G1 X115.413 Y104.163 E1.62496
G1 X99.213 Y104.163 E0.50794
G1 X99.213 Y127.663 E0.73683
G1 X80.787 Y127.663 E0.57773
G1 X80.787 Y104.163 E0.73683
G1 X64.587 Y104.163 E0.50794
G1 X64.587 Y52.397 E1.62308
M204 S1250
G1 E-2.24000 F4200.00000
G1 F7200.000
G1 X66.233 Y52.395 E-0.91200
G1 E-0.04800 F4200.00000
G1 Z0.400 F9000.000
G1 X99.590 Y104.540
G1 Z0.200
G1 E3.20000 F2400.00000
M204 S800
G1 F1200.000
G1 X99.590 Y128.040 E0.73683
G1 X80.410 Y128.040 E0.60138
G1 X80.410 Y104.540 E0.73683
G1 X64.210 Y104.540 E0.50794
G1 X64.210 Y51.960 E1.64861
G1 X115.790 Y51.960 E1.61725
G1 X115.790 Y104.540 E1.64861
G1 X99.650 Y104.540 E0.50606
M204 S1250
G1 X99.225 Y104.705 F9000.000
G1 E-2.24000 F4200.00000
G1 F7200.000
G1 X99.646 Y106.186 E-0.91200
G1 E-0.04800 F4200.00000
G1 Z0.400 F9000.000
G1 X80.614 Y104.050
G1 Z0.200
G1 E3.20000 F2400.00000
M204 S800
G1 F1200.000
G1 X64.870 Y88.306 E0.69973
G1 X64.870 Y88.840 E0.01680
G1 X79.910 Y103.880 E0.66844
G1 X79.375 Y103.880 E0.01680
G1 X64.870 Y89.375 E0.64468
G1 X64.870 Y89.909 E0.01680
G1 X78.841 Y103.880 E0.62092
G1 X78.306 Y103.880 E0.01680
G1 X64.870 Y90.444 E0.59717
G1 X64.870 Y90.978 E0.01680
G1 X77.772 Y103.880 E0.57341
G1 X77.237 Y103.880 E0.01680
G1 X64.870 Y91.513 E0.54966
G1 X64.870 Y92.047 E0.01680
G1 X76.703 Y103.880 E0.52590
G1 X76.168 Y103.880 E0.01680
G1 X64.870 Y92.582 E0.50214
G1 X64.870 Y93.116 E0.01680
G1 X75.634 Y103.880 E0.47839
G1 X75.099 Y103.880 E0.01680
G1 X64.870 Y93.651 E0.45463
G1 X64.870 Y94.185 E0.01680
G1 X74.565 Y103.880 E0.43088
G1 X74.030 Y103.880 E0.01680
G1 X64.870 Y94.720 E0.40712
G1 X64.870 Y95.254 E0.01680
G1 X73.496 Y103.880 E0.38336
G1 X72.961 Y103.880 E0.01680
G1 X64.870 Y95.789 E0.35961
G1 X64.870 Y96.323 E0.01680
G1 X72.427 Y103.880 E0.33585
M73 P0 R163
G1 X71.892 Y103.880 E0.01680
G1 X64.870 Y96.858 E0.31210
G1 X64.870 Y97.392 E0.01680
G1 X71.358 Y103.880 E0.28834
G1 X70.823 Y103.880 E0.01680
G1 X64.870 Y97.927 E0.26458
G1 X64.870 Y98.462 E0.01680
G1 X70.288 Y103.880 E0.24083
G1 X69.754 Y103.880 E0.01680
G1 X64.870 Y98.996 E0.21707
G1 X64.870 Y99.531 E0.01680
G1 X69.219 Y103.880 E0.19332
G1 X68.685 Y103.880 E0.01680
G1 X64.870 Y100.065 E0.16956
G1 X64.870 Y100.600 E0.01680
G1 X68.150 Y103.880 E0.14580
G1 X67.616 Y103.880 E0.01680
G1 X64.870 Y101.134 E0.12205
G1 X64.870 Y101.669 E0.01680
G1 X67.081 Y103.880 E0.09829
G1 X66.547 Y103.880 E0.01680
G1 X64.870 Y102.203 E0.07454
G1 X64.870 Y102.738 E0.01680
G1 X66.012 Y103.880 E0.05078
G1 X65.478 Y103.880 E0.01680
G1 X64.870 Y103.272 E0.02702
G1 X64.870 Y103.807 E0.01680
G1 X65.113 Y104.050 E0.01081
M204 S1250
G1 E-2.24000 F4200.00000
G1 F7200.000
G1 X64.870 Y103.807 E-0.19060
G1 X64.870 Y103.272 E-0.29621
G1 X65.412 Y103.815 E-0.42519
G1 E-0.04800 F4200.00000
G1 Z0.400 F9000.000
G1 X80.900 Y126.786
G1 Z0.200
G1 E3.20000 F2400.00000
M204 S800
G1 F1200.000
G1 X81.495 Y127.380 E0.02643
G1 X82.029 Y127.380 E0.01680
G1 X81.070 Y126.421 E0.04264
G1 X81.070 Y125.886 E0.01680
G1 X82.564 Y127.380 E0.06640
G1 X83.098 Y127.380 E0.01680
G1 X81.070 Y125.352 E0.09015
G1 X81.070 Y124.817 E0.01680
G1 X83.633 Y127.380 E0.11391
G1 X84.167 Y127.380 E0.01680
G1 X81.070 Y124.283 E0.13766
G1 X81.070 Y123.748 E0.01680
G1 X84.702 Y127.380 E0.16142
G1 X85.236 Y127.380 E0.01680
G1 X81.070 Y123.214 E0.18518
G1 X81.070 Y122.679 E0.01680
G1 X85.771 Y127.380 E0.20893
G1 X86.305 Y127.380 E0.01680
G1 X81.070 Y122.145 E0.23269
G1 X81.070 Y121.610 E0.01680
G1 X86.840 Y127.380 E0.25644
G1 X87.374 Y127.380 E0.01680
G1 X81.070 Y121.076 E0.28020
G1 X81.070 Y120.541 E0.01680
G1 X87.909 Y127.380 E0.30396
G1 X88.443 Y127.380 E0.01680
G1 X81.070 Y120.007 E0.32771
G1 X81.070 Y119.472 E0.01680
G1 X88.978 Y127.380 E0.35147
G1 X89.512 Y127.380 E0.01680
G1 X81.070 Y118.938 E0.37523
G1 X81.070 Y118.403 E0.01680
G1 X90.047 Y127.380 E0.39898
G1 X90.581 Y127.380 E0.01680
G1 X81.070 Y117.869 E0.42274
G1 X81.070 Y117.334 E0.01680
G1 X91.116 Y127.380 E0.44649
G1 X91.650 Y127.380 E0.01680
G1 X81.070 Y116.800 E0.47025
G1 X81.070 Y116.265 E0.01680
G1 X92.185 Y127.380 E0.49401
G1 X92.719 Y127.380 E0.01680
G1 X81.070 Y115.731 E0.51776
G1 X81.070 Y115.196 E0.01680
G1 X93.254 Y127.380 E0.54152
G1 X93.788 Y127.380 E0.01680
G1 X81.070 Y114.662 E0.56527
G1 X81.070 Y114.127 E0.01680
G1 X94.323 Y127.380 E0.58903
G1 X94.858 Y127.380 E0.01680
G1 X81.070 Y113.592 E0.61279
G1 X81.070 Y113.058 E0.01680
G1 X95.392 Y127.380 E0.63654
G1 X95.927 Y127.380 E0.01680
G1 X81.070 Y112.523 E0.66030
G1 X81.070 Y111.989 E0.01680
G1 X96.461 Y127.380 E0.68405
G1 X96.996 Y127.380 E0.01680
G1 X81.070 Y111.454 E0.70781
G1 X81.070 Y110.920 E0.01680
G1 X97.530 Y127.380 E0.73157
G1 X98.065 Y127.380 E0.01680
G1 X81.070 Y110.385 E0.75532
G1 X81.070 Y109.851 E0.01680
G1 X98.599 Y127.380 E0.77908
G1 X98.930 Y127.380 E0.01040
G1 X98.930 Y127.177 E0.00639
G1 X81.070 Y109.316 E0.79379
G1 X81.070 Y108.782 E0.01680
G1 X98.930 Y126.642 E0.79379
G1 X98.930 Y126.108 E0.01680
G1 X81.070 Y108.247 E0.79379
G1 X81.070 Y107.713 E0.01680
G1 X98.930 Y125.573 E0.79379
G1 X98.930 Y125.039 E0.01680
G1 X81.070 Y107.178 E0.79379
G1 X81.070 Y106.644 E0.01680
G1 X98.930 Y124.504 E0.79379
G1 X98.930 Y123.970 E0.01680
G1 X81.070 Y106.109 E0.79379
G1 X81.070 Y105.575 E0.01680
G1 X98.930 Y123.435 E0.79379
G1 X98.930 Y122.901 E0.01680
G1 X81.070 Y105.040 E0.79379
G1 X81.070 Y104.506 E0.01680
G1 X98.930 Y122.366 E0.79379
G1 X98.930 Y121.832 E0.01680
G1 X64.870 Y87.771 E1.51379
G1 X64.870 Y87.237 E0.01680
G1 X98.930 Y121.297 E1.51379
G1 X98.930 Y120.763 E0.01680
G1 X64.870 Y86.702 E1.51379
G1 X64.870 Y86.168 E0.01680
G1 X98.930 Y120.228 E1.51379
G1 X98.930 Y119.694 E0.01680
G1 X64.870 Y85.633 E1.51379
G1 X64.870 Y85.099 E0.01680
G1 X98.930 Y119.159 E1.51379
G1 X98.930 Y118.625 E0.01680
G1 X64.870 Y84.564 E1.51379
G1 X64.870 Y84.030 E0.01680
G1 X98.930 Y118.090 E1.51379
G1 X98.930 Y117.556 E0.01680
G1 X64.870 Y83.495 E1.51379
M73 P1 R162
G1 X64.870 Y82.961 E0.01680
G1 X98.930 Y117.021 E1.51379
G1 X98.930 Y116.486 E0.01680
G1 X64.870 Y82.426 E1.51379
G1 X64.870 Y81.892 E0.01680
G1 X98.930 Y115.952 E1.51379
G1 X98.930 Y115.417 E0.01680
G1 X64.870 Y81.357 E1.51379
G1 X64.870 Y80.823 E0.01680
G1 X98.930 Y114.883 E1.51379
G1 X98.930 Y114.348 E0.01680
G1 X64.870 Y80.288 E1.51379
G1 X64.870 Y79.754 E0.01680
G1 X98.930 Y113.814 E1.51379
G1 X98.930 Y113.279 E0.01680
G1 X64.870 Y79.219 E1.51379
G1 X64.870 Y78.685 E0.01680
G1 X98.930 Y112.745 E1.51379
G1 X98.930 Y112.210 E0.01680
G1 X64.870 Y78.150 E1.51379
G1 X64.870 Y77.616 E0.01680
G1 X98.930 Y111.676 E1.51379
G1 X98.930 Y111.141 E0.01680
G1 X64.870 Y77.081 E1.51379
G1 X64.870 Y76.547 E0.01680
G1 X98.930 Y110.607 E1.51379
G1 X98.930 Y110.072 E0.01680
G1 X64.870 Y76.012 E1.51379
G1 X64.870 Y75.478 E0.01680
G1 X98.930 Y109.538 E1.51379
G1 X98.930 Y109.003 E0.01680
G1 X64.870 Y74.943 E1.51379
G1 X64.870 Y74.409 E0.01680
G1 X98.930 Y108.469 E1.51379
G1 X98.930 Y107.934 E0.01680
G1 X64.870 Y73.874 E1.51379
G1 X64.870 Y73.340 E0.01680
G1 X98.930 Y107.400 E1.51379
G1 X98.930 Y106.865 E0.01680
G1 X64.870 Y72.805 E1.51379
G1 X64.870 Y72.271 E0.01680
G1 X98.930 Y106.331 E1.51379
G1 X98.930 Y105.796 E0.01680
G1 X64.870 Y71.736 E1.51379
G1 X64.870 Y71.202 E0.01680
G1 X98.930 Y105.262 E1.51379
G1 X98.930 Y104.727 E0.01680
G1 X64.870 Y70.667 E1.51379
G1 X64.870 Y70.133 E0.01680
G1 X98.930 Y104.193 E1.51379
M73 P1 R161
G1 X98.930 Y103.880 E0.00983
G1 X99.152 Y103.880 E0.00697
G1 X64.870 Y69.598 E1.52365
G1 X64.870 Y69.064 E0.01680
G1 X99.686 Y103.880 E1.54741
G1 X100.221 Y103.880 E0.01680
G1 X64.870 Y68.529 E1.57117
G1 X64.870 Y67.994 E0.01680
G1 X100.756 Y103.880 E1.59492
G1 X101.290 Y103.880 E0.01680
G1 X64.870 Y67.460 E1.61868
G1 X64.870 Y66.925 E0.01680
G1 X101.825 Y103.880 E1.64243
G1 X102.359 Y103.880 E0.01680
G1 X64.870 Y66.391 E1.66619
G1 X64.870 Y65.856 E0.01680
G1 X102.894 Y103.880 E1.68995
G1 X103.428 Y103.880 E0.01680
G1 X64.870 Y65.322 E1.71370
G1 X64.870 Y64.787 E0.01680
G1 X103.963 Y103.880 E1.73746
G1 X104.497 Y103.880 E0.01680
G1 X64.870 Y64.253 E1.76121
G1 X64.870 Y63.718 E0.01680
G1 X105.032 Y103.880 E1.78497
G1 X105.566 Y103.880 E0.01680
G1 X64.870 Y63.184 E1.80873
G1 X64.870 Y62.649 E0.01680
G1 X106.101 Y103.880 E1.83248
G1 X106.635 Y103.880 E0.01680
G1 X64.870 Y62.115 E1.85624
G1 X64.870 Y61.580 E0.01680
G1 X107.170 Y103.880 E1.88000
G1 X107.704 Y103.880 E0.01680
G1 X64.870 Y61.046 E1.90375
G1 X64.870 Y60.511 E0.01680
G1 X108.239 Y103.880 E1.92751
G1 X108.773 Y103.880 E0.01680
G1 X64.870 Y59.977 E1.95126
G1 X64.870 Y59.442 E0.01680
G1 X109.308 Y103.880 E1.97502
G1 X109.842 Y103.880 E0.01680
G1 X64.870 Y58.908 E1.99878
G1 X64.870 Y58.373 E0.01680
G1 X110.377 Y103.880 E2.02253
M73 P2 R160
G1 X110.911 Y103.880 E0.01680
G1 X64.870 Y57.839 E2.04629
G1 X64.870 Y57.304 E0.01680
G1 X111.446 Y103.880 E2.07004
G1 X111.980 Y103.880 E0.01680
G1 X64.870 Y56.770 E2.09380
G1 X64.870 Y56.235 E0.01680
G1 X112.515 Y103.880 E2.11756
G1 X113.049 Y103.880 E0.01680
G1 X64.870 Y55.701 E2.14131
G1 X64.870 Y55.166 E0.01680
G1 X113.584 Y103.880 E2.16507
G1 X114.118 Y103.880 E0.01680
G1 X64.870 Y54.632 E2.18882
G1 X64.870 Y54.097 E0.01680
G1 X114.653 Y103.880 E2.21258
G1 X115.130 Y103.880 E0.01500
G1 X115.130 Y103.823 E0.00180
G1 X64.870 Y53.563 E2.23380
G1 X64.870 Y53.028 E0.01680
G1 X115.130 Y103.288 E2.23380
G1 X115.130 Y102.754 E0.01680
G1 X64.996 Y52.620 E2.22819
G1 X65.531 Y52.620 E0.01680
G1 X115.130 Y102.219 E2.20443
G1 X115.130 Y101.685 E0.01680
G1 X66.065 Y52.620 E2.18068
G1 X66.600 Y52.620 E0.01680
G1 X115.130 Y101.150 E2.15692
G1 X115.130 Y100.616 E0.01680
G1 X67.134 Y52.620 E2.13317
G1 X67.669 Y52.620 E0.01680
G1 X115.130 Y100.081 E2.10941
G1 X115.130 Y99.547 E0.01680
G1 X68.203 Y52.620 E2.08565
G1 X68.738 Y52.620 E0.01680
G1 X115.130 Y99.012 E2.06190
M73 P3 R159
G1 X115.130 Y98.478 E0.01680
G1 X69.272 Y52.620 E2.03814
G1 X69.807 Y52.620 E0.01680
G1 X115.130 Y97.943 E2.01439
G1 X115.130 Y97.409 E0.01680
G1 X70.341 Y52.620 E1.99063
G1 X70.876 Y52.620 E0.01680
G1 X115.130 Y96.874 E1.96687
G1 X115.130 Y96.340 E0.01680
G1 X71.410 Y52.620 E1.94312
G1 X71.945 Y52.620 E0.01680
G1 X115.130 Y95.805 E1.91936
G1 X115.130 Y95.271 E0.01680
G1 X72.479 Y52.620 E1.89561
G1 X73.014 Y52.620 E0.01680
G1 X115.130 Y94.736 E1.87185
G1 X115.130 Y94.202 E0.01680
G1 X73.548 Y52.620 E1.84809
G1 X74.083 Y52.620 E0.01680
G1 X115.130 Y93.667 E1.82434
G1 X115.130 Y93.133 E0.01680
G1 X74.617 Y52.620 E1.80058
G1 X75.152 Y52.620 E0.01680
G1 X115.130 Y92.598 E1.77683
G1 X115.130 Y92.064 E0.01680
G1 X75.686 Y52.620 E1.75307
G1 X76.221 Y52.620 E0.01680
G1 X115.130 Y91.529 E1.72931
G1 X115.130 Y90.995 E0.01680
G1 X76.755 Y52.620 E1.70556
G1 X77.290 Y52.620 E0.01680
G1 X115.130 Y90.460 E1.68180
G1 X115.130 Y89.926 E0.01680
G1 X77.824 Y52.620 E1.65805
G1 X78.359 Y52.620 E0.01680
G1 X115.130 Y89.391 E1.63429
G1 X115.130 Y88.857 E0.01680
G1 X78.893 Y52.620 E1.61053
G1 X79.428 Y52.620 E0.01680
G1 X115.130 Y88.322 E1.58678
G1 X115.130 Y87.788 E0.01680
G1 X79.962 Y52.620 E1.56302
M73 P3 R158
G1 X80.497 Y52.620 E0.01680
G1 X115.130 Y87.253 E1.53927
G1 X115.130 Y86.719 E0.01680
G1 X81.031 Y52.620 E1.51551
G1 X81.566 Y52.620 E0.01680
G1 X115.130 Y86.184 E1.49175
G1 X115.130 Y85.650 E0.01680
G1 X82.100 Y52.620 E1.46800
G1 X82.635 Y52.620 E0.01680
G1 X115.130 Y85.115 E1.44424
G1 X115.130 Y84.581 E0.01680
G1 X83.169 Y52.620 E1.42049
G1 X83.704 Y52.620 E0.01680
G1 X115.130 Y84.046 E1.39673
G1 X115.130 Y83.512 E0.01680
G1 X84.238 Y52.620 E1.37297
G1 X84.773 Y52.620 E0.01680
G1 X115.130 Y82.977 E1.34922
G1 X115.130 Y82.443 E0.01680
G1 X85.307 Y52.620 E1.32546
G1 X85.842 Y52.620 E0.01680
G1 X115.130 Y81.908 E1.30170
G1 X115.130 Y81.374 E0.01680
G1 X86.376 Y52.620 E1.27795
G1 X86.911 Y52.620 E0.01680
G1 X115.130 Y80.839 E1.25419
G1 X115.130 Y80.305 E0.01680
G1 X87.445 Y52.620 E1.23044
G1 X87.980 Y52.620 E0.01680
G1 X115.130 Y79.770 E1.20668
G1 X115.130 Y79.236 E0.01680
G1 X88.514 Y52.620 E1.18292
G1 X89.049 Y52.620 E0.01680
G1 X115.130 Y78.701 E1.15917
G1 X115.130 Y78.167 E0.01680
G1 X89.583 Y52.620 E1.13541
G1 X90.118 Y52.620 E0.01680
G1 X115.130 Y77.632 E1.11166
G1 X115.130 Y77.098 E0.01680
G1 X90.652 Y52.620 E1.08790
G1 X91.187 Y52.620 E0.01680
G1 X115.130 Y76.563 E1.06414
G1 X115.130 Y76.029 E0.01680
G1 X91.721 Y52.620 E1.04039
G1 X92.256 Y52.620 E0.01680
G1 X115.130 Y75.494 E1.01663
G1 X115.130 Y74.960 E0.01680
G1 X92.790 Y52.620 E0.99288
G1 X93.325 Y52.620 E0.01680
G1 X115.130 Y74.425 E0.96912
G1 X115.130 Y73.890 E0.01680
G1 X93.860 Y52.620 E0.94536
G1 X94.394 Y52.620 E0.01680
G1 X115.130 Y73.356 E0.92161
G1 X115.130 Y72.821 E0.01680
G1 X94.929 Y52.620 E0.89785
G1 X95.463 Y52.620 E0.01680
G1 X115.130 Y72.287 E0.87410
G1 X115.130 Y71.752 E0.01680
G1 X95.998 Y52.620 E0.85034
G1 X96.532 Y52.620 E0.01680
G1 X115.130 Y71.218 E0.82658
G1 X115.130 Y70.683 E0.01680
G1 X97.067 Y52.620 E0.80283
M73 P4 R157
G1 X97.601 Y52.620 E0.01680
G1 X115.130 Y70.149 E0.77907
G1 X115.130 Y69.614 E0.01680
G1 X98.136 Y52.620 E0.75532
G1 X98.670 Y52.620 E0.01680
G1 X115.130 Y69.080 E0.73156
G1 X115.130 Y68.545 E0.01680
G1 X99.205 Y52.620 E0.70780
G1 X99.739 Y52.620 E0.01680
G1 X115.130 Y68.011 E0.68405
G1 X115.130 Y67.476 E0.01680
G1 X100.274 Y52.620 E0.66029
G1 X100.808 Y52.620 E0.01680
G1 X115.130 Y66.942 E0.63654
G1 X115.130 Y66.407 E0.01680
G1 X101.343 Y52.620 E0.61278
G1 X101.877 Y52.620 E0.01680
G1 X115.130 Y65.873 E0.58902
G1 X115.130 Y65.338 E0.01680
G1 X102.412 Y52.620 E0.56527
G1 X102.946 Y52.620 E0.01680
