; generated by PrusaSlicer 2.3.3+win64 on 2021-12-11 at 10:23:54 UTC


;
;

;
;
; 

; external perimeters extrusion width = 0.45mm
; perimeters extrusion width = 0.45mm
; infill extrusion width = 0.45mm
; solid infill extrusion width = 0.45mm
; top infill extrusion width = 0.40mm
; first layer extrusion width = 0.42mm

M73 P0 R229
M201 X1250 Y1250 Z400 E5000 ; sets maximum accelerations, mm/sec^2
M203 X180 Y180 Z12 E80 ; sets maximum feedrates, mm/sec
M204 P1250 R1250 T1250 ; sets acceleration (P, T) and retract acceleration (R), mm/sec^2
M205 X8.00 Y8.00 Z2.00 E10.00 ; sets the jerk limits, mm/sec
M205 S0 T0 ; sets the minimum extruding and travel feed rate, mm/sec
M107
;TYPE:Custom
G90 ; use absolute coordinates
M83 ; extruder relative mode
M104 S170 ; set extruder temp for bed leveling
M140 S60 ; set bed temp
M109 R170 ; wait for bed leveling temp
M190 S60 ; wait for bed temp
G28 ; home all without mesh bed level
G29 ; mesh bed leveling 
M104 S215 ; set extruder temp
G92 E0.0
G1 Y-2.0 X179 F2400
G1 Z3 F720
M109 S215 ; wait for extruder temp

; intro line
G1 X170 F1000
G1 Z0.2 F720
G1 X110.0 E8.0 F900
G1 X40.0 E10.0 F700
G92 E0.0

M221 S95 ; set flow
G21 ; set units to millimeters
G90 ; use absolute coordinates
M83 ; use relative distances for extrusion
M900 K0.2 ; Filament gcode LA 1.5
; ; Filament gcode LA 1.0
;LAYER_CHANGE
;Z:0.2
;HEIGHT:0.2
;BEFORE_LAYER_CHANGE
G92 E0.0
;0.2


G1 E-3.20000 F4200.000
G1 Z0.200 F9000.000
;AFTER_LAYER_CHANGE
;0.2
G1 Z0.400
G1 X57.768 Y54.183
G1 Z0.200
G1 E3.20000 F2400.000
M204 S800
;TYPE:Skirt
;WIDTH:0.42
G1 F1200.000
G1 X58.170 Y53.483 E0.02532
G1 X58.538 Y53.125 E0.01609
G1 X58.975 Y52.855 E0.01609
G1 X59.459 Y52.685 E0.01609
G1 X59.968 Y52.623 E0.01609
G1 X120.004 Y52.623 E1.88237
M73 P0 R228
G1 X120.899 Y52.799 E0.02860
G1 X121.662 Y53.300 E0.02860
G1 X122.179 Y54.051 E0.02860
G1 X122.376 Y54.942 E0.02860
G1 X122.377 Y125.019 E2.19722
G1 X122.232 Y125.817 E0.02543
G1 X121.830 Y126.517 E0.02532
G1 X121.459 Y126.877 E0.01621
G1 X121.015 Y127.150 E0.01633
G1 X120.526 Y127.318 E0.01621
G1 X120.013 Y127.377 E0.01621
G1 X59.981 Y127.377 E1.88225
G1 X59.183 Y127.232 E0.02543
G1 X58.483 Y126.830 E0.02532
G1 X58.123 Y126.459 E0.01621
G1 X57.850 Y126.015 E0.01633
G1 X57.682 Y125.526 E0.01621
G1 X57.623 Y125.009 E0.01633
G1 X57.623 Y54.981 E2.19567
G1 X57.757 Y54.242 E0.02355
M204 S1250
; printing object Trafic_Lights_Netta_PCB_small_leds_box.stl id:0 copy 0
G1 E-2.24000 F4200.000
;WIPE_START
G1 F7200.000
G1 X58.170 Y53.483 E-0.47888
G1 X58.538 Y53.125 E-0.28441
G1 X58.767 Y52.984 E-0.14871
;WIPE_END
G1 E-0.04800 F4200.000
G1 Z0.400 F9000.000
G1 X60.787 Y55.787
G1 Z0.200
G1 E3.20000 F2400.000
M204 S800
;TYPE:Perimeter
G1 F1200.000
G1 X119.213 Y55.787 E1.83190
G1 X119.213 Y124.213 E2.14544
G1 X60.787 Y124.213 E1.83190
G1 X60.787 Y55.847 E2.14356
M204 S1250
G1 X60.410 Y55.410 F9000.000
M204 S800
;TYPE:External perimeter
G1 F1200.000
G1 X119.590 Y55.410 E1.85555
G1 X119.590 Y124.590 E2.16909
G1 X60.410 Y124.590 E1.85555
G1 X60.410 Y55.470 E2.16721
M204 S1250
G1 X60.794 Y55.524 F9000.000
G1 E-2.24000 F4200.000
;WIPE_START
G1 F7200.000
G1 X62.056 Y55.468 E-0.91200
;WIPE_END
G1 E-0.04800 F4200.000
G1 Z0.400 F9000.000
G1 X118.337 Y55.900
G1 Z0.200
G1 E3.20000 F2400.000
M204 S800
;TYPE:Solid infill
;WIDTH:0.420266
G1 F1200.000
G1 X118.930 Y56.493 E0.02632
G1 X118.930 Y57.027 E0.01674
G1 X117.973 Y56.070 E0.04247
G1 X117.439 Y56.070 E0.01674
G1 X118.930 Y57.561 E0.06615
G1 X118.930 Y58.094 E0.01674
G1 X116.906 Y56.070 E0.08983
G1 X116.372 Y56.070 E0.01674
G1 X118.930 Y58.628 E0.11351
G1 X118.930 Y59.162 E0.01674
G1 X115.838 Y56.070 E0.13719
G1 X115.305 Y56.070 E0.01674
G1 X118.930 Y59.695 E0.16087
G1 X118.930 Y60.229 E0.01674
G1 X114.771 Y56.070 E0.18455
G1 X114.237 Y56.070 E0.01674
G1 X118.930 Y60.763 E0.20823
G1 X118.930 Y61.296 E0.01674
G1 X113.704 Y56.070 E0.23191
G1 X113.170 Y56.070 E0.01674
G1 X118.930 Y61.830 E0.25559
G1 X118.930 Y62.363 E0.01674
G1 X112.637 Y56.070 E0.27927
G1 X112.103 Y56.070 E0.01674
G1 X118.930 Y62.897 E0.30295
G1 X118.930 Y63.431 E0.01674
G1 X111.569 Y56.070 E0.32662
G1 X111.036 Y56.070 E0.01674
G1 X118.930 Y63.964 E0.35030
G1 X118.930 Y64.498 E0.01674
G1 X110.502 Y56.070 E0.37398
G1 X109.968 Y56.070 E0.01674
G1 X118.930 Y65.032 E0.39766
G1 X118.930 Y65.565 E0.01674
G1 X109.435 Y56.070 E0.42134
G1 X108.901 Y56.070 E0.01674
G1 X118.930 Y66.099 E0.44502
G1 X118.930 Y66.633 E0.01674
G1 X108.367 Y56.070 E0.46870
G1 X107.834 Y56.070 E0.01674
G1 X118.930 Y67.166 E0.49238
G1 X118.930 Y67.700 E0.01674
G1 X107.300 Y56.070 E0.51606
G1 X106.766 Y56.070 E0.01674
G1 X118.930 Y68.234 E0.53974
G1 X118.930 Y68.767 E0.01674
G1 X106.233 Y56.070 E0.56342
G1 X105.699 Y56.070 E0.01674
G1 X118.930 Y69.301 E0.58710
G1 X118.930 Y69.835 E0.01674
G1 X105.165 Y56.070 E0.61078
G1 X104.632 Y56.070 E0.01674
G1 X118.930 Y70.368 E0.63446
G1 X118.930 Y70.902 E0.01674
G1 X104.098 Y56.070 E0.65814
G1 X103.565 Y56.070 E0.01674
G1 X118.930 Y71.435 E0.68182
G1 X118.930 Y71.969 E0.01674
G1 X103.031 Y56.070 E0.70550
G1 X102.497 Y56.070 E0.01674
G1 X118.930 Y72.503 E0.72918
G1 X118.930 Y73.036 E0.01674
G1 X101.964 Y56.070 E0.75286
M73 P0 R227
G1 X101.430 Y56.070 E0.01674
G1 X118.930 Y73.570 E0.77654
G1 X118.930 Y74.104 E0.01674
G1 X100.896 Y56.070 E0.80022
G1 X100.363 Y56.070 E0.01674
G1 X118.930 Y74.637 E0.82390
G1 X118.930 Y75.171 E0.01674
G1 X99.829 Y56.070 E0.84757
G1 X99.295 Y56.070 E0.01674
G1 X118.930 Y75.705 E0.87125
G1 X118.930 Y76.238 E0.01674
G1 X98.762 Y56.070 E0.89493
G1 X98.228 Y56.070 E0.01674
G1 X118.930 Y76.772 E0.91861
G1 X118.930 Y77.306 E0.01674
G1 X97.694 Y56.070 E0.94229
G1 X97.161 Y56.070 E0.01674
G1 X118.930 Y77.839 E0.96597
G1 X118.930 Y78.373 E0.01674
G1 X96.627 Y56.070 E0.98965
G1 X96.093 Y56.070 E0.01674
G1 X118.930 Y78.907 E1.01333
G1 X118.930 Y79.440 E0.01674
G1 X95.560 Y56.070 E1.03701
G1 X95.026 Y56.070 E0.01674
G1 X118.930 Y79.974 E1.06069
G1 X118.930 Y80.507 E0.01674
G1 X94.493 Y56.070 E1.08437
G1 X93.959 Y56.070 E0.01674
G1 X118.930 Y81.041 E1.10805
G1 X118.930 Y81.575 E0.01674
G1 X93.425 Y56.070 E1.13173
G1 X92.892 Y56.070 E0.01674
G1 X118.930 Y82.108 E1.15541
G1 X118.930 Y82.642 E0.01674
G1 X92.358 Y56.070 E1.17909
G1 X91.824 Y56.070 E0.01674
G1 X118.930 Y83.176 E1.20277
G1 X118.930 Y83.709 E0.01674
G1 X91.291 Y56.070 E1.22645
G1 X90.757 Y56.070 E0.01674
G1 X118.930 Y84.243 E1.25013
G1 X118.930 Y84.777 E0.01674
G1 X90.223 Y56.070 E1.27381
G1 X89.690 Y56.070 E0.01674
G1 X118.930 Y85.310 E1.29749
G1 X118.930 Y85.844 E0.01674
G1 X89.156 Y56.070 E1.32117
G1 X88.622 Y56.070 E0.01674
G1 X118.930 Y86.378 E1.34485
G1 X118.930 Y86.911 E0.01674
G1 X88.089 Y56.070 E1.36853
G1 X87.555 Y56.070 E0.01674
G1 X118.930 Y87.445 E1.39220
G1 X118.930 Y87.979 E0.01674
G1 X87.021 Y56.070 E1.41588
G1 X86.488 Y56.070 E0.01674
G1 X118.930 Y88.512 E1.43956
G1 X118.930 Y89.046 E0.01674
G1 X85.954 Y56.070 E1.46324
G1 X85.420 Y56.070 E0.01674
G1 X118.930 Y89.580 E1.48692
G1 X118.930 Y90.113 E0.01674
G1 X84.887 Y56.070 E1.51060
M73 P1 R227
G1 X84.353 Y56.070 E0.01674
G1 X118.930 Y90.647 E1.53428
M73 P1 R226
G1 X118.930 Y91.180 E0.01674
G1 X83.820 Y56.070 E1.55796
G1 X83.286 Y56.070 E0.01674
G1 X118.930 Y91.714 E1.58164
G1 X118.930 Y92.248 E0.01674
G1 X82.752 Y56.070 E1.60532
G1 X82.219 Y56.070 E0.01674
G1 X118.930 Y92.781 E1.62900
G1 X118.930 Y93.315 E0.01674
G1 X81.685 Y56.070 E1.65268
G1 X81.151 Y56.070 E0.01674
G1 X118.930 Y93.849 E1.67636
G1 X118.930 Y94.382 E0.01674
G1 X80.618 Y56.070 E1.70004
G1 X80.084 Y56.070 E0.01674
G1 X118.930 Y94.916 E1.72372
G1 X118.930 Y95.450 E0.01674
G1 X79.550 Y56.070 E1.74740
G1 X79.017 Y56.070 E0.01674
G1 X118.930 Y95.983 E1.77108
G1 X118.930 Y96.517 E0.01674
G1 X78.483 Y56.070 E1.79476
G1 X77.949 Y56.070 E0.01674
G1 X118.930 Y97.051 E1.81844
G1 X118.930 Y97.584 E0.01674
G1 X77.416 Y56.070 E1.84212
G1 X76.882 Y56.070 E0.01674
G1 X118.930 Y98.118 E1.86580
G1 X118.930 Y98.652 E0.01674
G1 X76.348 Y56.070 E1.88948
G1 X75.815 Y56.070 E0.01674
G1 X118.930 Y99.185 E1.91315
G1 X118.930 Y99.719 E0.01674
G1 X75.281 Y56.070 E1.93683
G1 X74.748 Y56.070 E0.01674
G1 X118.930 Y100.252 E1.96051
G1 X118.930 Y100.786 E0.01674
G1 X74.214 Y56.070 E1.98419
G1 X73.680 Y56.070 E0.01674
G1 X118.930 Y101.320 E2.00787
M73 P1 R225
G1 X118.930 Y101.853 E0.01674
G1 X73.147 Y56.070 E2.03155
G1 X72.613 Y56.070 E0.01674
G1 X118.930 Y102.387 E2.05523
G1 X118.930 Y102.921 E0.01674
G1 X72.079 Y56.070 E2.07891
G1 X71.546 Y56.070 E0.01674
G1 X118.930 Y103.454 E2.10259
G1 X118.930 Y103.988 E0.01674
G1 X71.012 Y56.070 E2.12627
G1 X70.478 Y56.070 E0.01674
G1 X118.930 Y104.522 E2.14995
G1 X118.930 Y105.055 E0.01674
G1 X69.945 Y56.070 E2.17363
G1 X69.411 Y56.070 E0.01674
G1 X118.930 Y105.589 E2.19731
G1 X118.930 Y106.123 E0.01674
G1 X68.877 Y56.070 E2.22099
G1 X68.344 Y56.070 E0.01674
G1 X118.930 Y106.656 E2.24467
G1 X118.930 Y107.190 E0.01674
G1 X67.810 Y56.070 E2.26835
G1 X67.276 Y56.070 E0.01674
G1 X118.930 Y107.724 E2.29203
G1 X118.930 Y108.257 E0.01674
G1 X66.743 Y56.070 E2.31571
G1 X66.209 Y56.070 E0.01674
G1 X118.930 Y108.791 E2.33939
G1 X118.930 Y109.324 E0.01674
G1 X65.676 Y56.070 E2.36307
G1 X65.142 Y56.070 E0.01674
G1 X118.930 Y109.858 E2.38675
G1 X118.930 Y110.392 E0.01674
G1 X64.608 Y56.070 E2.41043
M73 P1 R224
G1 X64.075 Y56.070 E0.01674
G1 X118.930 Y110.925 E2.43410
G1 X118.930 Y111.459 E0.01674
G1 X63.541 Y56.070 E2.45778
G1 X63.007 Y56.070 E0.01674
G1 X118.930 Y111.993 E2.48146
G1 X118.930 Y112.526 E0.01674
G1 X62.474 Y56.070 E2.50514
G1 X61.940 Y56.070 E0.01674
G1 X118.930 Y113.060 E2.52882
M73 P2 R224
G1 X118.930 Y113.594 E0.01674
G1 X61.406 Y56.070 E2.55250
G1 X61.070 Y56.070 E0.01056
G1 X61.070 Y56.267 E0.00619
G1 X118.930 Y114.127 E2.56743
G1 X118.930 Y114.661 E0.01674
G1 X61.070 Y56.801 E2.56743
G1 X61.070 Y57.334 E0.01674
G1 X118.930 Y115.195 E2.56743
G1 X118.930 Y115.728 E0.01674
G1 X61.070 Y57.868 E2.56743
G1 X61.070 Y58.402 E0.01674
G1 X118.930 Y116.262 E2.56743
G1 X118.930 Y116.796 E0.01674
G1 X61.070 Y58.935 E2.56743
G1 X61.070 Y59.469 E0.01674
G1 X118.930 Y117.329 E2.56743
G1 X118.930 Y117.863 E0.01674
G1 X61.070 Y60.003 E2.56743
G1 X61.070 Y60.536 E0.01674
G1 X118.930 Y118.396 E2.56743
M73 P2 R223
G1 X118.930 Y118.930 E0.01674
G1 X61.070 Y61.070 E2.56743
G1 X61.070 Y61.604 E0.01674
G1 X118.930 Y119.464 E2.56743
G1 X118.930 Y119.997 E0.01674
G1 X61.070 Y62.137 E2.56743
G1 X61.070 Y62.671 E0.01674
G1 X118.930 Y120.531 E2.56743
G1 X118.930 Y121.065 E0.01674
G1 X61.070 Y63.204 E2.56743
G1 X61.070 Y63.738 E0.01674
G1 X118.930 Y121.598 E2.56743
G1 X118.930 Y122.132 E0.01674
G1 X61.070 Y64.272 E2.56743
G1 X61.070 Y64.805 E0.01674
G1 X118.930 Y122.666 E2.56743
G1 X118.930 Y123.199 E0.01674
G1 X61.070 Y65.339 E2.56743
G1 X61.070 Y65.873 E0.01674
G1 X118.930 Y123.733 E2.56743
G1 X118.930 Y123.930 E0.00619
G1 X118.594 Y123.930 E0.01056
G1 X61.070 Y66.406 E2.55250
G1 X61.070 Y66.940 E0.01674
G1 X118.060 Y123.930 E2.52882
G1 X117.526 Y123.930 E0.01674
G1 X61.070 Y67.474 E2.50514
G1 X61.070 Y68.007 E0.01674
G1 X116.993 Y123.930 E2.48146
G1 X116.459 Y123.930 E0.01674
G1 X61.070 Y68.541 E2.45778
M73 P2 R222
G1 X61.070 Y69.075 E0.01674
G1 X115.925 Y123.930 E2.43410
G1 X115.392 Y123.930 E0.01674
G1 X61.070 Y69.608 E2.41042
G1 X61.070 Y70.142 E0.01674
G1 X114.858 Y123.930 E2.38674
G1 X114.324 Y123.930 E0.01674
G1 X61.070 Y70.676 E2.36306
G1 X61.070 Y71.209 E0.01674
G1 X113.791 Y123.930 E2.33939
G1 X113.257 Y123.930 E0.01674
G1 X61.070 Y71.743 E2.31571
G1 X61.070 Y72.276 E0.01674
G1 X112.724 Y123.930 E2.29203
G1 X112.190 Y123.930 E0.01674
G1 X61.070 Y72.810 E2.26835
G1 X61.070 Y73.344 E0.01674
G1 X111.656 Y123.930 E2.24467
M73 P3 R222
G1 X111.123 Y123.930 E0.01674
G1 X61.070 Y73.877 E2.22099
G1 X61.070 Y74.411 E0.01674
G1 X110.589 Y123.930 E2.19731
G1 X110.055 Y123.930 E0.01674
G1 X61.070 Y74.945 E2.17363
G1 X61.070 Y75.478 E0.01674
G1 X109.522 Y123.930 E2.14995
G1 X108.988 Y123.930 E0.01674
G1 X61.070 Y76.012 E2.12627
G1 X61.070 Y76.546 E0.01674
G1 X108.454 Y123.930 E2.10259
G1 X107.921 Y123.930 E0.01674
G1 X61.070 Y77.079 E2.07891
M73 P3 R221
G1 X61.070 Y77.613 E0.01674
G1 X107.387 Y123.930 E2.05523
G1 X106.853 Y123.930 E0.01674
G1 X61.070 Y78.147 E2.03155
G1 X61.070 Y78.680 E0.01674
G1 X106.320 Y123.930 E2.00787
G1 X105.786 Y123.930 E0.01674
G1 X61.070 Y79.214 E1.98419
G1 X61.070 Y79.748 E0.01674
G1 X105.252 Y123.930 E1.96051
G1 X104.719 Y123.930 E0.01674
G1 X61.070 Y80.281 E1.93683
G1 X61.070 Y80.815 E0.01674
G1 X104.185 Y123.930 E1.91315
G1 X103.651 Y123.930 E0.01674
G1 X61.070 Y81.349 E1.88947
G1 X61.070 Y81.882 E0.01674
G1 X103.118 Y123.930 E1.86579
G1 X102.584 Y123.930 E0.01674
G1 X61.070 Y82.416 E1.84211
G1 X61.070 Y82.949 E0.01674
G1 X102.051 Y123.930 E1.81844
G1 X101.517 Y123.930 E0.01674
G1 X61.070 Y83.483 E1.79476
G1 X61.070 Y84.017 E0.01674
G1 X100.983 Y123.930 E1.77108
G1 X100.450 Y123.930 E0.01674
G1 X61.070 Y84.550 E1.74740
G1 X61.070 Y85.084 E0.01674
G1 X99.916 Y123.930 E1.72372
G1 X99.382 Y123.930 E0.01674
G1 X61.070 Y85.618 E1.70004
G1 X61.070 Y86.151 E0.01674
G1 X98.849 Y123.930 E1.67636
G1 X98.315 Y123.930 E0.01674
G1 X61.070 Y86.685 E1.65268
G1 X61.070 Y87.219 E0.01674
G1 X97.781 Y123.930 E1.62900
G1 X97.248 Y123.930 E0.01674
G1 X61.070 Y87.752 E1.60532
M73 P3 R220
G1 X61.070 Y88.286 E0.01674
G1 X96.714 Y123.930 E1.58164
G1 X96.180 Y123.930 E0.01674
G1 X61.070 Y88.820 E1.55796
G1 X61.070 Y89.353 E0.01674
G1 X95.647 Y123.930 E1.53428
G1 X95.113 Y123.930 E0.01674
G1 X61.070 Y89.887 E1.51060
G1 X61.070 Y90.421 E0.01674
G1 X94.579 Y123.930 E1.48692
G1 X94.046 Y123.930 E0.01674
G1 X61.070 Y90.954 E1.46324
G1 X61.070 Y91.488 E0.01674
G1 X93.512 Y123.930 E1.43956
G1 X92.979 Y123.930 E0.01674
G1 X61.070 Y92.021 E1.41588
G1 X61.070 Y92.555 E0.01674
G1 X92.445 Y123.930 E1.39220
G1 X91.911 Y123.930 E0.01674
G1 X61.070 Y93.089 E1.36852
G1 X61.070 Y93.622 E0.01674
G1 X91.378 Y123.930 E1.34484
G1 X90.844 Y123.930 E0.01674
G1 X61.070 Y94.156 E1.32116
G1 X61.070 Y94.690 E0.01674
G1 X90.310 Y123.930 E1.29748
G1 X89.777 Y123.930 E0.01674
G1 X61.070 Y95.223 E1.27381
G1 X61.070 Y95.757 E0.01674
G1 X89.243 Y123.930 E1.25013
G1 X88.709 Y123.930 E0.01674
G1 X61.070 Y96.291 E1.22645
G1 X61.070 Y96.824 E0.01674
G1 X88.176 Y123.930 E1.20277
G1 X87.642 Y123.930 E0.01674
G1 X61.070 Y97.358 E1.17909
G1 X61.070 Y97.892 E0.01674
G1 X87.108 Y123.930 E1.15541
G1 X86.575 Y123.930 E0.01674
G1 X61.070 Y98.425 E1.13173
G1 X61.070 Y98.959 E0.01674
G1 X86.041 Y123.930 E1.10805
G1 X85.507 Y123.930 E0.01674
G1 X61.070 Y99.493 E1.08437
G1 X61.070 Y100.026 E0.01674
G1 X84.974 Y123.930 E1.06069
G1 X84.440 Y123.930 E0.01674
G1 X61.070 Y100.560 E1.03701
M73 P4 R220
G1 X61.070 Y101.093 E0.01674
G1 X83.907 Y123.930 E1.01333
G1 X83.373 Y123.930 E0.01674
G1 X61.070 Y101.627 E0.98965
G1 X61.070 Y102.161 E0.01674
G1 X82.839 Y123.930 E0.96597
G1 X82.306 Y123.930 E0.01674
G1 X61.070 Y102.694 E0.94229
G1 X61.070 Y103.228 E0.01674
G1 X81.772 Y123.930 E0.91861
G1 X81.238 Y123.930 E0.01674
G1 X61.070 Y103.762 E0.89493
M73 P4 R219
G1 X61.070 Y104.295 E0.01674
G1 X80.705 Y123.930 E0.87125
G1 X80.171 Y123.930 E0.01674
G1 X61.070 Y104.829 E0.84757
G1 X61.070 Y105.363 E0.01674
G1 X79.637 Y123.930 E0.82389
G1 X79.104 Y123.930 E0.01674
G1 X61.070 Y105.896 E0.80021
G1 X61.070 Y106.430 E0.01674
G1 X78.570 Y123.930 E0.77653
G1 X78.036 Y123.930 E0.01674
G1 X61.070 Y106.964 E0.75286
G1 X61.070 Y107.497 E0.01674
G1 X77.503 Y123.930 E0.72918
G1 X76.969 Y123.930 E0.01674
G1 X61.070 Y108.031 E0.70550
G1 X61.070 Y108.565 E0.01674
G1 X76.435 Y123.930 E0.68182
G1 X75.902 Y123.930 E0.01674
G1 X61.070 Y109.098 E0.65814
G1 X61.070 Y109.632 E0.01674
G1 X75.368 Y123.930 E0.63446
G1 X74.835 Y123.930 E0.01674
G1 X61.070 Y110.165 E0.61078
G1 X61.070 Y110.699 E0.01674
G1 X74.301 Y123.930 E0.58710
G1 X73.767 Y123.930 E0.01674
G1 X61.070 Y111.233 E0.56342
G1 X61.070 Y111.766 E0.01674
G1 X73.234 Y123.930 E0.53974
G1 X72.700 Y123.930 E0.01674
G1 X61.070 Y112.300 E0.51606
G1 X61.070 Y112.834 E0.01674
G1 X72.166 Y123.930 E0.49238
G1 X71.633 Y123.930 E0.01674
G1 X61.070 Y113.367 E0.46870
G1 X61.070 Y113.901 E0.01674
