; generated by PrusaSlicer 2.2.0+win64 on 2021-01-11 at 16:48:04 UTC


;
;

;
;
; 

; external perimeters extrusion width = 0.45mm
; perimeters extrusion width = 0.45mm
; infill extrusion width = 0.45mm
; solid infill extrusion width = 0.45mm
; top infill extrusion width = 0.40mm
; first layer extrusion width = 0.42mm

M73 P0 R66
M201 X1250 Y1250 Z400 E5000 ; sets maximum accelerations, mm/sec^2
M203 X180 Y180 Z12 E80 ; sets maximum feedrates, mm/sec
M204 P1250 R1250 T1250 ; sets acceleration (P, T) and retract acceleration (R), mm/sec^2
M205 X8.00 Y8.00 Z2.00 E10.00 ; sets the jerk limits, mm/sec
M205 S0 T0 ; sets the minimum extruding and travel feed rate, mm/sec
M107
G90 ; use absolute coordinates
M83 ; extruder relative mode
M104 S170 ; set extruder temp for bed leveling
M140 S60 ; set bed temp
M109 R170 ; wait for bed leveling temp
M190 S60 ; wait for bed temp
G28 ; home all without mesh bed level
G29 ; mesh bed leveling 
M104 S215 ; set extruder temp
G92 E0.0
G1 Y-2.0 X179 F2400
G1 Z3 F720
M109 S215 ; wait for extruder temp

; intro line
G1 X170 F1000
G1 Z0.2 F720
G1 X110.0 E8.0 F900
M73 P0 R66
G1 X40.0 E10.0 F700
G92 E0.0

M221 S95 ; set flow
G21 ; set units to millimeters
G90 ; use absolute coordinates
M83 ; use relative distances for extrusion
M900 K0.2 ; Filament gcode LA 1.5
; ; Filament gcode LA 1.0
;BEFORE_LAYER_CHANGE
G92 E0.0
;0.2


G1 Z0.200 F9000.000
;AFTER_LAYER_CHANGE
;0.2
G1 E-3.20000 F4200.00000
G1 Z0.400 F9000.000
G1 X87.874 Y93.043
G1 Z0.200
G1 E3.20000 F2400.00000
M204 S800
G1 F1200.000
G1 X87.636 Y92.228 E0.02661
G1 X87.623 Y87.971 E0.13349
G1 X87.737 Y87.293 E0.02154
G1 X88.039 Y86.676 E0.02154
G1 X88.503 Y86.174 E0.02142
G1 X89.090 Y85.824 E0.02142
G1 X89.752 Y85.656 E0.02142
G1 X149.904 Y85.643 E1.88602
G1 X150.795 Y85.818 E0.02849
G1 X151.559 Y86.317 E0.02860
G1 X152.078 Y87.068 E0.02860
G1 X152.276 Y87.954 E0.02849
G1 X152.276 Y92.041 E0.12813
G1 X152.155 Y92.732 E0.02201
G1 X151.850 Y93.339 E0.02130
G1 X151.389 Y93.833 E0.02119
G1 X150.807 Y94.177 E0.02119
G1 X150.148 Y94.344 E0.02130
G1 X89.920 Y94.356 E1.88841
G1 X89.094 Y94.178 E0.02649
G1 X88.380 Y93.719 E0.02661
G1 X87.910 Y93.091 E0.02461
M204 S1250
; printing object trafic_lights_box_v1.stl id:0 copy 0
G1 E-2.24000 F4200.00000
G1 F7200.000
G1 X87.636 Y92.228 E-0.50157
G1 X87.634 Y91.487 E-0.41043
G1 E-0.04800 F4200.00000
G1 Z0.400 F9000.000
G1 X90.210 Y90.293
G1 Z0.200
G1 E3.20000 F2400.00000
M204 S800
G1 F1200.000
G1 X90.210 Y89.707 E0.01836
G1 X149.690 Y89.707 E1.86495
G1 X149.690 Y90.293 E0.01836
G1 X90.270 Y90.293 E1.86307
M204 S1250
G1 X90.409 Y89.946 F9000.000
G1 E-2.24000 F4200.00000
G1 F7200.000
G1 X90.210 Y89.707 E-0.32615
G1 X91.267 Y89.707 E-0.58585
G1 E-0.04800 F4200.00000
G1 Z0.400 F9000.000
G1 X149.501 Y90.000
G1 Z0.200
G1 E3.20000 F2400.00000
M204 S800
G1 F1200.000
G1 X90.399 Y90.000 E1.02416
M204 S1250
; stop printing object trafic_lights_box_v1.stl id:0 copy 0
M106 S255
;BEFORE_LAYER_CHANGE
G92 E0.0
;0.35


G1 Z0.350 F9000.000
;AFTER_LAYER_CHANGE
;0.35
M104 S210 ; set temperature
G1 E-3.20000 F4200.00000
G1 Z0.550 F9000.000
G1 X87.874 Y93.043
G1 Z0.350
G1 E3.20000 F2400.00000
G1 X87.636 Y92.228 E0.02052
G1 X87.623 Y87.971 E0.10297
G1 X87.737 Y87.293 E0.01662
G1 X88.039 Y86.676 E0.01662
G1 X88.503 Y86.174 E0.01652
G1 X89.090 Y85.824 E0.01652
G1 X89.752 Y85.656 E0.01652
G1 X149.904 Y85.643 E1.45477
G1 X150.795 Y85.818 E0.02197
G1 X151.559 Y86.317 E0.02206
G1 X152.078 Y87.068 E0.02206
G1 X152.276 Y87.954 E0.02197
G1 X152.276 Y92.041 E0.09883
G1 X152.155 Y92.732 E0.01698
G1 X151.850 Y93.339 E0.01643
G1 X151.389 Y93.833 E0.01634
G1 X150.807 Y94.177 E0.01634
G1 X150.148 Y94.344 E0.01643
G1 X89.920 Y94.356 E1.45661
G1 X89.094 Y94.178 E0.02043
G1 X88.380 Y93.719 E0.02052
G1 X87.910 Y93.091 E0.01898
; printing object trafic_lights_box_v1.stl id:0 copy 0
G1 E-2.24000 F4200.00000
G1 F7200.000
G1 X87.636 Y92.228 E-0.50157
G1 X87.634 Y91.487 E-0.41043
G1 E-0.04800 F4200.00000
G1 Z0.550 F9000.000
G1 X90.643 Y90.740
G1 Z0.350
G1 E3.20000 F2400.00000
M204 S800
G1 X90.643 Y89.260 E0.03855
G1 X149.257 Y89.260 E1.52724
G1 X149.257 Y90.740 E0.03855
G1 X90.703 Y90.740 E1.52568
M204 S1250
G1 X90.703 Y91.158 F9000.000
M204 S800
G1 F1800.000
G1 X90.225 Y91.158 E0.01245
G1 X90.225 Y88.842 E0.06032
G1 X149.675 Y88.842 E1.54902
G1 X149.675 Y91.158 E0.06032
G1 X90.763 Y91.158 E1.53500
M204 S1250
G1 X90.498 Y90.814 F9000.000
G1 E-2.24000 F4200.00000
G1 F7200.000
G1 X90.225 Y91.158 E-0.29804
G1 X90.225 Y90.050 E-0.61396
G1 E-0.04800 F4200.00000
G1 Z0.550 F9000.000
G1 X149.132 Y89.577
G1 Z0.350
G1 E3.20000 F2400.00000
M204 S1000
G1 F1800.000
G1 X90.957 Y89.577 E2.65025
G1 X90.957 Y90.000 E0.01929
G1 X148.943 Y90.000 E2.64167
G1 X148.943 Y90.424 E0.01929
G1 X90.768 Y90.424 E2.65025
M204 S1250
; stop printing object trafic_lights_box_v1.stl id:0 copy 0
;BEFORE_LAYER_CHANGE
G92 E0.0
;0.5


G1 Z0.500 F9000.000
;AFTER_LAYER_CHANGE
;0.5
G1 E-3.20000 F4200.00000
G1 Z0.700 F9000.000
G1 X87.874 Y93.043
G1 Z0.500
G1 E3.20000 F2400.00000
G1 X87.636 Y92.228 E0.02052
G1 X87.623 Y87.971 E0.10297
G1 X87.737 Y87.293 E0.01662
G1 X88.039 Y86.676 E0.01662
G1 X88.503 Y86.174 E0.01652
G1 X89.090 Y85.824 E0.01652
G1 X89.752 Y85.656 E0.01652
G1 X149.904 Y85.643 E1.45477
G1 X150.795 Y85.818 E0.02197
G1 X151.559 Y86.317 E0.02206
G1 X152.078 Y87.068 E0.02206
G1 X152.276 Y87.954 E0.02197
G1 X152.276 Y92.041 E0.09883
G1 X152.155 Y92.732 E0.01698
G1 X151.850 Y93.339 E0.01643
G1 X151.389 Y93.833 E0.01634
G1 X150.807 Y94.177 E0.01634
G1 X150.148 Y94.344 E0.01643
G1 X89.920 Y94.356 E1.45661
G1 X89.094 Y94.178 E0.02043
G1 X88.380 Y93.719 E0.02052
G1 X87.910 Y93.091 E0.01898
; printing object trafic_lights_box_v1.stl id:0 copy 0
G1 E-2.24000 F4200.00000
G1 F7200.000
G1 X87.636 Y92.228 E-0.50157
G1 X87.634 Y91.487 E-0.41043
G1 E-0.04800 F4200.00000
G1 Z0.700 F9000.000
G1 X90.643 Y91.337
G1 Z0.500
G1 E3.20000 F2400.00000
M204 S800
G1 X90.643 Y88.663 E0.06968
G1 X149.257 Y88.663 E1.52724
G1 X149.257 Y91.337 E0.06968
G1 X90.703 Y91.337 E1.52568
M204 S1250
G1 X90.703 Y91.755 F9000.000
M204 S800
G1 F1800.000
G1 X90.225 Y91.755 E0.01245
G1 X90.225 Y88.245 E0.09145
G1 X149.675 Y88.245 E1.54902
G1 X149.675 Y91.755 E0.09145
G1 X90.763 Y91.755 E1.53500
M204 S1250
G1 X90.496 Y91.412 F9000.000
G1 E-2.24000 F4200.00000
G1 F7200.000
G1 X90.225 Y91.755 E-0.29804
G1 X90.225 Y90.647 E-0.61396
G1 E-0.04800 F4200.00000
G1 Z0.700 F9000.000
G1 X149.132 Y89.633
G1 Z0.500
G1 E3.20000 F2400.00000
M204 S1000
G1 F4800.000
G1 X148.475 Y88.976 E0.02420
G1 X147.884 Y88.976 E0.01540
G1 X148.944 Y90.036 E0.03906
G1 X148.944 Y90.627 E0.01540
G1 X147.293 Y88.976 E0.06084
G1 X146.702 Y88.976 E0.01540
G1 X148.750 Y91.024 E0.07546
G1 X148.159 Y91.024 E0.01540
G1 X146.111 Y88.976 E0.07546
G1 X145.520 Y88.976 E0.01540
G1 X147.568 Y91.024 E0.07546
G1 X146.977 Y91.024 E0.01540
G1 X144.929 Y88.976 E0.07546
G1 X144.338 Y88.976 E0.01540
G1 X146.386 Y91.024 E0.07546
G1 X145.795 Y91.024 E0.01540
G1 X143.747 Y88.976 E0.07546
G1 X143.156 Y88.976 E0.01540
G1 X145.204 Y91.024 E0.07546
G1 X144.613 Y91.024 E0.01540
G1 X142.565 Y88.976 E0.07546
G1 X141.974 Y88.976 E0.01540
G1 X144.022 Y91.024 E0.07546
G1 X143.431 Y91.024 E0.01540
G1 X141.383 Y88.976 E0.07546
G1 X140.792 Y88.976 E0.01540
G1 X142.840 Y91.024 E0.07546
G1 X142.249 Y91.024 E0.01540
G1 X140.201 Y88.976 E0.07546
G1 X139.610 Y88.976 E0.01540
G1 X141.658 Y91.024 E0.07546
G1 X141.067 Y91.024 E0.01540
G1 X139.019 Y88.976 E0.07546
G1 X138.428 Y88.976 E0.01540
G1 X140.476 Y91.024 E0.07546
G1 X139.885 Y91.024 E0.01540
G1 X137.838 Y88.976 E0.07546
G1 X137.247 Y88.976 E0.01540
G1 X139.294 Y91.024 E0.07546
G1 X138.703 Y91.024 E0.01540
G1 X136.656 Y88.976 E0.07546
G1 X136.065 Y88.976 E0.01540
G1 X138.112 Y91.024 E0.07546
G1 X137.521 Y91.024 E0.01540
G1 X135.474 Y88.976 E0.07546
G1 X134.883 Y88.976 E0.01540
G1 X136.930 Y91.024 E0.07546
G1 X136.339 Y91.024 E0.01540
G1 X134.292 Y88.976 E0.07546
G1 X133.701 Y88.976 E0.01540
G1 X135.748 Y91.024 E0.07546
G1 X135.157 Y91.024 E0.01540
G1 X133.110 Y88.976 E0.07546
G1 X132.519 Y88.976 E0.01540
G1 X134.566 Y91.024 E0.07546
G1 X133.975 Y91.024 E0.01540
G1 X131.928 Y88.976 E0.07546
G1 X131.337 Y88.976 E0.01540
G1 X133.384 Y91.024 E0.07546
G1 X132.793 Y91.024 E0.01540
G1 X130.746 Y88.976 E0.07546
G1 X130.155 Y88.976 E0.01540
G1 X132.202 Y91.024 E0.07546
G1 X131.611 Y91.024 E0.01540
G1 X129.564 Y88.976 E0.07546
G1 X128.973 Y88.976 E0.01540
G1 X131.020 Y91.024 E0.07546
G1 X130.429 Y91.024 E0.01540
G1 X128.382 Y88.976 E0.07546
G1 X127.791 Y88.976 E0.01540
G1 X129.838 Y91.024 E0.07546
G1 X129.247 Y91.024 E0.01540
M73 P1 R65
G1 X127.200 Y88.976 E0.07546
G1 X126.609 Y88.976 E0.01540
G1 X128.656 Y91.024 E0.07546
G1 X128.065 Y91.024 E0.01540
G1 X126.018 Y88.976 E0.07546
G1 X125.427 Y88.976 E0.01540
G1 X127.474 Y91.024 E0.07546
G1 X126.883 Y91.024 E0.01540
G1 X124.836 Y88.976 E0.07546
G1 X124.245 Y88.976 E0.01540
G1 X126.292 Y91.024 E0.07546
G1 X125.701 Y91.024 E0.01540
G1 X123.654 Y88.976 E0.07546
G1 X123.063 Y88.976 E0.01540
G1 X125.110 Y91.024 E0.07546
G1 X124.520 Y91.024 E0.01540
G1 X122.472 Y88.976 E0.07546
G1 X121.881 Y88.976 E0.01540
G1 X123.929 Y91.024 E0.07546
G1 X123.338 Y91.024 E0.01540
G1 X121.290 Y88.976 E0.07546
G1 X120.699 Y88.976 E0.01540
G1 X122.747 Y91.024 E0.07546
G1 X122.156 Y91.024 E0.01540
G1 X120.108 Y88.976 E0.07546
G1 X119.517 Y88.976 E0.01540
G1 X121.565 Y91.024 E0.07546
G1 X120.974 Y91.024 E0.01540
G1 X118.926 Y88.976 E0.07546
G1 X118.335 Y88.976 E0.01540
G1 X120.383 Y91.024 E0.07546
G1 X119.792 Y91.024 E0.01540
G1 X117.744 Y88.976 E0.07546
G1 X117.153 Y88.976 E0.01540
G1 X119.201 Y91.024 E0.07546
G1 X118.610 Y91.024 E0.01540
G1 X116.562 Y88.976 E0.07546
G1 X115.971 Y88.976 E0.01540
G1 X118.019 Y91.024 E0.07546
G1 X117.428 Y91.024 E0.01540
G1 X115.380 Y88.976 E0.07546
G1 X114.789 Y88.976 E0.01540
G1 X116.837 Y91.024 E0.07546
G1 X116.246 Y91.024 E0.01540
G1 X114.198 Y88.976 E0.07546
G1 X113.607 Y88.976 E0.01540
G1 X115.655 Y91.024 E0.07546
G1 X115.064 Y91.024 E0.01540
G1 X113.016 Y88.976 E0.07546
G1 X112.425 Y88.976 E0.01540
G1 X114.473 Y91.024 E0.07546
G1 X113.882 Y91.024 E0.01540
G1 X111.835 Y88.976 E0.07546
G1 X111.244 Y88.976 E0.01540
G1 X113.291 Y91.024 E0.07546
G1 X112.700 Y91.024 E0.01540
G1 X110.653 Y88.976 E0.07546
G1 X110.062 Y88.976 E0.01540
G1 X112.109 Y91.024 E0.07546
G1 X111.518 Y91.024 E0.01540
G1 X109.471 Y88.976 E0.07546
G1 X108.880 Y88.976 E0.01540
G1 X110.927 Y91.024 E0.07546
G1 X110.336 Y91.024 E0.01540
G1 X108.289 Y88.976 E0.07546
G1 X107.698 Y88.976 E0.01540
G1 X109.745 Y91.024 E0.07546
G1 X109.154 Y91.024 E0.01540
G1 X107.107 Y88.976 E0.07546
G1 X106.516 Y88.976 E0.01540
G1 X108.563 Y91.024 E0.07546
G1 X107.972 Y91.024 E0.01540
G1 X105.925 Y88.976 E0.07546
G1 X105.334 Y88.976 E0.01540
G1 X107.381 Y91.024 E0.07546
G1 X106.790 Y91.024 E0.01540
G1 X104.743 Y88.976 E0.07546
G1 X104.152 Y88.976 E0.01540
G1 X106.199 Y91.024 E0.07546
G1 X105.608 Y91.024 E0.01540
G1 X103.561 Y88.976 E0.07546
G1 X102.970 Y88.976 E0.01540
G1 X105.017 Y91.024 E0.07546
G1 X104.426 Y91.024 E0.01540
G1 X102.379 Y88.976 E0.07546
G1 X101.788 Y88.976 E0.01540
G1 X103.835 Y91.024 E0.07546
G1 X103.244 Y91.024 E0.01540
G1 X101.197 Y88.976 E0.07546
G1 X100.606 Y88.976 E0.01540
G1 X102.653 Y91.024 E0.07546
G1 X102.062 Y91.024 E0.01540
G1 X100.015 Y88.976 E0.07546
G1 X99.424 Y88.976 E0.01540
G1 X101.471 Y91.024 E0.07546
G1 X100.880 Y91.024 E0.01540
G1 X98.833 Y88.976 E0.07546
G1 X98.242 Y88.976 E0.01540
G1 X100.289 Y91.024 E0.07546
G1 X99.698 Y91.024 E0.01540
G1 X97.651 Y88.976 E0.07546
G1 X97.060 Y88.976 E0.01540
G1 X99.107 Y91.024 E0.07546
G1 X98.517 Y91.024 E0.01540
G1 X96.469 Y88.976 E0.07546
G1 X95.878 Y88.976 E0.01540
G1 X97.926 Y91.024 E0.07546
G1 X97.335 Y91.024 E0.01540
G1 X95.287 Y88.976 E0.07546
G1 X94.696 Y88.976 E0.01540
G1 X96.744 Y91.024 E0.07546
G1 X96.153 Y91.024 E0.01540
G1 X94.105 Y88.976 E0.07546
G1 X93.514 Y88.976 E0.01540
G1 X95.562 Y91.024 E0.07546
G1 X94.971 Y91.024 E0.01540
G1 X92.923 Y88.976 E0.07546
G1 X92.332 Y88.976 E0.01540
G1 X94.380 Y91.024 E0.07546
G1 X93.789 Y91.024 E0.01540
G1 X91.741 Y88.976 E0.07546
G1 X91.150 Y88.976 E0.01540
G1 X93.198 Y91.024 E0.07546
G1 X92.607 Y91.024 E0.01540
G1 X90.956 Y89.373 E0.06083
G1 X90.956 Y89.964 E0.01540
G1 X92.016 Y91.024 E0.03905
G1 X91.425 Y91.024 E0.01540
G1 X90.768 Y90.367 E0.02420
M204 S1250
; stop printing object trafic_lights_box_v1.stl id:0 copy 0
;BEFORE_LAYER_CHANGE
G92 E0.0
;0.65


G1 Z0.650 F9000.000
;AFTER_LAYER_CHANGE
;0.65
; printing object trafic_lights_box_v1.stl id:0 copy 0
G1 X90.643 Y91.562
M204 S800
G1 F2400.000
G1 X90.643 Y88.438 E0.08137
G1 X149.257 Y88.438 E1.52724
G1 X149.257 Y91.562 E0.08137
G1 X90.703 Y91.562 E1.52568
M204 S1250
G1 X90.225 Y91.979 F9000.000
M204 S800
G1 F1800.000
G1 X90.225 Y88.021 E0.10315
G1 X149.675 Y88.021 E1.54902
G1 X149.675 Y91.979 E0.10315
G1 X90.285 Y91.979 E1.54745
M204 S1250
G1 X90.417 Y91.629 F9000.000
G1 E-2.24000 F4200.00000
G1 F7200.000
G1 X90.260 Y90.334 E-0.91200
G1 E-0.04800 F4200.00000
G1 Z0.850 F9000.000
G1 X148.281 Y91.436
G1 Z0.650
G1 E3.20000 F2400.00000
M204 S1000
G1 F3437
G1 X148.944 Y90.773 E0.02463
G1 X148.944 Y90.178 E0.01563
G1 X147.873 Y91.248 E0.03975
G1 X147.278 Y91.248 E0.01563
G1 X148.944 Y89.582 E0.06185
G1 X148.944 Y88.987 E0.01563
G1 X146.683 Y91.248 E0.08395
G1 X146.087 Y91.248 E0.01563
G1 X148.584 Y88.752 E0.09268
G1 X147.988 Y88.752 E0.01563
G1 X145.492 Y91.248 E0.09268
G1 X144.897 Y91.248 E0.01563
G1 X147.393 Y88.752 E0.09268
G1 X146.798 Y88.752 E0.01563
G1 X144.301 Y91.248 E0.09268
G1 X143.706 Y91.248 E0.01563
G1 X146.202 Y88.752 E0.09268
G1 X145.607 Y88.752 E0.01563
G1 X143.111 Y91.248 E0.09268
G1 X142.515 Y91.248 E0.01563
G1 X145.012 Y88.752 E0.09268
G1 X144.416 Y88.752 E0.01563
G1 X141.920 Y91.248 E0.09268
G1 X141.325 Y91.248 E0.01563
G1 X143.821 Y88.752 E0.09268
G1 X143.226 Y88.752 E0.01563
G1 X140.729 Y91.248 E0.09268
G1 X140.134 Y91.248 E0.01563
G1 X142.630 Y88.752 E0.09268
G1 X142.035 Y88.752 E0.01563
G1 X139.539 Y91.248 E0.09268
G1 X138.943 Y91.248 E0.01563
G1 X141.440 Y88.752 E0.09268
G1 X140.844 Y88.752 E0.01563
G1 X138.348 Y91.248 E0.09268
G1 X137.753 Y91.248 E0.01563
G1 X140.249 Y88.752 E0.09268
G1 X139.654 Y88.752 E0.01563
G1 X137.157 Y91.248 E0.09268
G1 X136.562 Y91.248 E0.01563
G1 X139.058 Y88.752 E0.09268
G1 X138.463 Y88.752 E0.01563
G1 X135.967 Y91.248 E0.09268
G1 X135.371 Y91.248 E0.01563
G1 X137.868 Y88.752 E0.09268
G1 X137.272 Y88.752 E0.01563
G1 X134.776 Y91.248 E0.09268
G1 X134.181 Y91.248 E0.01563
G1 X136.677 Y88.752 E0.09268
G1 X136.082 Y88.752 E0.01563
G1 X133.585 Y91.248 E0.09268
G1 X132.990 Y91.248 E0.01563
G1 X135.486 Y88.752 E0.09268
G1 X134.891 Y88.752 E0.01563
G1 X132.394 Y91.248 E0.09268
G1 X131.799 Y91.248 E0.01563
G1 X134.296 Y88.752 E0.09268
G1 X133.700 Y88.752 E0.01563
G1 X131.204 Y91.248 E0.09268
G1 X130.608 Y91.248 E0.01563
G1 X133.105 Y88.752 E0.09268
G1 X132.510 Y88.752 E0.01563
G1 X130.013 Y91.248 E0.09268
G1 X129.418 Y91.248 E0.01563
G1 X131.914 Y88.752 E0.09268
G1 X131.319 Y88.752 E0.01563
G1 X128.822 Y91.248 E0.09268
G1 X128.227 Y91.248 E0.01563
G1 X130.724 Y88.752 E0.09268
G1 X130.128 Y88.752 E0.01563
G1 X127.632 Y91.248 E0.09268
G1 X127.036 Y91.248 E0.01563
G1 X129.533 Y88.752 E0.09268
G1 X128.938 Y88.752 E0.01563
G1 X126.441 Y91.248 E0.09268
G1 X125.846 Y91.248 E0.01563
G1 X128.342 Y88.752 E0.09268
G1 X127.747 Y88.752 E0.01563
G1 X125.250 Y91.248 E0.09268
G1 X124.655 Y91.248 E0.01563
G1 X127.152 Y88.752 E0.09268
G1 X126.556 Y88.752 E0.01563
G1 X124.060 Y91.248 E0.09268
G1 X123.464 Y91.248 E0.01563
G1 X125.961 Y88.752 E0.09268
G1 X125.366 Y88.752 E0.01563
G1 X122.869 Y91.248 E0.09268
G1 X122.274 Y91.248 E0.01563
G1 X124.770 Y88.752 E0.09268
G1 X124.175 Y88.752 E0.01563
G1 X121.678 Y91.248 E0.09268
G1 X121.083 Y91.248 E0.01563
G1 X123.580 Y88.752 E0.09268
G1 X122.984 Y88.752 E0.01563
G1 X120.488 Y91.248 E0.09268
G1 X119.892 Y91.248 E0.01563
G1 X122.389 Y88.752 E0.09268
G1 X121.793 Y88.752 E0.01563
G1 X119.297 Y91.248 E0.09268
G1 X118.702 Y91.248 E0.01563
G1 X121.198 Y88.752 E0.09268
G1 X120.603 Y88.752 E0.01563
