; generated by PrusaSlicer 2.3.3+win64 on 2021-12-07 at 15:44:19 UTC


;
;

;
;
; 

; external perimeters extrusion width = 0.45mm
; perimeters extrusion width = 0.45mm
; infill extrusion width = 0.45mm
; solid infill extrusion width = 0.45mm
; top infill extrusion width = 0.40mm
; first layer extrusion width = 0.42mm

M73 P0 R108
M201 X1250 Y1250 Z400 E5000 ; sets maximum accelerations, mm/sec^2
M203 X180 Y180 Z12 E80 ; sets maximum feedrates, mm/sec
M204 P1250 R1250 T1250 ; sets acceleration (P, T) and retract acceleration (R), mm/sec^2
M205 X8.00 Y8.00 Z2.00 E10.00 ; sets the jerk limits, mm/sec
M205 S0 T0 ; sets the minimum extruding and travel feed rate, mm/sec
M107
;TYPE:Custom
G90 ; use absolute coordinates
M83 ; extruder relative mode
M104 S170 ; set extruder temp for bed leveling
M140 S60 ; set bed temp
M109 R170 ; wait for bed leveling temp
M190 S60 ; wait for bed temp
G28 ; home all without mesh bed level
G29 ; mesh bed leveling 
M104 S215 ; set extruder temp
G92 E0.0
G1 Y-2.0 X179 F2400
G1 Z3 F720
M109 S215 ; wait for extruder temp

; intro line
G1 X170 F1000
G1 Z0.2 F720
G1 X110.0 E8.0 F900
G1 X40.0 E10.0 F700
G92 E0.0

M221 S95 ; set flow
G21 ; set units to millimeters
G90 ; use absolute coordinates
M83 ; use relative distances for extrusion
M900 K0.2 ; Filament gcode LA 1.5
; ; Filament gcode LA 1.0
;LAYER_CHANGE
;Z:0.2
;HEIGHT:0.2
;BEFORE_LAYER_CHANGE
G92 E0.0
;0.2


G1 E-3.20000 F4200.000
G1 Z0.200 F9000.000
;AFTER_LAYER_CHANGE
;0.2
G1 Z0.400
G1 X70.792 Y58.347
G1 Z0.200
G1 E3.20000 F2400.000
M204 S800
;TYPE:Skirt
;WIDTH:0.42
G1 F1200.000
G1 X71.267 Y57.968 E0.01906
G1 X71.823 Y57.721 E0.01906
G1 X72.423 Y57.624 E0.01906
G1 X107.504 Y57.623 E1.09994
G1 X108.392 Y57.797 E0.02837
G1 X109.153 Y58.292 E0.02849
G1 X109.673 Y59.037 E0.02849
G1 X109.876 Y59.923 E0.02849
G1 X109.877 Y120.011 E1.88404
G1 X109.798 Y120.606 E0.01882
G1 X109.573 Y121.163 E0.01882
G1 X109.205 Y121.656 E0.01929
G1 X108.723 Y122.038 E0.01929
G1 X108.159 Y122.284 E0.01929
G1 X107.554 Y122.376 E0.01917
G1 X72.481 Y122.377 E1.09970
G1 X71.890 Y122.297 E0.01870
G1 X71.337 Y122.073 E0.01870
G1 X70.841 Y121.703 E0.01941
G1 X70.458 Y121.217 E0.01941
G1 X70.213 Y120.648 E0.01941
G1 X70.123 Y120.035 E0.01941
G1 X70.123 Y59.989 E1.88272
G1 X70.202 Y59.394 E0.01882
G1 X70.427 Y58.837 E0.01882
G1 X70.756 Y58.395 E0.01729
M204 S1250
; printing object Trafic_Lights_Netta_PCB_small_leds.stl id:0 copy 0
G1 E-2.24000 F4200.000
;WIPE_START
G1 F7200.000
G1 X71.267 Y57.968 E-0.36906
G1 X71.823 Y57.721 E-0.33681
G1 X72.190 Y57.662 E-0.20613
;WIPE_END
G1 E-0.04800 F4200.000
G1 Z0.400 F9000.000
G1 X81.068 Y92.850
G1 Z0.200
G1 E3.20000 F2400.000
M204 S800
;TYPE:Perimeter
G1 F1200.000
G1 X80.761 Y92.732 E0.01030
G1 X80.431 Y92.564 E0.01161
G1 X80.120 Y92.362 E0.01161
G1 X79.833 Y92.129 E0.01161
G1 X79.571 Y91.867 E0.01161
G1 X79.338 Y91.580 E0.01161
G1 X79.135 Y91.267 E0.01168
G1 X78.958 Y90.914 E0.01239
G1 X78.835 Y90.593 E0.01076
G1 X78.739 Y90.236 E0.01161
G1 X78.681 Y89.870 E0.01161
G1 X78.662 Y89.500 E0.01161
G1 X78.681 Y89.130 E0.01161
G1 X78.739 Y88.764 E0.01161
G1 X78.835 Y88.407 E0.01161
G1 X78.968 Y88.061 E0.01161
G1 X79.136 Y87.731 E0.01161
G1 X79.338 Y87.420 E0.01161
G1 X79.571 Y87.133 E0.01161
G1 X79.833 Y86.871 E0.01161
G1 X80.120 Y86.638 E0.01161
G1 X80.431 Y86.436 E0.01161
G1 X80.761 Y86.268 E0.01161
G1 X81.107 Y86.135 E0.01161
G1 X81.464 Y86.039 E0.01161
G1 X81.830 Y85.981 E0.01161
G1 X82.173 Y85.963 E0.01076
G1 X82.568 Y85.981 E0.01239
G1 X82.936 Y86.039 E0.01168
G1 X83.293 Y86.135 E0.01161
G1 X83.639 Y86.268 E0.01161
G1 X83.969 Y86.436 E0.01161
G1 X84.280 Y86.638 E0.01161
G1 X84.567 Y86.871 E0.01161
G1 X84.829 Y87.133 E0.01161
G1 X85.062 Y87.420 E0.01161
G1 X85.264 Y87.731 E0.01161
G1 X85.432 Y88.061 E0.01161
G1 X85.565 Y88.407 E0.01161
G1 X85.661 Y88.764 E0.01161
G1 X85.719 Y89.130 E0.01161
G1 X85.738 Y89.500 E0.01161
G1 X85.719 Y89.870 E0.01161
G1 X85.661 Y90.236 E0.01161
G1 X85.565 Y90.593 E0.01161
G1 X85.432 Y90.939 E0.01161
G1 X85.264 Y91.269 E0.01161
G1 X85.062 Y91.580 E0.01161
G1 X84.829 Y91.867 E0.01161
G1 X84.567 Y92.129 E0.01161
G1 X84.280 Y92.362 E0.01161
G1 X83.969 Y92.564 E0.01161
G1 X83.639 Y92.732 E0.01161
G1 X83.332 Y92.850 E0.01030
G1 X83.639 Y92.968 E0.01030
G1 X83.969 Y93.136 E0.01161
G1 X84.280 Y93.338 E0.01161
G1 X84.567 Y93.571 E0.01161
G1 X84.829 Y93.833 E0.01161
G1 X85.062 Y94.120 E0.01161
G1 X85.264 Y94.431 E0.01161
G1 X85.432 Y94.761 E0.01161
G1 X85.565 Y95.107 E0.01161
G1 X85.661 Y95.464 E0.01161
G1 X85.719 Y95.830 E0.01161
G1 X85.738 Y96.200 E0.01161
G1 X85.719 Y96.570 E0.01161
G1 X85.661 Y96.936 E0.01161
G1 X85.565 Y97.293 E0.01161
G1 X85.432 Y97.639 E0.01161
G1 X85.264 Y97.969 E0.01161
G1 X85.062 Y98.280 E0.01161
G1 X84.829 Y98.568 E0.01161
G1 X84.567 Y98.830 E0.01162
G1 X84.278 Y99.063 E0.01165
G1 X83.962 Y99.266 E0.01177
G1 X83.567 Y99.450 E0.01365
G1 X83.962 Y99.634 E0.01365
G1 X84.278 Y99.837 E0.01177
G1 X84.567 Y100.070 E0.01165
G1 X84.829 Y100.332 E0.01162
G1 X85.062 Y100.620 E0.01161
G1 X85.264 Y100.931 E0.01161
G1 X85.432 Y101.261 E0.01161
G1 X85.565 Y101.607 E0.01161
G1 X85.661 Y101.964 E0.01161
G1 X85.719 Y102.330 E0.01161
G1 X85.738 Y102.700 E0.01161
G1 X85.719 Y103.070 E0.01161
G1 X85.661 Y103.436 E0.01161
G1 X85.565 Y103.793 E0.01161
G1 X85.432 Y104.139 E0.01161
G1 X85.264 Y104.469 E0.01161
G1 X85.062 Y104.780 E0.01161
G1 X84.829 Y105.067 E0.01161
G1 X84.567 Y105.329 E0.01161
G1 X84.280 Y105.562 E0.01161
G1 X83.969 Y105.764 E0.01161
G1 X83.639 Y105.932 E0.01161
G1 X83.293 Y106.065 E0.01161
G1 X82.936 Y106.161 E0.01161
G1 X82.570 Y106.219 E0.01161
G1 X82.200 Y106.238 E0.01161
G1 X81.830 Y106.219 E0.01161
G1 X81.464 Y106.161 E0.01161
G1 X81.107 Y106.065 E0.01161
G1 X80.761 Y105.932 E0.01161
G1 X80.431 Y105.764 E0.01161
G1 X80.118 Y105.561 E0.01168
G1 X79.813 Y105.310 E0.01239
G1 X79.571 Y105.067 E0.01076
G1 X79.338 Y104.780 E0.01161
G1 X79.136 Y104.469 E0.01161
G1 X78.968 Y104.139 E0.01161
G1 X78.835 Y103.793 E0.01161
G1 X78.739 Y103.436 E0.01161
G1 X78.681 Y103.070 E0.01161
G1 X78.662 Y102.700 E0.01161
G1 X78.681 Y102.330 E0.01161
G1 X78.739 Y101.964 E0.01161
G1 X78.835 Y101.607 E0.01161
G1 X78.968 Y101.261 E0.01161
G1 X79.136 Y100.931 E0.01161
G1 X79.338 Y100.620 E0.01161
G1 X79.571 Y100.332 E0.01161
G1 X79.833 Y100.070 E0.01162
G1 X80.122 Y99.837 E0.01165
G1 X80.438 Y99.634 E0.01177
G1 X80.833 Y99.450 E0.01365
G1 X80.438 Y99.266 E0.01365
G1 X80.122 Y99.063 E0.01177
G1 X79.833 Y98.830 E0.01165
G1 X79.571 Y98.568 E0.01162
G1 X79.338 Y98.280 E0.01161
G1 X79.136 Y97.969 E0.01161
G1 X78.968 Y97.639 E0.01161
G1 X78.835 Y97.293 E0.01161
G1 X78.739 Y96.936 E0.01161
G1 X78.681 Y96.570 E0.01161
G1 X78.662 Y96.200 E0.01161
G1 X78.681 Y95.830 E0.01161
G1 X78.739 Y95.464 E0.01161
G1 X78.835 Y95.107 E0.01161
G1 X78.968 Y94.761 E0.01161
G1 X79.136 Y94.431 E0.01161
G1 X79.338 Y94.120 E0.01161
G1 X79.571 Y93.833 E0.01161
G1 X79.833 Y93.571 E0.01161
G1 X80.120 Y93.338 E0.01161
G1 X80.431 Y93.136 E0.01161
G1 X80.761 Y92.968 E0.01161
G1 X81.012 Y92.872 E0.00842
M204 S1250
G1 X81.147 Y93.224 F9000.000
M204 S800
;TYPE:External perimeter
G1 F1200.000
G1 X81.543 Y93.109 E0.01293
G1 X81.870 Y93.057 E0.01037
G1 X82.174 Y93.041 E0.00957
G1 X82.530 Y93.057 E0.01115
G1 X82.857 Y93.109 E0.01040
G1 X83.177 Y93.194 E0.01037
G1 X83.486 Y93.313 E0.01037
G1 X83.780 Y93.463 E0.01037
G1 X84.058 Y93.643 E0.01037
G1 X84.315 Y93.851 E0.01037
G1 X84.549 Y94.085 E0.01037
G1 X84.757 Y94.342 E0.01037
G1 X84.937 Y94.620 E0.01037
G1 X85.087 Y94.914 E0.01037
G1 X85.206 Y95.223 E0.01037
G1 X85.291 Y95.543 E0.01037
G1 X85.343 Y95.870 E0.01037
G1 X85.361 Y96.200 E0.01037
G1 X85.343 Y96.530 E0.01037
G1 X85.291 Y96.857 E0.01037
G1 X85.206 Y97.177 E0.01037
G1 X85.087 Y97.486 E0.01037
G1 X84.937 Y97.780 E0.01037
G1 X84.757 Y98.058 E0.01037
G1 X84.549 Y98.315 E0.01037
G1 X84.315 Y98.549 E0.01038
G1 X84.057 Y98.757 E0.01039
G1 X83.777 Y98.937 E0.01043
G1 X83.476 Y99.083 E0.01048
G1 X83.157 Y99.190 E0.01056
G1 X82.823 Y99.249 E0.01064
G1 X81.898 Y99.260 E0.02901
G1 X81.574 Y99.249 E0.01015
G1 X81.243 Y99.190 E0.01056
G1 X80.924 Y99.083 E0.01056
G1 X80.623 Y98.937 E0.01048
G1 X80.343 Y98.757 E0.01043
G1 X80.085 Y98.549 E0.01039
G1 X79.851 Y98.315 E0.01038
G1 X79.643 Y98.058 E0.01037
G1 X79.463 Y97.780 E0.01037
G1 X79.313 Y97.486 E0.01037
G1 X79.194 Y97.177 E0.01037
G1 X79.109 Y96.857 E0.01037
G1 X79.057 Y96.530 E0.01037
G1 X79.039 Y96.200 E0.01037
G1 X79.057 Y95.870 E0.01037
G1 X79.109 Y95.543 E0.01037
G1 X79.194 Y95.223 E0.01037
G1 X79.313 Y94.914 E0.01037
G1 X79.463 Y94.620 E0.01037
G1 X79.643 Y94.342 E0.01037
G1 X79.851 Y94.085 E0.01037
G1 X80.085 Y93.851 E0.01037
G1 X80.342 Y93.643 E0.01037
G1 X80.620 Y93.463 E0.01037
G1 X80.914 Y93.313 E0.01037
G1 X81.091 Y93.245 E0.00592
M204 S1250
G1 X81.223 Y92.831 F9000.000
G1 E-2.24000 F4200.000
;WIPE_START
G1 F7200.000
G1 X81.543 Y93.109 E-0.26175
G1 X81.870 Y93.057 E-0.18333
G1 X82.174 Y93.041 E-0.16909
G1 X82.530 Y93.057 E-0.19704
G1 X82.709 Y93.085 E-0.10078
;WIPE_END
G1 E-0.04800 F4200.000
G1 Z0.400 F9000.000
G1 X81.576 Y99.651
G1 Z0.200
G1 E3.20000 F2400.000
M204 S800
G1 F1200.000
G1 X82.824 Y99.651 E0.03912
G1 X83.157 Y99.710 E0.01062
G1 X83.476 Y99.817 E0.01056
G1 X83.777 Y99.963 E0.01048
G1 X84.057 Y100.143 E0.01043
G1 X84.315 Y100.351 E0.01039
G1 X84.549 Y100.585 E0.01038
G1 X84.757 Y100.842 E0.01037
G1 X84.937 Y101.120 E0.01037
G1 X85.087 Y101.414 E0.01037
G1 X85.206 Y101.723 E0.01037
G1 X85.291 Y102.043 E0.01037
G1 X85.343 Y102.370 E0.01037
G1 X85.361 Y102.700 E0.01037
G1 X85.343 Y103.030 E0.01037
G1 X85.291 Y103.357 E0.01037
G1 X85.206 Y103.677 E0.01037
G1 X85.087 Y103.986 E0.01037
G1 X84.937 Y104.280 E0.01037
G1 X84.757 Y104.558 E0.01037
G1 X84.549 Y104.815 E0.01037
G1 X84.315 Y105.049 E0.01037
G1 X84.058 Y105.257 E0.01037
G1 X83.780 Y105.437 E0.01037
G1 X83.486 Y105.587 E0.01037
G1 X83.177 Y105.706 E0.01037
G1 X82.857 Y105.791 E0.01037
G1 X82.530 Y105.843 E0.01037
G1 X82.200 Y105.861 E0.01037
G1 X81.870 Y105.843 E0.01037
G1 X81.543 Y105.791 E0.01037
G1 X81.223 Y105.706 E0.01037
G1 X80.914 Y105.587 E0.01037
G1 X80.620 Y105.437 E0.01037
G1 X80.342 Y105.257 E0.01040
G1 X80.067 Y105.031 E0.01115
G1 X79.851 Y104.815 E0.00957
G1 X79.643 Y104.558 E0.01037
G1 X79.463 Y104.280 E0.01037
G1 X79.313 Y103.986 E0.01037
G1 X79.194 Y103.677 E0.01037
G1 X79.109 Y103.357 E0.01037
G1 X79.057 Y103.030 E0.01037
G1 X79.039 Y102.700 E0.01037
G1 X79.057 Y102.370 E0.01037
G1 X79.109 Y102.043 E0.01037
G1 X79.194 Y101.723 E0.01037
G1 X79.313 Y101.414 E0.01037
G1 X79.463 Y101.120 E0.01037
G1 X79.643 Y100.842 E0.01037
G1 X79.851 Y100.585 E0.01037
G1 X80.085 Y100.351 E0.01038
G1 X80.343 Y100.143 E0.01039
G1 X80.623 Y99.963 E0.01043
G1 X80.924 Y99.817 E0.01048
G1 X81.243 Y99.710 E0.01056
G1 X81.517 Y99.662 E0.00873
M204 S1250
G1 X81.747 Y99.289 F9000.000
G1 E-2.24000 F4200.000
;WIPE_START
G1 F7200.000
G1 X82.824 Y99.651 E-0.72418
G1 X83.157 Y99.710 E-0.18767
G1 X83.158 Y99.710 E-0.00015
;WIPE_END
G1 E-0.04800 F4200.000
G1 Z0.400 F9000.000
G1 X81.885 Y92.644
G1 Z0.200
G1 E3.20000 F2400.000
M204 S800
G1 F1200.000
G1 X81.543 Y92.591 E0.01085
G1 X81.223 Y92.506 E0.01037
G1 X80.914 Y92.387 E0.01037
G1 X80.620 Y92.237 E0.01037
G1 X80.342 Y92.057 E0.01037
G1 X80.085 Y91.849 E0.01037
G1 X79.851 Y91.615 E0.01037
G1 X79.643 Y91.358 E0.01037
G1 X79.462 Y91.080 E0.01040
G1 X79.303 Y90.762 E0.01115
G1 X79.194 Y90.477 E0.00957
G1 X79.109 Y90.157 E0.01037
G1 X79.057 Y89.830 E0.01037
G1 X79.039 Y89.500 E0.01037
G1 X79.057 Y89.170 E0.01037
G1 X79.109 Y88.843 E0.01037
G1 X79.194 Y88.523 E0.01037
G1 X79.313 Y88.214 E0.01037
G1 X79.463 Y87.920 E0.01037
G1 X79.643 Y87.642 E0.01037
G1 X79.851 Y87.385 E0.01037
G1 X80.085 Y87.151 E0.01037
G1 X80.342 Y86.943 E0.01037
G1 X80.620 Y86.763 E0.01037
G1 X80.914 Y86.613 E0.01037
G1 X81.223 Y86.494 E0.01037
G1 X81.543 Y86.409 E0.01037
G1 X81.870 Y86.357 E0.01037
G1 X82.174 Y86.341 E0.00957
G1 X82.530 Y86.357 E0.01115
G1 X82.857 Y86.409 E0.01040
G1 X83.177 Y86.494 E0.01037
G1 X83.486 Y86.613 E0.01037
G1 X83.780 Y86.763 E0.01037
G1 X84.058 Y86.943 E0.01037
G1 X84.315 Y87.151 E0.01037
G1 X84.549 Y87.385 E0.01037
G1 X84.757 Y87.642 E0.01037
G1 X84.937 Y87.920 E0.01037
G1 X85.087 Y88.214 E0.01037
G1 X85.206 Y88.523 E0.01037
G1 X85.291 Y88.843 E0.01037
G1 X85.343 Y89.170 E0.01037
G1 X85.361 Y89.500 E0.01037
G1 X85.343 Y89.830 E0.01037
G1 X85.291 Y90.157 E0.01037
G1 X85.206 Y90.477 E0.01037
G1 X85.087 Y90.786 E0.01037
G1 X84.937 Y91.080 E0.01037
G1 X84.757 Y91.358 E0.01037
G1 X84.549 Y91.615 E0.01037
G1 X84.315 Y91.849 E0.01037
G1 X84.058 Y92.057 E0.01037
G1 X83.780 Y92.237 E0.01037
G1 X83.486 Y92.387 E0.01037
G1 X83.177 Y92.506 E0.01037
G1 X82.857 Y92.591 E0.01037
G1 X82.530 Y92.643 E0.01037
G1 X82.200 Y92.661 E0.01037
G1 X81.945 Y92.647 E0.00802
M204 S1250
G1 X81.682 Y92.925 F9000.000
G1 E-2.24000 F4200.000
;WIPE_START
G1 F7200.000
G1 X81.543 Y92.591 E-0.22479
G1 X81.223 Y92.506 E-0.18333
G1 X80.914 Y92.387 E-0.18333
G1 X80.620 Y92.237 E-0.18333
G1 X80.412 Y92.102 E-0.13722
;WIPE_END
G1 E-0.04800 F4200.000
G1 Z0.400 F9000.000
G1 X79.553 Y73.203
G1 Z0.200
G1 E3.20000 F2400.000
M204 S800
;TYPE:Perimeter
G1 F1200.000
G1 X79.202 Y73.278 E0.01125
G1 X79.000 Y73.288 E0.00635
G1 X78.798 Y73.278 E0.00635
G1 X78.447 Y73.203 E0.01125
G1 X78.105 Y73.051 E0.01174
G1 X77.802 Y72.831 E0.01174
G1 X77.551 Y72.552 E0.01174
G1 X77.364 Y72.228 E0.01174
G1 X77.249 Y71.872 E0.01174
G1 X77.209 Y71.500 E0.01174
G1 X77.249 Y71.128 E0.01174
G1 X77.364 Y70.772 E0.01174
G1 X77.544 Y70.461 E0.01125
G1 X77.681 Y70.291 E0.00684
G1 X77.948 Y70.051 E0.01125
G1 X78.272 Y69.864 E0.01174
G1 X78.627 Y69.749 E0.01170
G1 X78.964 Y69.712 E0.01065
G1 X79.199 Y69.722 E0.00736
G1 X79.553 Y69.797 E0.01136
G1 X79.895 Y69.949 E0.01174
G1 X80.198 Y70.169 E0.01174
G1 X80.449 Y70.448 E0.01174
G1 X80.636 Y70.772 E0.01174
G1 X80.751 Y71.128 E0.01174
G1 X80.791 Y71.500 E0.01174
G1 X80.751 Y71.872 E0.01174
G1 X80.636 Y72.228 E0.01174
G1 X80.449 Y72.552 E0.01174
G1 X80.198 Y72.831 E0.01174
G1 X79.895 Y73.051 E0.01174
G1 X79.608 Y73.179 E0.00986
M204 S1250
G1 X79.000 Y72.911 F9000.000
M204 S800
;TYPE:External perimeter
G1 F1200.000
G1 X78.847 Y72.903 E0.00480
G1 X78.564 Y72.842 E0.00908
G1 X78.294 Y72.722 E0.00925
G1 X78.056 Y72.549 E0.00925
G1 X77.858 Y72.330 E0.00925
G1 X77.711 Y72.074 E0.00925
G1 X77.619 Y71.793 E0.00925
G1 X77.589 Y71.500 E0.00925
G1 X77.619 Y71.207 E0.00925
G1 X77.711 Y70.926 E0.00925
G1 X77.855 Y70.675 E0.00908
G1 X77.955 Y70.552 E0.00498
G1 X78.170 Y70.358 E0.00908
G1 X78.426 Y70.211 E0.00925
G1 X78.706 Y70.120 E0.00924
G1 X78.977 Y70.090 E0.00855
G1 X79.152 Y70.097 E0.00548
G1 X79.436 Y70.158 E0.00912
G1 X79.706 Y70.278 E0.00925
G1 X79.944 Y70.451 E0.00925
G1 X80.142 Y70.670 E0.00925
G1 X80.289 Y70.926 E0.00925
G1 X80.381 Y71.207 E0.00925
G1 X80.411 Y71.500 E0.00925
G1 X80.381 Y71.793 E0.00925
G1 X80.289 Y72.074 E0.00925
G1 X80.142 Y72.330 E0.00925
G1 X79.944 Y72.549 E0.00925
G1 X79.706 Y72.722 E0.00925
G1 X79.436 Y72.842 E0.00925
G1 X79.060 Y72.907 E0.01197
M204 S1250
G1 X78.930 Y73.047 F9000.000
G1 E-2.24000 F4200.000
;WIPE_START
G1 F7200.000
G1 X78.847 Y72.903 E-0.11800
G1 X78.564 Y72.842 E-0.16045
G1 X78.294 Y72.722 E-0.16352
G1 X78.056 Y72.549 E-0.16352
G1 X77.858 Y72.330 E-0.16352
G1 X77.729 Y72.106 E-0.14300
;WIPE_END
G1 E-0.04800 F4200.000
G1 Z0.400 F9000.000
G1 X87.749 Y71.872
G1 Z0.200
G1 E3.20000 F2400.000
M204 S800
;TYPE:Perimeter
G1 F1200.000
G1 X87.709 Y71.500 E0.01174
G1 X87.747 Y71.140 E0.01136
G1 X87.811 Y70.914 E0.00736
G1 X87.950 Y70.604 E0.01065
G1 X88.169 Y70.302 E0.01170
G1 X88.448 Y70.051 E0.01174
G1 X88.772 Y69.864 E0.01174
G1 X89.127 Y69.749 E0.01170
G1 X89.464 Y69.712 E0.01065
G1 X89.699 Y69.722 E0.00736
G1 X90.053 Y69.797 E0.01136
G1 X90.395 Y69.949 E0.01174
G1 X90.698 Y70.169 E0.01174
G1 X90.949 Y70.448 E0.01174
G1 X91.136 Y70.772 E0.01174
G1 X91.251 Y71.128 E0.01174
G1 X91.291 Y71.500 E0.01174
G1 X91.253 Y71.860 E0.01136
G1 X91.189 Y72.086 E0.00736
G1 X91.050 Y72.396 E0.01065
G1 X90.831 Y72.698 E0.01170
G1 X90.552 Y72.949 E0.01174
G1 X90.228 Y73.136 E0.01174
