; generated by PrusaSlicer 2.3.3+win64 on 2021-12-08 at 19:25:35 UTC


;
;

;
;
; 

; external perimeters extrusion width = 0.45mm
; perimeters extrusion width = 0.45mm
; infill extrusion width = 0.45mm
; solid infill extrusion width = 0.45mm
; top infill extrusion width = 0.40mm
; first layer extrusion width = 0.42mm

M73 P0 R108
M201 X1250 Y1250 Z400 E5000 ; sets maximum accelerations, mm/sec^2
M203 X180 Y180 Z12 E80 ; sets maximum feedrates, mm/sec
M204 P1250 R1250 T1250 ; sets acceleration (P, T) and retract acceleration (R), mm/sec^2
M205 X8.00 Y8.00 Z2.00 E10.00 ; sets the jerk limits, mm/sec
M205 S0 T0 ; sets the minimum extruding and travel feed rate, mm/sec
M107
;TYPE:Custom
G90 ; use absolute coordinates
M83 ; extruder relative mode
M104 S170 ; set extruder temp for bed leveling
M140 S60 ; set bed temp
M109 R170 ; wait for bed leveling temp
M190 S60 ; wait for bed temp
G28 ; home all without mesh bed level
G29 ; mesh bed leveling 
M104 S215 ; set extruder temp
G92 E0.0
G1 Y-2.0 X179 F2400
G1 Z3 F720
M109 S215 ; wait for extruder temp

; intro line
G1 X170 F1000
G1 Z0.2 F720
G1 X110.0 E8.0 F900
G1 X40.0 E10.0 F700
G92 E0.0

M221 S95 ; set flow
G21 ; set units to millimeters
G90 ; use absolute coordinates
M83 ; use relative distances for extrusion
M900 K0.2 ; Filament gcode LA 1.5
; ; Filament gcode LA 1.0
;LAYER_CHANGE
;Z:0.2
;HEIGHT:0.2
;BEFORE_LAYER_CHANGE
G92 E0.0
;0.2


M73 P0 R107
G1 E-3.20000 F4200.000
G1 Z0.200 F9000.000
;AFTER_LAYER_CHANGE
;0.2
G1 Z0.400
G1 X70.792 Y58.347
G1 Z0.200
G1 E3.20000 F2400.000
M204 S800
;TYPE:Skirt
;WIDTH:0.42
G1 F1200.000
G1 X71.267 Y57.968 E0.01906
G1 X71.823 Y57.721 E0.01906
G1 X72.423 Y57.624 E0.01906
G1 X107.504 Y57.623 E1.09994
G1 X108.392 Y57.797 E0.02837
G1 X109.153 Y58.292 E0.02849
G1 X109.673 Y59.037 E0.02849
G1 X109.876 Y59.923 E0.02849
G1 X109.877 Y120.011 E1.88404
G1 X109.798 Y120.606 E0.01882
G1 X109.573 Y121.163 E0.01882
G1 X109.205 Y121.656 E0.01929
G1 X108.723 Y122.038 E0.01929
G1 X108.159 Y122.284 E0.01929
G1 X107.554 Y122.376 E0.01917
G1 X72.481 Y122.377 E1.09970
G1 X71.890 Y122.297 E0.01870
G1 X71.337 Y122.073 E0.01870
G1 X70.841 Y121.703 E0.01941
G1 X70.458 Y121.217 E0.01941
G1 X70.213 Y120.648 E0.01941
G1 X70.123 Y120.035 E0.01941
G1 X70.123 Y59.989 E1.88272
G1 X70.202 Y59.394 E0.01882
G1 X70.427 Y58.837 E0.01882
G1 X70.756 Y58.395 E0.01729
M204 S1250
; printing object Trafic_Lights_Netta_PCB_small_leds_holder_box.stl id:0 copy 0
G1 E-2.24000 F4200.000
;WIPE_START
G1 F7200.000
G1 X71.267 Y57.968 E-0.36906
G1 X71.823 Y57.721 E-0.33681
G1 X72.190 Y57.662 E-0.20613
;WIPE_END
G1 E-0.04800 F4200.000
G1 Z0.400 F9000.000
G1 X89.568 Y97.850
G1 Z0.200
G1 E3.20000 F2400.000
M204 S800
;TYPE:Perimeter
G1 F1200.000
G1 X89.261 Y97.732 E0.01030
G1 X88.931 Y97.564 E0.01161
G1 X88.620 Y97.362 E0.01161
G1 X88.333 Y97.129 E0.01161
G1 X88.090 Y96.887 E0.01076
G1 X87.839 Y96.582 E0.01239
G1 X87.636 Y96.269 E0.01168
G1 X87.468 Y95.939 E0.01161
G1 X87.335 Y95.593 E0.01161
G1 X87.239 Y95.236 E0.01161
G1 X87.181 Y94.870 E0.01161
G1 X87.162 Y94.500 E0.01161
G1 X87.181 Y94.130 E0.01161
G1 X87.239 Y93.764 E0.01161
G1 X87.335 Y93.407 E0.01161
G1 X87.468 Y93.061 E0.01161
G1 X87.636 Y92.731 E0.01161
G1 X87.838 Y92.420 E0.01161
G1 X88.071 Y92.133 E0.01161
G1 X88.333 Y91.871 E0.01161
G1 X88.620 Y91.638 E0.01161
G1 X88.931 Y91.436 E0.01161
G1 X89.261 Y91.268 E0.01161
G1 X89.607 Y91.135 E0.01161
G1 X89.964 Y91.039 E0.01161
G1 X90.330 Y90.981 E0.01161
G1 X90.673 Y90.963 E0.01076
G1 X91.068 Y90.981 E0.01239
G1 X91.436 Y91.039 E0.01168
G1 X91.793 Y91.135 E0.01161
G1 X92.139 Y91.268 E0.01161
G1 X92.469 Y91.436 E0.01161
G1 X92.780 Y91.638 E0.01161
G1 X93.067 Y91.871 E0.01161
G1 X93.329 Y92.133 E0.01161
G1 X93.562 Y92.420 E0.01161
G1 X93.764 Y92.731 E0.01161
G1 X93.932 Y93.061 E0.01161
G1 X94.065 Y93.407 E0.01161
G1 X94.161 Y93.764 E0.01161
G1 X94.219 Y94.130 E0.01161
G1 X94.238 Y94.500 E0.01161
G1 X94.219 Y94.870 E0.01161
G1 X94.161 Y95.236 E0.01161
G1 X94.065 Y95.593 E0.01161
G1 X93.932 Y95.939 E0.01161
G1 X93.764 Y96.269 E0.01161
G1 X93.562 Y96.580 E0.01161
G1 X93.329 Y96.867 E0.01161
G1 X93.067 Y97.129 E0.01161
G1 X92.780 Y97.362 E0.01161
G1 X92.469 Y97.564 E0.01161
G1 X92.139 Y97.732 E0.01161
G1 X91.832 Y97.850 E0.01030
G1 X92.139 Y97.968 E0.01030
G1 X92.469 Y98.136 E0.01161
G1 X92.780 Y98.338 E0.01161
G1 X93.067 Y98.571 E0.01161
G1 X93.329 Y98.833 E0.01161
G1 X93.562 Y99.120 E0.01161
G1 X93.764 Y99.431 E0.01161
G1 X93.932 Y99.761 E0.01161
G1 X94.065 Y100.107 E0.01161
G1 X94.161 Y100.464 E0.01161
G1 X94.219 Y100.830 E0.01161
G1 X94.238 Y101.200 E0.01161
G1 X94.219 Y101.570 E0.01161
G1 X94.161 Y101.936 E0.01161
G1 X94.065 Y102.293 E0.01161
G1 X93.932 Y102.639 E0.01161
G1 X93.764 Y102.969 E0.01161
G1 X93.562 Y103.280 E0.01161
G1 X93.329 Y103.568 E0.01161
G1 X93.067 Y103.830 E0.01162
G1 X92.778 Y104.063 E0.01165
G1 X92.462 Y104.266 E0.01177
G1 X92.067 Y104.450 E0.01365
G1 X92.462 Y104.634 E0.01365
G1 X92.778 Y104.837 E0.01177
G1 X93.067 Y105.070 E0.01165
G1 X93.329 Y105.332 E0.01162
G1 X93.562 Y105.620 E0.01161
G1 X93.764 Y105.931 E0.01161
G1 X93.932 Y106.261 E0.01161
G1 X94.065 Y106.607 E0.01161
G1 X94.161 Y106.964 E0.01161
G1 X94.219 Y107.330 E0.01161
G1 X94.238 Y107.700 E0.01161
G1 X94.219 Y108.070 E0.01161
G1 X94.161 Y108.436 E0.01161
G1 X94.065 Y108.793 E0.01161
G1 X93.932 Y109.139 E0.01161
G1 X93.764 Y109.469 E0.01161
G1 X93.562 Y109.780 E0.01161
G1 X93.329 Y110.067 E0.01161
G1 X93.067 Y110.329 E0.01161
G1 X92.780 Y110.562 E0.01161
G1 X92.469 Y110.764 E0.01161
G1 X92.139 Y110.932 E0.01161
G1 X91.793 Y111.065 E0.01161
G1 X91.436 Y111.161 E0.01161
G1 X91.070 Y111.219 E0.01161
G1 X90.700 Y111.238 E0.01161
G1 X90.330 Y111.219 E0.01161
G1 X89.964 Y111.161 E0.01161
G1 X89.607 Y111.065 E0.01161
G1 X89.261 Y110.932 E0.01161
G1 X88.931 Y110.764 E0.01161
G1 X88.620 Y110.562 E0.01161
G1 X88.333 Y110.329 E0.01161
G1 X88.071 Y110.067 E0.01161
G1 X87.838 Y109.780 E0.01161
G1 X87.636 Y109.469 E0.01161
G1 X87.468 Y109.139 E0.01161
G1 X87.335 Y108.793 E0.01161
G1 X87.239 Y108.436 E0.01161
G1 X87.181 Y108.070 E0.01161
G1 X87.162 Y107.700 E0.01161
G1 X87.181 Y107.330 E0.01161
G1 X87.239 Y106.964 E0.01161
G1 X87.335 Y106.607 E0.01161
G1 X87.468 Y106.261 E0.01161
G1 X87.636 Y105.931 E0.01161
G1 X87.838 Y105.620 E0.01161
G1 X88.071 Y105.332 E0.01161
G1 X88.333 Y105.070 E0.01162
G1 X88.622 Y104.837 E0.01165
G1 X88.938 Y104.634 E0.01177
G1 X89.333 Y104.450 E0.01365
G1 X88.938 Y104.266 E0.01365
G1 X88.622 Y104.063 E0.01177
G1 X88.333 Y103.830 E0.01165
G1 X88.071 Y103.568 E0.01162
G1 X87.838 Y103.280 E0.01161
G1 X87.636 Y102.969 E0.01161
G1 X87.468 Y102.639 E0.01161
G1 X87.335 Y102.293 E0.01161
G1 X87.239 Y101.936 E0.01161
G1 X87.181 Y101.570 E0.01161
G1 X87.162 Y101.200 E0.01161
G1 X87.181 Y100.830 E0.01161
G1 X87.239 Y100.464 E0.01161
G1 X87.335 Y100.107 E0.01161
G1 X87.468 Y99.761 E0.01161
G1 X87.636 Y99.431 E0.01161
G1 X87.838 Y99.120 E0.01161
G1 X88.071 Y98.833 E0.01161
G1 X88.333 Y98.571 E0.01161
G1 X88.620 Y98.338 E0.01161
G1 X88.931 Y98.136 E0.01161
G1 X89.261 Y97.968 E0.01161
G1 X89.512 Y97.872 E0.00842
M204 S1250
G1 X89.661 Y97.482 F9000.000
M204 S800
;TYPE:External perimeter
G1 F1200.000
G1 X89.414 Y97.387 E0.00828
G1 X89.120 Y97.237 E0.01037
G1 X88.842 Y97.057 E0.01037
G1 X88.585 Y96.849 E0.01037
G1 X88.369 Y96.633 E0.00957
G1 X88.143 Y96.358 E0.01115
G1 X87.963 Y96.080 E0.01040
G1 X87.813 Y95.786 E0.01037
G1 X87.694 Y95.477 E0.01037
G1 X87.609 Y95.157 E0.01037
G1 X87.557 Y94.830 E0.01037
G1 X87.539 Y94.500 E0.01037
G1 X87.557 Y94.170 E0.01037
G1 X87.609 Y93.843 E0.01037
G1 X87.694 Y93.523 E0.01037
G1 X87.813 Y93.214 E0.01037
G1 X87.963 Y92.920 E0.01037
G1 X88.143 Y92.642 E0.01037
G1 X88.351 Y92.385 E0.01037
G1 X88.585 Y92.151 E0.01037
G1 X88.842 Y91.943 E0.01037
G1 X89.120 Y91.763 E0.01037
G1 X89.414 Y91.613 E0.01037
G1 X89.723 Y91.494 E0.01037
G1 X90.043 Y91.409 E0.01037
G1 X90.370 Y91.357 E0.01037
G1 X90.674 Y91.341 E0.00957
G1 X91.030 Y91.357 E0.01115
G1 X91.357 Y91.409 E0.01040
G1 X91.677 Y91.494 E0.01037
G1 X91.986 Y91.613 E0.01037
G1 X92.280 Y91.763 E0.01037
G1 X92.558 Y91.943 E0.01037
G1 X92.815 Y92.151 E0.01037
G1 X93.049 Y92.385 E0.01037
G1 X93.257 Y92.642 E0.01037
G1 X93.437 Y92.920 E0.01037
G1 X93.587 Y93.214 E0.01037
G1 X93.706 Y93.523 E0.01037
G1 X93.791 Y93.843 E0.01037
G1 X93.843 Y94.170 E0.01037
G1 X93.861 Y94.500 E0.01037
G1 X93.843 Y94.830 E0.01037
G1 X93.791 Y95.157 E0.01037
G1 X93.706 Y95.477 E0.01037
G1 X93.587 Y95.786 E0.01037
G1 X93.437 Y96.080 E0.01037
G1 X93.257 Y96.358 E0.01037
G1 X93.049 Y96.615 E0.01037
G1 X92.815 Y96.849 E0.01037
G1 X92.558 Y97.057 E0.01037
G1 X92.280 Y97.237 E0.01037
G1 X91.986 Y97.387 E0.01037
G1 X91.677 Y97.506 E0.01037
G1 X91.357 Y97.591 E0.01037
G1 X91.030 Y97.643 E0.01037
G1 X90.700 Y97.661 E0.01037
G1 X90.370 Y97.643 E0.01037
G1 X90.043 Y97.591 E0.01037
G1 X89.717 Y97.503 E0.01058
M204 S1250
G1 X89.464 Y97.658 F9000.000
G1 X89.890 Y98.149
M204 S800
G1 F1200.000
G1 X90.370 Y98.057 E0.01531
G1 X90.674 Y98.041 E0.00957
G1 X91.030 Y98.057 E0.01115
G1 X91.357 Y98.109 E0.01040
G1 X91.677 Y98.194 E0.01037
G1 X91.986 Y98.313 E0.01037
G1 X92.280 Y98.463 E0.01037
G1 X92.558 Y98.643 E0.01037
G1 X92.815 Y98.851 E0.01037
G1 X93.049 Y99.085 E0.01037
G1 X93.257 Y99.342 E0.01037
G1 X93.437 Y99.620 E0.01037
G1 X93.587 Y99.914 E0.01037
G1 X93.706 Y100.223 E0.01037
G1 X93.791 Y100.543 E0.01037
G1 X93.843 Y100.870 E0.01037
G1 X93.861 Y101.200 E0.01037
G1 X93.843 Y101.530 E0.01037
G1 X93.791 Y101.857 E0.01037
G1 X93.706 Y102.177 E0.01037
G1 X93.587 Y102.486 E0.01037
G1 X93.437 Y102.780 E0.01037
G1 X93.257 Y103.058 E0.01037
G1 X93.049 Y103.315 E0.01037
G1 X92.815 Y103.549 E0.01038
G1 X92.557 Y103.757 E0.01039
G1 X92.277 Y103.937 E0.01043
G1 X91.976 Y104.083 E0.01048
G1 X91.657 Y104.190 E0.01056
G1 X91.323 Y104.249 E0.01064
G1 X90.074 Y104.249 E0.03915
G1 X89.743 Y104.190 E0.01056
G1 X89.424 Y104.083 E0.01056
G1 X89.123 Y103.937 E0.01048
G1 X88.843 Y103.757 E0.01043
G1 X88.585 Y103.549 E0.01039
G1 X88.351 Y103.315 E0.01038
G1 X88.143 Y103.058 E0.01037
G1 X87.963 Y102.780 E0.01037
G1 X87.813 Y102.486 E0.01037
G1 X87.694 Y102.177 E0.01037
G1 X87.609 Y101.857 E0.01037
G1 X87.557 Y101.530 E0.01037
G1 X87.539 Y101.200 E0.01037
G1 X87.557 Y100.870 E0.01037
G1 X87.609 Y100.543 E0.01037
G1 X87.694 Y100.223 E0.01037
G1 X87.813 Y99.914 E0.01037
G1 X87.963 Y99.620 E0.01037
G1 X88.143 Y99.342 E0.01037
G1 X88.351 Y99.085 E0.01037
G1 X88.585 Y98.851 E0.01037
G1 X88.842 Y98.643 E0.01037
G1 X89.120 Y98.463 E0.01037
G1 X89.414 Y98.313 E0.01037
G1 X89.832 Y98.165 E0.01389
M204 S1250
G1 X89.996 Y97.764 F9000.000
G1 E-2.24000 F4200.000
;WIPE_START
G1 F7200.000
G1 X90.370 Y98.057 E-0.30378
G1 X90.674 Y98.041 E-0.16909
G1 X91.030 Y98.057 E-0.19704
G1 X91.357 Y98.109 E-0.18379
G1 X91.459 Y98.136 E-0.05830
;WIPE_END
G1 E-0.04800 F4200.000
G1 Z0.400 F9000.000
G1 X90.076 Y104.651
G1 Z0.200
G1 E3.20000 F2400.000
M204 S800
G1 F1200.000
G1 X91.324 Y104.651 E0.03912
G1 X91.657 Y104.710 E0.01062
G1 X91.976 Y104.817 E0.01056
G1 X92.277 Y104.963 E0.01048
G1 X92.557 Y105.143 E0.01043
G1 X92.815 Y105.351 E0.01039
G1 X93.049 Y105.585 E0.01038
G1 X93.257 Y105.842 E0.01037
G1 X93.437 Y106.120 E0.01037
G1 X93.587 Y106.414 E0.01037
G1 X93.706 Y106.723 E0.01037
G1 X93.791 Y107.043 E0.01037
G1 X93.843 Y107.370 E0.01037
G1 X93.861 Y107.700 E0.01037
G1 X93.843 Y108.030 E0.01037
G1 X93.791 Y108.357 E0.01037
G1 X93.706 Y108.677 E0.01037
G1 X93.587 Y108.986 E0.01037
G1 X93.437 Y109.280 E0.01037
G1 X93.257 Y109.558 E0.01037
G1 X93.049 Y109.815 E0.01037
G1 X92.815 Y110.049 E0.01037
G1 X92.558 Y110.257 E0.01037
G1 X92.280 Y110.437 E0.01037
G1 X91.986 Y110.587 E0.01037
G1 X91.677 Y110.706 E0.01037
G1 X91.357 Y110.791 E0.01037
G1 X91.030 Y110.843 E0.01037
G1 X90.700 Y110.861 E0.01037
G1 X90.370 Y110.843 E0.01037
G1 X90.043 Y110.791 E0.01037
G1 X89.723 Y110.706 E0.01037
G1 X89.414 Y110.587 E0.01037
G1 X89.120 Y110.437 E0.01037
G1 X88.842 Y110.257 E0.01037
G1 X88.585 Y110.049 E0.01037
G1 X88.351 Y109.815 E0.01037
G1 X88.143 Y109.558 E0.01037
G1 X87.963 Y109.280 E0.01037
G1 X87.813 Y108.986 E0.01037
G1 X87.694 Y108.677 E0.01037
G1 X87.609 Y108.357 E0.01037
G1 X87.557 Y108.030 E0.01037
G1 X87.539 Y107.700 E0.01037
G1 X87.557 Y107.370 E0.01037
G1 X87.609 Y107.043 E0.01037
G1 X87.694 Y106.723 E0.01037
G1 X87.813 Y106.414 E0.01037
G1 X87.963 Y106.120 E0.01037
G1 X88.143 Y105.842 E0.01037
G1 X88.351 Y105.585 E0.01037
G1 X88.585 Y105.351 E0.01038
G1 X88.843 Y105.143 E0.01039
G1 X89.123 Y104.963 E0.01043
G1 X89.424 Y104.817 E0.01048
G1 X89.743 Y104.710 E0.01056
G1 X90.017 Y104.662 E0.00873
M204 S1250
G1 X90.247 Y104.289 F9000.000
G1 E-2.24000 F4200.000
;WIPE_START
G1 F7200.000
G1 X91.324 Y104.651 E-0.72418
G1 X91.657 Y104.710 E-0.18767
G1 X91.658 Y104.710 E-0.00015
;WIPE_END
G1 E-0.04800 F4200.000
G1 Z0.400 F9000.000
G1 X88.053 Y78.203
G1 Z0.200
G1 E3.20000 F2400.000
M204 S800
;TYPE:Perimeter
G1 F1200.000
G1 X87.702 Y78.278 E0.01125
G1 X87.485 Y78.289 E0.00684
G1 X87.128 Y78.251 E0.01125
G1 X86.772 Y78.136 E0.01174
G1 X86.458 Y77.955 E0.01136
G1 X86.277 Y77.805 E0.00736
G1 X86.051 Y77.552 E0.01065
G1 X85.864 Y77.228 E0.01170
G1 X85.749 Y76.872 E0.01174
G1 X85.709 Y76.500 E0.01174
G1 X85.747 Y76.140 E0.01136
G1 X85.811 Y75.914 E0.00736
G1 X85.950 Y75.604 E0.01065
G1 X86.169 Y75.302 E0.01170
G1 X86.448 Y75.051 E0.01174
G1 X86.772 Y74.864 E0.01174
G1 X87.127 Y74.749 E0.01170
G1 X87.464 Y74.712 E0.01065
G1 X87.699 Y74.722 E0.00736
G1 X88.053 Y74.797 E0.01136
G1 X88.395 Y74.949 E0.01174
G1 X88.698 Y75.169 E0.01174
G1 X88.949 Y75.448 E0.01174
G1 X89.136 Y75.772 E0.01174
G1 X89.251 Y76.128 E0.01174
G1 X89.291 Y76.500 E0.01174
G1 X89.251 Y76.872 E0.01174
G1 X89.136 Y77.228 E0.01174
G1 X88.949 Y77.552 E0.01174
G1 X88.698 Y77.831 E0.01174
G1 X88.395 Y78.051 E0.01174
G1 X88.108 Y78.179 E0.00986
M204 S1250
G1 X87.653 Y77.903 F9000.000
M204 S800
;TYPE:External perimeter
G1 F1200.000
G1 X87.494 Y77.911 E0.00498
G1 X87.207 Y77.881 E0.00908
G1 X86.926 Y77.789 E0.00925
G1 X86.674 Y77.644 E0.00912
G1 X86.540 Y77.533 E0.00548
G1 X86.358 Y77.329 E0.00855
G1 X86.211 Y77.074 E0.00924
G1 X86.119 Y76.793 E0.00925
G1 X86.089 Y76.500 E0.00925
G1 X86.119 Y76.211 E0.00912
G1 X86.166 Y76.043 E0.00548
G1 X86.278 Y75.794 E0.00855
G1 X86.451 Y75.556 E0.00924
G1 X86.670 Y75.358 E0.00925
G1 X86.926 Y75.211 E0.00925
G1 X87.206 Y75.120 E0.00924
G1 X87.477 Y75.090 E0.00855
G1 X87.652 Y75.097 E0.00548
G1 X87.936 Y75.158 E0.00912
G1 X88.206 Y75.278 E0.00925
G1 X88.444 Y75.451 E0.00925
G1 X88.642 Y75.670 E0.00925
G1 X88.789 Y75.926 E0.00925
G1 X88.881 Y76.207 E0.00925
G1 X88.911 Y76.500 E0.00925
G1 X88.881 Y76.793 E0.00925
G1 X88.789 Y77.074 E0.00925
G1 X88.642 Y77.330 E0.00925
G1 X88.444 Y77.549 E0.00925
G1 X88.206 Y77.722 E0.00925
G1 X87.936 Y77.842 E0.00925
G1 X87.712 Y77.890 E0.00720
M204 S1250
G1 X87.594 Y78.050 F9000.000
G1 E-2.24000 F4200.000
;WIPE_START
G1 F7200.000
G1 X87.494 Y77.911 E-0.12089
G1 X87.207 Y77.881 E-0.16045
G1 X86.926 Y77.789 E-0.16352
G1 X86.674 Y77.644 E-0.16112
G1 X86.540 Y77.533 E-0.09681
G1 X86.358 Y77.329 E-0.15107
G1 X86.305 Y77.238 E-0.05814
;WIPE_END
G1 E-0.04800 F4200.000
G1 Z0.400 F9000.000
G1 X96.249 Y76.872
G1 Z0.200
G1 E3.20000 F2400.000
M204 S800
;TYPE:Perimeter
G1 F1200.000
G1 X96.209 Y76.500 E0.01174
G1 X96.247 Y76.140 E0.01136
G1 X96.311 Y75.914 E0.00736
G1 X96.450 Y75.604 E0.01065
G1 X96.669 Y75.302 E0.01170
G1 X96.948 Y75.051 E0.01174
G1 X97.272 Y74.864 E0.01174
G1 X97.627 Y74.749 E0.01170
G1 X97.964 Y74.712 E0.01065
G1 X98.199 Y74.722 E0.00736
G1 X98.553 Y74.797 E0.01136
G1 X98.895 Y74.949 E0.01174
G1 X99.198 Y75.169 E0.01174
G1 X99.449 Y75.448 E0.01174
G1 X99.636 Y75.772 E0.01174
G1 X99.751 Y76.128 E0.01174
G1 X99.791 Y76.500 E0.01174
G1 X99.751 Y76.872 E0.01174
G1 X99.636 Y77.228 E0.01174
G1 X99.449 Y77.552 E0.01174
G1 X99.198 Y77.831 E0.01174
G1 X98.895 Y78.051 E0.01174
G1 X98.553 Y78.203 E0.01174
G1 X98.202 Y78.278 E0.01125
G1 X97.798 Y78.278 E0.01269
G1 X97.447 Y78.203 E0.01125
G1 X97.105 Y78.051 E0.01174
G1 X96.802 Y77.831 E0.01174
G1 X96.551 Y77.552 E0.01174
G1 X96.364 Y77.228 E0.01174
