; generated by PrusaSlicer 2.3.3+win64 on 2021-12-05 at 16:36:59 UTC


;
;

;
;
; 

; external perimeters extrusion width = 0.45mm
; perimeters extrusion width = 0.45mm
; infill extrusion width = 0.45mm
; solid infill extrusion width = 0.45mm
; top infill extrusion width = 0.40mm
; first layer extrusion width = 0.42mm

M73 P0 R192
M201 X1250 Y1250 Z400 E5000 ; sets maximum accelerations, mm/sec^2
M203 X180 Y180 Z12 E80 ; sets maximum feedrates, mm/sec
M204 P1250 R1250 T1250 ; sets acceleration (P, T) and retract acceleration (R), mm/sec^2
M205 X8.00 Y8.00 Z2.00 E10.00 ; sets the jerk limits, mm/sec
M205 S0 T0 ; sets the minimum extruding and travel feed rate, mm/sec
M107
;TYPE:Custom
G90 ; use absolute coordinates
M83 ; extruder relative mode
M104 S170 ; set extruder temp for bed leveling
M140 S60 ; set bed temp
M109 R170 ; wait for bed leveling temp
M190 S60 ; wait for bed temp
G28 ; home all without mesh bed level
G29 ; mesh bed leveling 
M104 S215 ; set extruder temp
G92 E0.0
G1 Y-2.0 X179 F2400
G1 Z3 F720
M109 S215 ; wait for extruder temp

; intro line
G1 X170 F1000
G1 Z0.2 F720
G1 X110.0 E8.0 F900
G1 X40.0 E10.0 F700
G92 E0.0

M221 S95 ; set flow
G21 ; set units to millimeters
G90 ; use absolute coordinates
M83 ; use relative distances for extrusion
M900 K0.2 ; Filament gcode LA 1.5
; ; Filament gcode LA 1.0
;LAYER_CHANGE
;Z:0.2
;HEIGHT:0.2
;BEFORE_LAYER_CHANGE
G92 E0.0
;0.2


G1 E-3.20000 F4200.000
G1 Z0.200 F9000.000
;AFTER_LAYER_CHANGE
;0.2
G1 Z0.400
G1 X57.768 Y54.183
G1 Z0.200
G1 E3.20000 F2400.000
M204 S800
;TYPE:Skirt
;WIDTH:0.42
G1 F1200.000
G1 X58.170 Y53.483 E0.02532
G1 X58.538 Y53.125 E0.01609
G1 X58.975 Y52.855 E0.01609
G1 X59.459 Y52.685 E0.01609
G1 X59.968 Y52.623 E0.01609
G1 X120.004 Y52.623 E1.88237
G1 X120.899 Y52.799 E0.02860
G1 X121.662 Y53.300 E0.02860
G1 X122.179 Y54.051 E0.02860
G1 X122.376 Y54.942 E0.02860
G1 X122.377 Y125.019 E2.19722
G1 X122.232 Y125.817 E0.02543
G1 X121.830 Y126.517 E0.02532
G1 X121.459 Y126.877 E0.01621
G1 X121.015 Y127.150 E0.01633
G1 X120.526 Y127.318 E0.01621
G1 X120.013 Y127.377 E0.01621
G1 X59.981 Y127.377 E1.88225
G1 X59.183 Y127.232 E0.02543
G1 X58.483 Y126.830 E0.02532
G1 X58.123 Y126.459 E0.01621
G1 X57.850 Y126.015 E0.01633
G1 X57.682 Y125.526 E0.01621
G1 X57.623 Y125.009 E0.01633
G1 X57.623 Y54.981 E2.19567
G1 X57.757 Y54.242 E0.02355
M204 S1250
G1 E-2.24000 F4200.000
;WIPE_START
G1 F7200.000
G1 X58.170 Y53.483 E-0.47888
G1 X58.538 Y53.125 E-0.28441
G1 X58.767 Y52.984 E-0.14871
;WIPE_END
G1 E-0.04800 F4200.000
G1 Z0.400 F9000.000
G1 X57.540 Y50.929
G1 Z0.200
G1 E3.20000 F2400.000
M204 S800
G1 F1200.000
G1 X59.454 Y50.286 E0.06331
G1 X120.486 Y50.290 E1.91364
G1 X121.435 Y50.474 E0.03029
G1 X122.343 Y50.865 E0.03101
G1 X123.562 Y51.888 E0.04990
G1 X124.353 Y53.106 E0.04551
G1 X124.713 Y54.489 E0.04481
G1 X124.713 Y125.510 E2.22683
G1 X124.382 Y126.827 E0.04257
G1 X123.655 Y128.011 E0.04355
G1 X123.051 Y128.615 E0.02678
G1 X122.460 Y129.071 E0.02340
G1 X120.547 Y129.713 E0.06330
G1 X59.490 Y129.713 E1.91439
G1 X58.173 Y129.382 E0.04257
G1 X56.989 Y128.655 E0.04355
G1 X56.385 Y128.051 E0.02678
G1 X55.929 Y127.460 E0.02340
G1 X55.287 Y125.547 E0.06330
G1 X55.287 Y54.490 E2.22793
G1 X55.618 Y53.173 E0.04257
G1 X56.345 Y51.989 E0.04355
G1 X56.949 Y51.385 E0.02678
G1 X57.492 Y50.966 E0.02152
M204 S1250
G1 X57.722 Y51.265 F9000.000
M204 S800
G1 F1200.000
G1 X59.484 Y50.664 E0.05839
G1 X120.468 Y50.667 E1.91209
G1 X121.341 Y50.840 E0.02791
G1 X122.166 Y51.199 E0.02823
G1 X123.297 Y52.158 E0.04647
G1 X123.996 Y53.232 E0.04018
G1 X124.336 Y54.513 E0.04157
G1 X124.336 Y125.486 E2.22529
G1 X124.024 Y126.705 E0.03946
G1 X123.373 Y127.759 E0.03885
G1 X122.794 Y128.339 E0.02571
G1 X122.256 Y128.752 E0.02127
G1 X120.516 Y129.336 E0.05754
G1 X59.514 Y129.336 E1.91267
M73 P0 R191
G1 X58.295 Y129.024 E0.03946
G1 X57.241 Y128.373 E0.03885
G1 X56.661 Y127.794 E0.02571
G1 X56.248 Y127.256 E0.02127
G1 X55.664 Y125.516 E0.05754
G1 X55.664 Y54.514 E2.22621
G1 X55.976 Y53.295 E0.03946
G1 X56.627 Y52.241 E0.03885
G1 X57.206 Y51.661 E0.02571
G1 X57.674 Y51.302 E0.01849
M204 S1250
G1 X57.903 Y51.601 F9000.000
M204 S800
G1 F1200.000
G1 X57.948 Y51.566 E0.00179
G1 X59.515 Y51.041 E0.05180
G1 X120.448 Y51.044 E1.91053
G1 X121.246 Y51.205 E0.02550
G1 X121.988 Y51.533 E0.02545
G1 X123.030 Y52.426 E0.04302
G1 X123.663 Y53.410 E0.03669
G1 X123.959 Y54.538 E0.03655
G1 X123.959 Y125.462 E2.22380
G1 X123.687 Y126.533 E0.03463
G1 X123.091 Y127.509 E0.03586
G1 X122.536 Y128.063 E0.02460
G1 X122.052 Y128.434 E0.01912
G1 X120.485 Y128.959 E0.05179
G1 X59.538 Y128.959 E1.91098
G1 X58.467 Y128.687 E0.03463
G1 X57.491 Y128.091 E0.03586
G1 X56.937 Y127.536 E0.02460
G1 X56.566 Y127.052 E0.01912
G1 X56.041 Y125.485 E0.05179
G1 X56.041 Y54.538 E2.22452
G1 X56.313 Y53.467 E0.03463
G1 X56.909 Y52.491 E0.03586
G1 X57.464 Y51.937 E0.02460
G1 X57.855 Y51.637 E0.01544
M204 S1250
G1 X58.152 Y51.885 F9000.000
M204 S800
G1 F1200.000
G1 X59.545 Y51.418 E0.04608
G1 X120.429 Y51.421 E1.90896
G1 X121.148 Y51.570 E0.02304
G1 X121.808 Y51.865 E0.02266
G1 X122.762 Y52.692 E0.03960
G1 X123.306 Y53.537 E0.03149
G1 X123.582 Y54.563 E0.03331
G1 X123.582 Y125.438 E2.22224
G1 X123.329 Y126.410 E0.03149
G1 X122.808 Y127.258 E0.03119
G1 X122.278 Y127.788 E0.02350
G1 X121.848 Y128.115 E0.01695
G1 X120.455 Y128.582 E0.04607
G1 X59.562 Y128.582 E1.90925
G1 X58.590 Y128.329 E0.03149
G1 X57.742 Y127.808 E0.03119
G1 X57.212 Y127.278 E0.02350
G1 X56.885 Y126.848 E0.01695
G1 X56.418 Y125.455 E0.04607
G1 X56.418 Y54.562 E2.22280
G1 X56.671 Y53.590 E0.03149
G1 X57.191 Y52.742 E0.03119
G1 X57.722 Y52.212 E0.02350
G1 X58.104 Y51.921 E0.01507
M204 S1250
G1 X58.331 Y52.222 F9000.000
M204 S800
G1 F1200.000
G1 X59.576 Y51.795 E0.04125
G1 X120.410 Y51.798 E1.90740
G1 X121.013 Y51.923 E0.01933
G1 X121.628 Y52.197 E0.02110
G1 X122.492 Y52.957 E0.03609
G1 X122.972 Y53.714 E0.02809
G1 X123.205 Y54.587 E0.02835
G1 X123.205 Y125.413 E2.22068
G1 X122.973 Y126.285 E0.02831
G1 X122.527 Y127.006 E0.02658
G1 X122.021 Y127.512 E0.02241
G1 X121.645 Y127.796 E0.01477
G1 X120.424 Y128.205 E0.04038
G1 X59.587 Y128.205 E1.90751
G1 X58.715 Y127.973 E0.02831
G1 X57.994 Y127.527 E0.02658
G1 X57.488 Y127.021 E0.02241
G1 X57.204 Y126.645 E0.01477
G1 X56.795 Y125.424 E0.04038
G1 X56.795 Y54.587 E2.22105
G1 X57.027 Y53.715 E0.02831
G1 X57.473 Y52.994 E0.02658
G1 X57.979 Y52.488 E0.02241
G1 X58.283 Y52.258 E0.01198
M204 S1250
G1 X59.606 Y52.172 F9000.000
M204 S800
G1 F1200.000
G1 X120.389 Y52.176 E1.90581
G1 X120.914 Y52.287 E0.01681
G1 X121.445 Y52.528 E0.01829
G1 X122.222 Y53.221 E0.03263
G1 X122.616 Y53.841 E0.02306
G1 X122.828 Y54.613 E0.02510
G1 X122.828 Y125.387 E2.21906
G1 X122.617 Y126.158 E0.02508
G1 X122.245 Y126.755 E0.02203
G1 X121.764 Y127.235 E0.02132
G1 X121.444 Y127.476 E0.01257
G1 X120.394 Y127.828 E0.03472
G1 X59.613 Y127.828 E1.90573
G1 X58.842 Y127.617 E0.02508
G1 X58.245 Y127.245 E0.02203
G1 X57.765 Y126.764 E0.02132
G1 X57.524 Y126.444 E0.01257
G1 X57.172 Y125.394 E0.03472
G1 X57.172 Y54.613 E2.21928
M73 P1 R190
G1 X57.383 Y53.842 E0.02508
G1 X57.755 Y53.245 E0.02203
G1 X58.236 Y52.765 E0.02132
G1 X58.556 Y52.524 E0.01257
G1 X59.549 Y52.191 E0.03284
M204 S1250
G1 X59.668 Y52.926 F9000.000
M204 S800
G1 F1200.000
G1 X120.346 Y52.930 E1.90251
G1 X120.705 Y53.013 E0.01157
G1 X121.071 Y53.185 E0.01268
G1 X121.676 Y53.743 E0.02580
G1 X121.908 Y54.105 E0.01347
G1 X122.074 Y54.668 E0.01841
G1 X122.074 Y125.332 E2.21562
G1 X121.908 Y125.896 E0.01842
G1 X121.683 Y126.250 E0.01318
G1 X121.252 Y126.681 E0.01911
G1 X121.044 Y126.834 E0.00808
G1 X120.332 Y127.074 E0.02354
G1 X59.668 Y127.074 E1.90208
G1 X59.104 Y126.908 E0.01842
G1 X58.750 Y126.683 E0.01318
G1 X58.319 Y126.252 E0.01911
G1 X58.166 Y126.044 E0.00808
G1 X57.926 Y125.332 E0.02354
G1 X57.926 Y54.668 E2.21562
G1 X58.092 Y54.104 E0.01842
G1 X58.317 Y53.750 E0.01318
G1 X58.748 Y53.319 E0.01911
G1 X58.956 Y53.166 E0.00808
G1 X59.611 Y52.945 E0.02166
M204 S1250
G1 X59.154 Y53.488 F9000.000
M204 S800
G1 F1200.000
G1 X59.699 Y53.303 E0.01806
G1 X120.324 Y53.307 E1.90086
G1 X120.562 Y53.362 E0.00767
G1 X120.882 Y53.513 E0.01109
G1 X121.401 Y54.001 E0.02233
G1 X121.556 Y54.242 E0.00898
G1 X121.697 Y54.698 E0.01495
G1 X121.697 Y125.302 E2.21376
G1 X121.556 Y125.758 E0.01496
G1 X121.402 Y125.998 E0.00892
G1 X120.996 Y126.404 E0.01800
G1 X120.846 Y126.512 E0.00579
G1 X120.301 Y126.697 E0.01806
G1 X59.698 Y126.697 E1.90018
G1 X59.242 Y126.556 E0.01496
G1 X59.002 Y126.402 E0.00892
G1 X58.596 Y125.996 E0.01800
G1 X58.488 Y125.846 E0.00579
G1 X58.303 Y125.301 E0.01806
G1 X58.303 Y54.698 E2.21372
G1 X58.444 Y54.242 E0.01496
G1 X58.598 Y54.002 E0.00892
G1 X59.004 Y53.596 E0.01800
G1 X59.105 Y53.524 E0.00391
M204 S1250
G1 X59.348 Y53.812 F9000.000
M204 S800
G1 F1200.000
G1 X59.731 Y53.680 E0.01270
G1 X120.302 Y53.684 E1.89916
G1 X120.419 Y53.711 E0.00377
G1 X120.692 Y53.840 E0.00947
G1 X121.123 Y54.257 E0.01880
G1 X121.207 Y54.385 E0.00479
G1 X121.320 Y54.729 E0.01136
G1 X121.320 Y125.271 E2.21177
G1 X121.207 Y125.615 E0.01136
G1 X121.122 Y125.744 E0.00484
G1 X120.742 Y126.125 E0.01686
G1 X120.652 Y126.188 E0.00345
G1 X120.269 Y126.320 E0.01270
G1 X59.729 Y126.320 E1.89819
G1 X59.385 Y126.207 E0.01136
G1 X59.256 Y126.122 E0.00484
G1 X58.875 Y125.742 E0.01686
G1 X58.812 Y125.652 E0.00345
G1 X58.680 Y125.269 E0.01270
G1 X58.680 Y54.729 E2.21173
G1 X58.793 Y54.385 E0.01136
G1 X58.878 Y54.256 E0.00484
G1 X59.299 Y53.847 E0.01841
M204 S1250
G1 X59.537 Y54.139 F9000.000
M204 S800
G1 F1200.000
G1 X59.764 Y54.057 E0.00757
G1 X120.250 Y54.057 E1.89648
G1 X120.500 Y54.167 E0.00856
G1 X120.843 Y54.510 E0.01522
G1 X120.943 Y54.764 E0.00856
G1 X120.943 Y125.236 E2.20957
G1 X120.843 Y125.490 E0.00856
G1 X120.490 Y125.843 E0.01566
G1 X120.236 Y125.943 E0.00856
G1 X59.764 Y125.943 E1.89603
G1 X59.510 Y125.843 E0.00856
G1 X59.157 Y125.490 E0.01566
G1 X59.057 Y125.236 E0.00856
G1 X59.057 Y54.764 E2.20957
G1 X59.157 Y54.510 E0.00856
G1 X59.491 Y54.176 E0.01480
M204 S1250
G1 X59.737 Y54.463 F9000.000
M204 S800
G1 F1200.000
G1 X59.806 Y54.434 E0.00235
G1 X120.194 Y54.434 E1.89340
G1 X120.263 Y54.463 E0.00235
G1 X120.537 Y54.737 E0.01215
G1 X120.566 Y54.806 E0.00235
G1 X120.566 Y125.194 E2.20695
M73 P1 R189
G1 X120.537 Y125.263 E0.00235
G1 X120.263 Y125.537 E0.01215
G1 X120.194 Y125.566 E0.00235
G1 X59.806 Y125.566 E1.89340
G1 X59.737 Y125.537 E0.00235
G1 X59.463 Y125.263 E0.01215
G1 X59.434 Y125.194 E0.00235
G1 X59.434 Y54.806 E2.20695
G1 X59.463 Y54.737 E0.00235
G1 X59.695 Y54.506 E0.01027
M204 S1250
G1 X59.922 Y54.811 F9000.000
M204 S800
G1 F1200.000
G1 X120.078 Y54.811 E1.88616
G1 X120.189 Y54.922 E0.00490
G1 X120.189 Y125.078 E2.19970
G1 X120.078 Y125.189 E0.00490
G1 X59.922 Y125.189 E1.88616
G1 X59.811 Y125.078 E0.00490
G1 X59.811 Y54.922 E2.19970
G1 X59.879 Y54.854 E0.00302
M204 S1250
; printing object Trafic_Lights_Netta_PCB_small_leds.stl id:0 copy 0
G1 X60.787 Y55.787 F9000.000
M204 S800
;TYPE:Perimeter
G1 F1200.000
G1 X119.213 Y55.787 E1.83190
G1 X119.213 Y124.213 E2.14544
G1 X60.787 Y124.213 E1.83190
G1 X60.787 Y55.847 E2.14356
M204 S1250
G1 X60.410 Y55.410 F9000.000
M204 S800
;TYPE:External perimeter
G1 F1200.000
G1 X119.590 Y55.410 E1.85555
G1 X119.590 Y124.590 E2.16909
G1 X60.410 Y124.590 E1.85555
G1 X60.410 Y55.470 E2.16721
M204 S1250
G1 X60.794 Y55.524 F9000.000
G1 E-2.24000 F4200.000
;WIPE_START
G1 F7200.000
G1 X62.056 Y55.468 E-0.91200
;WIPE_END
G1 E-0.04800 F4200.000
G1 Z0.400 F9000.000
G1 X118.337 Y55.900
G1 Z0.200
G1 E3.20000 F2400.000
M204 S800
;TYPE:Solid infill
;WIDTH:0.420266
G1 F1200.000
G1 X118.930 Y56.493 E0.02632
G1 X118.930 Y57.027 E0.01674
G1 X117.973 Y56.070 E0.04247
G1 X117.439 Y56.070 E0.01674
G1 X118.930 Y57.561 E0.06615
G1 X118.930 Y58.094 E0.01674
G1 X116.906 Y56.070 E0.08983
G1 X116.372 Y56.070 E0.01674
G1 X118.930 Y58.628 E0.11351
G1 X118.930 Y59.162 E0.01674
G1 X115.838 Y56.070 E0.13719
G1 X115.305 Y56.070 E0.01674
G1 X118.930 Y59.695 E0.16087
G1 X118.930 Y60.229 E0.01674
G1 X114.771 Y56.070 E0.18455
G1 X114.237 Y56.070 E0.01674
G1 X118.930 Y60.763 E0.20823
G1 X118.930 Y61.296 E0.01674
G1 X113.704 Y56.070 E0.23191
G1 X113.170 Y56.070 E0.01674
G1 X118.930 Y61.830 E0.25559
G1 X118.930 Y62.363 E0.01674
G1 X112.637 Y56.070 E0.27927
G1 X112.103 Y56.070 E0.01674
G1 X118.930 Y62.897 E0.30295
G1 X118.930 Y63.431 E0.01674
G1 X111.569 Y56.070 E0.32662
G1 X111.036 Y56.070 E0.01674
G1 X118.930 Y63.964 E0.35030
G1 X118.930 Y64.498 E0.01674
G1 X110.502 Y56.070 E0.37398
G1 X109.968 Y56.070 E0.01674
G1 X118.930 Y65.032 E0.39766
G1 X118.930 Y65.565 E0.01674
G1 X109.435 Y56.070 E0.42134
G1 X108.901 Y56.070 E0.01674
G1 X118.930 Y66.099 E0.44502
G1 X118.930 Y66.633 E0.01674
G1 X108.367 Y56.070 E0.46870
M73 P2 R189
G1 X107.834 Y56.070 E0.01674
G1 X118.930 Y67.166 E0.49238
G1 X118.930 Y67.700 E0.01674
G1 X107.300 Y56.070 E0.51606
G1 X106.766 Y56.070 E0.01674
G1 X118.930 Y68.234 E0.53974
G1 X118.930 Y68.767 E0.01674
G1 X106.233 Y56.070 E0.56342
M73 P2 R188
G1 X105.699 Y56.070 E0.01674
G1 X118.930 Y69.301 E0.58710
G1 X118.930 Y69.835 E0.01674
G1 X105.165 Y56.070 E0.61078
G1 X104.632 Y56.070 E0.01674
G1 X118.930 Y70.368 E0.63446
G1 X118.930 Y70.902 E0.01674
G1 X104.098 Y56.070 E0.65814
G1 X103.565 Y56.070 E0.01674
G1 X118.930 Y71.435 E0.68182
G1 X118.930 Y71.969 E0.01674
G1 X103.031 Y56.070 E0.70550
G1 X102.497 Y56.070 E0.01674
G1 X118.930 Y72.503 E0.72918
G1 X118.930 Y73.036 E0.01674
G1 X101.964 Y56.070 E0.75286
G1 X101.430 Y56.070 E0.01674
G1 X118.930 Y73.570 E0.77654
G1 X118.930 Y74.104 E0.01674
G1 X100.896 Y56.070 E0.80022
G1 X100.363 Y56.070 E0.01674
G1 X118.930 Y74.637 E0.82390
G1 X118.930 Y75.171 E0.01674
G1 X99.829 Y56.070 E0.84757
G1 X99.295 Y56.070 E0.01674
G1 X118.930 Y75.705 E0.87125
G1 X118.930 Y76.238 E0.01674
G1 X98.762 Y56.070 E0.89493
G1 X98.228 Y56.070 E0.01674
G1 X118.930 Y76.772 E0.91861
G1 X118.930 Y77.306 E0.01674
G1 X97.694 Y56.070 E0.94229
G1 X97.161 Y56.070 E0.01674
G1 X118.930 Y77.839 E0.96597
G1 X118.930 Y78.373 E0.01674
G1 X96.627 Y56.070 E0.98965
G1 X96.093 Y56.070 E0.01674
G1 X118.930 Y78.907 E1.01333
G1 X118.930 Y79.440 E0.01674
G1 X95.560 Y56.070 E1.03701
G1 X95.026 Y56.070 E0.01674
G1 X118.930 Y79.974 E1.06069
G1 X118.930 Y80.507 E0.01674
G1 X94.493 Y56.070 E1.08437
G1 X93.959 Y56.070 E0.01674
G1 X118.930 Y81.041 E1.10805
G1 X118.930 Y81.575 E0.01674
G1 X93.425 Y56.070 E1.13173
G1 X92.892 Y56.070 E0.01674
G1 X118.930 Y82.108 E1.15541
G1 X118.930 Y82.642 E0.01674
G1 X92.358 Y56.070 E1.17909
G1 X91.824 Y56.070 E0.01674
G1 X118.930 Y83.176 E1.20277
G1 X118.930 Y83.709 E0.01674
G1 X91.291 Y56.070 E1.22645
G1 X90.757 Y56.070 E0.01674
G1 X118.930 Y84.243 E1.25013
G1 X118.930 Y84.777 E0.01674
G1 X90.223 Y56.070 E1.27381
G1 X89.690 Y56.070 E0.01674
G1 X118.930 Y85.310 E1.29749
G1 X118.930 Y85.844 E0.01674
G1 X89.156 Y56.070 E1.32117
G1 X88.622 Y56.070 E0.01674
G1 X118.930 Y86.378 E1.34485
G1 X118.930 Y86.911 E0.01674
G1 X88.089 Y56.070 E1.36853
G1 X87.555 Y56.070 E0.01674
G1 X118.930 Y87.445 E1.39220
G1 X118.930 Y87.979 E0.01674
G1 X87.021 Y56.070 E1.41588
G1 X86.488 Y56.070 E0.01674
G1 X118.930 Y88.512 E1.43956
M73 P2 R187
G1 X118.930 Y89.046 E0.01674
G1 X85.954 Y56.070 E1.46324
G1 X85.420 Y56.070 E0.01674
G1 X118.930 Y89.580 E1.48692
G1 X118.930 Y90.113 E0.01674
G1 X84.887 Y56.070 E1.51060
G1 X84.353 Y56.070 E0.01674
G1 X118.930 Y90.647 E1.53428
G1 X118.930 Y91.180 E0.01674
G1 X83.820 Y56.070 E1.55796
G1 X83.286 Y56.070 E0.01674
G1 X118.930 Y91.714 E1.58164
G1 X118.930 Y92.248 E0.01674
G1 X82.752 Y56.070 E1.60532
G1 X82.219 Y56.070 E0.01674
G1 X118.930 Y92.781 E1.62900
G1 X118.930 Y93.315 E0.01674
G1 X81.685 Y56.070 E1.65268
G1 X81.151 Y56.070 E0.01674
G1 X118.930 Y93.849 E1.67636
G1 X118.930 Y94.382 E0.01674
G1 X80.618 Y56.070 E1.70004
G1 X80.084 Y56.070 E0.01674
G1 X118.930 Y94.916 E1.72372
G1 X118.930 Y95.450 E0.01674
G1 X79.550 Y56.070 E1.74740
G1 X79.017 Y56.070 E0.01674
G1 X118.930 Y95.983 E1.77108
G1 X118.930 Y96.517 E0.01674
G1 X78.483 Y56.070 E1.79476
G1 X77.949 Y56.070 E0.01674
G1 X118.930 Y97.051 E1.81844
G1 X118.930 Y97.584 E0.01674
G1 X77.416 Y56.070 E1.84212
