; generated by PrusaSlicer 2.2.0+win64 on 2021-01-10 at 14:39:08 UTC


;
;

;
;
; 

; external perimeters extrusion width = 0.45mm
; perimeters extrusion width = 0.45mm
; infill extrusion width = 0.45mm
; solid infill extrusion width = 0.45mm
; top infill extrusion width = 0.40mm
; first layer extrusion width = 0.42mm

M73 P0 R191
M201 X1250 Y1250 Z400 E5000 ; sets maximum accelerations, mm/sec^2
M203 X180 Y180 Z12 E80 ; sets maximum feedrates, mm/sec
M204 P1250 R1250 T1250 ; sets acceleration (P, T) and retract acceleration (R), mm/sec^2
M205 X8.00 Y8.00 Z2.00 E10.00 ; sets the jerk limits, mm/sec
M205 S0 T0 ; sets the minimum extruding and travel feed rate, mm/sec
M107
G90 ; use absolute coordinates
M83 ; extruder relative mode
M104 S170 ; set extruder temp for bed leveling
M140 S60 ; set bed temp
M109 R170 ; wait for bed leveling temp
M190 S60 ; wait for bed temp
G28 ; home all without mesh bed level
G29 ; mesh bed leveling 
M104 S215 ; set extruder temp
G92 E0.0
G1 Y-2.0 X179 F2400
G1 Z3 F720
M109 S215 ; wait for extruder temp

; intro line
G1 X170 F1000
G1 Z0.2 F720
G1 X110.0 E8.0 F900
M73 P0 R191
G1 X40.0 E10.0 F700
G92 E0.0

M221 S95 ; set flow
G21 ; set units to millimeters
G90 ; use absolute coordinates
M83 ; use relative distances for extrusion
M900 K0.2 ; Filament gcode LA 1.5
; ; Filament gcode LA 1.0
;BEFORE_LAYER_CHANGE
G92 E0.0
;0.2


G1 Z0.200 F9000.000
;AFTER_LAYER_CHANGE
;0.2
G1 E-3.20000 F4200.00000
G1 Z0.400 F9000.000
G1 X74.844 Y61.124
G1 Z0.200
G1 E3.20000 F2400.00000
M204 S800
G1 F1200.000
G1 X75.768 Y60.923 E0.02966
G1 X128.204 Y60.923 E1.64407
G1 X129.095 Y61.098 E0.02849
G1 X129.856 Y61.595 E0.02849
G1 X130.375 Y62.341 E0.02849
G1 X130.576 Y63.227 E0.02849
G1 X130.577 Y116.727 E1.67746
G1 X130.405 Y117.588 E0.02755
G1 X129.932 Y118.329 E0.02755
G1 X129.145 Y118.881 E0.03013
G1 X128.205 Y119.077 E0.03013
G1 X75.773 Y119.077 E1.64395
G1 X74.912 Y118.905 E0.02755
G1 X74.171 Y118.432 E0.02755
G1 X73.619 Y117.645 E0.03013
G1 X73.423 Y116.705 E0.03013
G1 X73.423 Y63.273 E1.67531
G1 X73.595 Y62.412 E0.02755
G1 X74.068 Y61.671 E0.02755
G1 X74.795 Y61.158 E0.02789
M204 S1250
; printing object trafic_lights_box.stl id:0 copy 0
G1 E-2.24000 F4200.00000
G1 F7200.000
G1 X75.768 Y60.923 E-0.55494
G1 X76.413 Y60.923 E-0.35706
G1 E-0.04800 F4200.00000
G1 Z0.400 F9000.000
G1 X76.587 Y64.087
G1 Z0.200
G1 E3.20000 F2400.00000
M204 S800
G1 F1200.000
G1 X127.413 Y64.087 E1.59361
G1 X127.413 Y115.913 E1.62496
G1 X76.587 Y115.913 E1.59361
G1 X76.587 Y64.147 E1.62308
M204 S1250
G1 X76.210 Y63.710 F9000.000
M204 S800
G1 F1200.000
G1 X127.790 Y63.710 E1.61725
G1 X127.790 Y116.290 E1.64861
G1 X76.210 Y116.290 E1.61725
G1 X76.210 Y63.770 E1.64673
M204 S1250
G1 X76.596 Y63.815 F9000.000
G1 E-2.24000 F4200.00000
G1 F7200.000
G1 X77.856 Y63.768 E-0.91200
G1 E-0.04800 F4200.00000
G1 Z0.400 F9000.000
G1 X76.700 Y115.034
G1 Z0.200
G1 E3.20000 F2400.00000
M204 S800
G1 F1200.000
G1 X77.296 Y115.630 E0.02653
G1 X77.831 Y115.630 E0.01686
G1 X76.870 Y114.669 E0.04281
G1 X76.870 Y114.133 E0.01686
G1 X78.367 Y115.630 E0.06665
G1 X78.902 Y115.630 E0.01686
G1 X76.870 Y113.598 E0.09049
G1 X76.870 Y113.062 E0.01686
G1 X79.438 Y115.630 E0.11434
G1 X79.973 Y115.630 E0.01686
G1 X76.870 Y112.527 E0.13818
G1 X76.870 Y111.991 E0.01686
G1 X80.509 Y115.630 E0.16202
G1 X81.044 Y115.630 E0.01686
G1 X76.870 Y111.456 E0.18586
G1 X76.870 Y110.920 E0.01686
G1 X81.580 Y115.630 E0.20970
G1 X82.115 Y115.630 E0.01686
G1 X76.870 Y110.385 E0.23354
G1 X76.870 Y109.849 E0.01686
G1 X82.651 Y115.630 E0.25738
G1 X83.186 Y115.630 E0.01686
G1 X76.870 Y109.314 E0.28123
G1 X76.870 Y108.778 E0.01686
G1 X83.722 Y115.630 E0.30507
G1 X84.257 Y115.630 E0.01686
G1 X76.870 Y108.243 E0.32891
G1 X76.870 Y107.707 E0.01686
G1 X84.793 Y115.630 E0.35275
G1 X85.328 Y115.630 E0.01686
G1 X76.870 Y107.172 E0.37659
G1 X76.870 Y106.637 E0.01686
G1 X85.863 Y115.630 E0.40043
G1 X86.399 Y115.630 E0.01686
G1 X76.870 Y106.101 E0.42428
G1 X76.870 Y105.566 E0.01686
G1 X86.934 Y115.630 E0.44812
G1 X87.470 Y115.630 E0.01686
G1 X76.870 Y105.030 E0.47196
G1 X76.870 Y104.495 E0.01686
G1 X88.005 Y115.630 E0.49580
G1 X88.541 Y115.630 E0.01686
G1 X76.870 Y103.959 E0.51964
G1 X76.870 Y103.424 E0.01686
G1 X89.076 Y115.630 E0.54348
G1 X89.612 Y115.630 E0.01686
G1 X76.870 Y102.888 E0.56732
G1 X76.870 Y102.353 E0.01686
G1 X90.147 Y115.630 E0.59117
G1 X90.683 Y115.630 E0.01686
G1 X76.870 Y101.817 E0.61501
G1 X76.870 Y101.282 E0.01686
G1 X91.218 Y115.630 E0.63885
G1 X91.754 Y115.630 E0.01686
G1 X76.870 Y100.746 E0.66269
G1 X76.870 Y100.211 E0.01686
G1 X92.289 Y115.630 E0.68653
G1 X92.825 Y115.630 E0.01686
G1 X76.870 Y99.675 E0.71037
G1 X76.870 Y99.140 E0.01686
G1 X93.360 Y115.630 E0.73421
G1 X93.895 Y115.630 E0.01686
G1 X76.870 Y98.605 E0.75806
M73 P0 R190
G1 X76.870 Y98.069 E0.01686
G1 X94.431 Y115.630 E0.78190
G1 X94.966 Y115.630 E0.01686
G1 X76.870 Y97.534 E0.80574
G1 X76.870 Y96.998 E0.01686
G1 X95.502 Y115.630 E0.82958
G1 X96.037 Y115.630 E0.01686
G1 X76.870 Y96.463 E0.85342
G1 X76.870 Y95.927 E0.01686
G1 X96.573 Y115.630 E0.87726
G1 X97.108 Y115.630 E0.01686
G1 X76.870 Y95.392 E0.90110
G1 X76.870 Y94.856 E0.01686
G1 X97.644 Y115.630 E0.92495
G1 X98.179 Y115.630 E0.01686
G1 X76.870 Y94.321 E0.94879
G1 X76.870 Y93.785 E0.01686
G1 X98.715 Y115.630 E0.97263
G1 X99.250 Y115.630 E0.01686
G1 X76.870 Y93.250 E0.99647
G1 X76.870 Y92.714 E0.01686
G1 X99.786 Y115.630 E1.02031
G1 X100.321 Y115.630 E0.01686
G1 X76.870 Y92.179 E1.04415
G1 X76.870 Y91.643 E0.01686
G1 X100.857 Y115.630 E1.06800
G1 X101.392 Y115.630 E0.01686
G1 X76.870 Y91.108 E1.09184
G1 X76.870 Y90.572 E0.01686
G1 X101.928 Y115.630 E1.11568
G1 X102.463 Y115.630 E0.01686
G1 X76.870 Y90.037 E1.13952
G1 X76.870 Y89.502 E0.01686
G1 X102.998 Y115.630 E1.16336
G1 X103.534 Y115.630 E0.01686
G1 X76.870 Y88.966 E1.18720
G1 X76.870 Y88.431 E0.01686
G1 X104.069 Y115.630 E1.21104
G1 X104.605 Y115.630 E0.01686
G1 X76.870 Y87.895 E1.23489
G1 X76.870 Y87.360 E0.01686
G1 X105.140 Y115.630 E1.25873
G1 X105.676 Y115.630 E0.01686
G1 X76.870 Y86.824 E1.28257
G1 X76.870 Y86.289 E0.01686
G1 X106.211 Y115.630 E1.30641
G1 X106.747 Y115.630 E0.01686
G1 X76.870 Y85.753 E1.33025
G1 X76.870 Y85.218 E0.01686
G1 X107.282 Y115.630 E1.35409
G1 X107.818 Y115.630 E0.01686
G1 X76.870 Y84.682 E1.37793
G1 X76.870 Y84.147 E0.01686
G1 X108.353 Y115.630 E1.40178
G1 X108.889 Y115.630 E0.01686
G1 X76.870 Y83.611 E1.42562
G1 X76.870 Y83.076 E0.01686
G1 X109.424 Y115.630 E1.44946
G1 X109.960 Y115.630 E0.01686
G1 X76.870 Y82.540 E1.47330
G1 X76.870 Y82.005 E0.01686
G1 X110.495 Y115.630 E1.49714
G1 X111.031 Y115.630 E0.01686
G1 X76.870 Y81.469 E1.52098
G1 X76.870 Y80.934 E0.01686
G1 X111.566 Y115.630 E1.54482
M73 P1 R189
G1 X112.101 Y115.630 E0.01686
G1 X76.870 Y80.399 E1.56867
G1 X76.870 Y79.863 E0.01686
G1 X112.637 Y115.630 E1.59251
G1 X113.172 Y115.630 E0.01686
G1 X76.870 Y79.328 E1.61635
G1 X76.870 Y78.792 E0.01686
G1 X113.708 Y115.630 E1.64019
G1 X114.243 Y115.630 E0.01686
G1 X76.870 Y78.257 E1.66403
G1 X76.870 Y77.721 E0.01686
G1 X114.779 Y115.630 E1.68787
G1 X115.314 Y115.630 E0.01686
G1 X76.870 Y77.186 E1.71172
G1 X76.870 Y76.650 E0.01686
G1 X115.850 Y115.630 E1.73556
G1 X116.385 Y115.630 E0.01686
G1 X76.870 Y76.115 E1.75940
G1 X76.870 Y75.579 E0.01686
G1 X116.921 Y115.630 E1.78324
G1 X117.456 Y115.630 E0.01686
G1 X76.870 Y75.044 E1.80708
G1 X76.870 Y74.508 E0.01686
G1 X117.992 Y115.630 E1.83092
G1 X118.527 Y115.630 E0.01686
G1 X76.870 Y73.973 E1.85476
G1 X76.870 Y73.437 E0.01686
G1 X119.063 Y115.630 E1.87861
G1 X119.598 Y115.630 E0.01686
G1 X76.870 Y72.902 E1.90245
G1 X76.870 Y72.367 E0.01686
G1 X120.133 Y115.630 E1.92629
G1 X120.669 Y115.630 E0.01686
G1 X76.870 Y71.831 E1.95013
G1 X76.870 Y71.296 E0.01686
G1 X121.204 Y115.630 E1.97397
G1 X121.740 Y115.630 E0.01686
G1 X76.870 Y70.760 E1.99781
G1 X76.870 Y70.225 E0.01686
G1 X122.275 Y115.630 E2.02165
G1 X122.811 Y115.630 E0.01686
G1 X76.870 Y69.689 E2.04550
M73 P1 R188
G1 X76.870 Y69.154 E0.01686
G1 X123.346 Y115.630 E2.06934
G1 X123.882 Y115.630 E0.01686
G1 X76.870 Y68.618 E2.09318
G1 X76.870 Y68.083 E0.01686
G1 X124.417 Y115.630 E2.11702
G1 X124.953 Y115.630 E0.01686
G1 X76.870 Y67.547 E2.14086
G1 X76.870 Y67.012 E0.01686
G1 X125.488 Y115.630 E2.16470
G1 X126.024 Y115.630 E0.01686
G1 X76.870 Y66.476 E2.18854
G1 X76.870 Y65.941 E0.01686
G1 X126.559 Y115.630 E2.21239
G1 X127.095 Y115.630 E0.01686
G1 X76.870 Y65.405 E2.23623
G1 X76.870 Y64.870 E0.01686
G1 X127.130 Y115.130 E2.23781
G1 X127.130 Y114.595 E0.01686
G1 X76.905 Y64.370 E2.23623
G1 X77.441 Y64.370 E0.01686
G1 X127.130 Y114.059 E2.21239
G1 X127.130 Y113.524 E0.01686
G1 X77.976 Y64.370 E2.18855
G1 X78.512 Y64.370 E0.01686
G1 X127.130 Y112.988 E2.16471
G1 X127.130 Y112.453 E0.01686
G1 X79.047 Y64.370 E2.14087
G1 X79.583 Y64.370 E0.01686
G1 X127.130 Y111.917 E2.11703
G1 X127.130 Y111.382 E0.01686
G1 X80.118 Y64.370 E2.09319
G1 X80.654 Y64.370 E0.01686
G1 X127.130 Y110.846 E2.06934
G1 X127.130 Y110.311 E0.01686
G1 X81.189 Y64.370 E2.04550
M73 P2 R187
G1 X81.725 Y64.370 E0.01686
G1 X127.130 Y109.775 E2.02166
G1 X127.130 Y109.240 E0.01686
G1 X82.260 Y64.370 E1.99782
G1 X82.795 Y64.370 E0.01686
G1 X127.130 Y108.705 E1.97398
G1 X127.130 Y108.169 E0.01686
G1 X83.331 Y64.370 E1.95014
G1 X83.866 Y64.370 E0.01686
G1 X127.130 Y107.634 E1.92629
G1 X127.130 Y107.098 E0.01686
G1 X84.402 Y64.370 E1.90245
G1 X84.937 Y64.370 E0.01686
G1 X127.130 Y106.563 E1.87861
G1 X127.130 Y106.027 E0.01686
G1 X85.473 Y64.370 E1.85477
G1 X86.008 Y64.370 E0.01686
G1 X127.130 Y105.492 E1.83093
G1 X127.130 Y104.956 E0.01686
G1 X86.544 Y64.370 E1.80709
G1 X87.079 Y64.370 E0.01686
G1 X127.130 Y104.421 E1.78325
G1 X127.130 Y103.885 E0.01686
G1 X87.615 Y64.370 E1.75940
G1 X88.150 Y64.370 E0.01686
G1 X127.130 Y103.350 E1.73556
G1 X127.130 Y102.814 E0.01686
G1 X88.686 Y64.370 E1.71172
G1 X89.221 Y64.370 E0.01686
G1 X127.130 Y102.279 E1.68788
G1 X127.130 Y101.743 E0.01686
G1 X89.757 Y64.370 E1.66404
G1 X90.292 Y64.370 E0.01686
G1 X127.130 Y101.208 E1.64020
G1 X127.130 Y100.673 E0.01686
G1 X90.827 Y64.370 E1.61636
G1 X91.363 Y64.370 E0.01686
G1 X127.130 Y100.137 E1.59251
G1 X127.130 Y99.602 E0.01686
G1 X91.898 Y64.370 E1.56867
G1 X92.434 Y64.370 E0.01686
G1 X127.130 Y99.066 E1.54483
M73 P2 R186
G1 X127.130 Y98.531 E0.01686
G1 X92.969 Y64.370 E1.52099
G1 X93.505 Y64.370 E0.01686
G1 X127.130 Y97.995 E1.49715
G1 X127.130 Y97.460 E0.01686
G1 X94.040 Y64.370 E1.47331
G1 X94.576 Y64.370 E0.01686
G1 X127.130 Y96.924 E1.44947
G1 X127.130 Y96.389 E0.01686
G1 X95.111 Y64.370 E1.42562
G1 X95.647 Y64.370 E0.01686
G1 X127.130 Y95.853 E1.40178
G1 X127.130 Y95.318 E0.01686
G1 X96.182 Y64.370 E1.37794
G1 X96.718 Y64.370 E0.01686
G1 X127.130 Y94.782 E1.35410
G1 X127.130 Y94.247 E0.01686
G1 X97.253 Y64.370 E1.33026
G1 X97.789 Y64.370 E0.01686
G1 X127.130 Y93.711 E1.30642
G1 X127.130 Y93.176 E0.01686
G1 X98.324 Y64.370 E1.28257
G1 X98.860 Y64.370 E0.01686
G1 X127.130 Y92.640 E1.25873
G1 X127.130 Y92.105 E0.01686
G1 X99.395 Y64.370 E1.23489
G1 X99.930 Y64.370 E0.01686
G1 X127.130 Y91.570 E1.21105
G1 X127.130 Y91.034 E0.01686
G1 X100.466 Y64.370 E1.18721
G1 X101.001 Y64.370 E0.01686
G1 X127.130 Y90.499 E1.16337
G1 X127.130 Y89.963 E0.01686
G1 X101.537 Y64.370 E1.13953
G1 X102.072 Y64.370 E0.01686
G1 X127.130 Y89.428 E1.11568
G1 X127.130 Y88.892 E0.01686
G1 X102.608 Y64.370 E1.09184
G1 X103.143 Y64.370 E0.01686
G1 X127.130 Y88.357 E1.06800
G1 X127.130 Y87.821 E0.01686
G1 X103.679 Y64.370 E1.04416
G1 X104.214 Y64.370 E0.01686
G1 X127.130 Y87.286 E1.02032
G1 X127.130 Y86.750 E0.01686
G1 X104.750 Y64.370 E0.99648
G1 X105.285 Y64.370 E0.01686
G1 X127.130 Y86.215 E0.97264
G1 X127.130 Y85.679 E0.01686
G1 X105.821 Y64.370 E0.94879
G1 X106.356 Y64.370 E0.01686
G1 X127.130 Y85.144 E0.92495
G1 X127.130 Y84.608 E0.01686
G1 X106.892 Y64.370 E0.90111
G1 X107.427 Y64.370 E0.01686
G1 X127.130 Y84.073 E0.87727
G1 X127.130 Y83.537 E0.01686
G1 X107.962 Y64.370 E0.85343
G1 X108.498 Y64.370 E0.01686
G1 X127.130 Y83.002 E0.82959
G1 X127.130 Y82.467 E0.01686
G1 X109.033 Y64.370 E0.80575
G1 X109.569 Y64.370 E0.01686
G1 X127.130 Y81.931 E0.78190
G1 X127.130 Y81.396 E0.01686
G1 X110.104 Y64.370 E0.75806
M73 P3 R185
G1 X110.640 Y64.370 E0.01686
G1 X127.130 Y80.860 E0.73422
G1 X127.130 Y80.325 E0.01686
G1 X111.175 Y64.370 E0.71038
G1 X111.711 Y64.370 E0.01686
G1 X127.130 Y79.789 E0.68654
G1 X127.130 Y79.254 E0.01686
G1 X112.246 Y64.370 E0.66270
G1 X112.782 Y64.370 E0.01686
G1 X127.130 Y78.718 E0.63885
G1 X127.130 Y78.183 E0.01686
G1 X113.317 Y64.370 E0.61501
G1 X113.853 Y64.370 E0.01686
G1 X127.130 Y77.647 E0.59117
G1 X127.130 Y77.112 E0.01686
G1 X114.388 Y64.370 E0.56733
G1 X114.924 Y64.370 E0.01686
G1 X127.130 Y76.576 E0.54349
G1 X127.130 Y76.041 E0.01686
G1 X115.459 Y64.370 E0.51965
G1 X115.995 Y64.370 E0.01686
G1 X127.130 Y75.505 E0.49581
G1 X127.130 Y74.970 E0.01686
G1 X116.530 Y64.370 E0.47196
G1 X117.065 Y64.370 E0.01686
G1 X127.130 Y74.435 E0.44812
G1 X127.130 Y73.899 E0.01686
G1 X117.601 Y64.370 E0.42428
G1 X118.136 Y64.370 E0.01686
G1 X127.130 Y73.364 E0.40044
G1 X127.130 Y72.828 E0.01686
G1 X118.672 Y64.370 E0.37660
G1 X119.207 Y64.370 E0.01686
G1 X127.130 Y72.293 E0.35276
G1 X127.130 Y71.757 E0.01686
G1 X119.743 Y64.370 E0.32892
G1 X120.278 Y64.370 E0.01686
G1 X127.130 Y71.222 E0.30507
G1 X127.130 Y70.686 E0.01686
G1 X120.814 Y64.370 E0.28123
G1 X121.349 Y64.370 E0.01686
G1 X127.130 Y70.151 E0.25739
G1 X127.130 Y69.615 E0.01686
G1 X121.885 Y64.370 E0.23355
G1 X122.420 Y64.370 E0.01686
G1 X127.130 Y69.080 E0.20971
G1 X127.130 Y68.544 E0.01686
G1 X122.956 Y64.370 E0.18587
G1 X123.491 Y64.370 E0.01686
G1 X127.130 Y68.009 E0.16203
G1 X127.130 Y67.473 E0.01686
G1 X124.027 Y64.370 E0.13818
G1 X124.562 Y64.370 E0.01686
G1 X127.130 Y66.938 E0.11434
G1 X127.130 Y66.402 E0.01686
G1 X125.098 Y64.370 E0.09050
G1 X125.633 Y64.370 E0.01686
G1 X127.130 Y65.867 E0.06666
G1 X127.130 Y65.332 E0.01686
G1 X126.168 Y64.370 E0.04282
G1 X126.704 Y64.370 E0.01686
G1 X127.300 Y64.966 E0.02653
M204 S1250
; stop printing object trafic_lights_box.stl id:0 copy 0
M106 S255
;BEFORE_LAYER_CHANGE
G92 E0.0
;0.35


G1 Z0.350 F9000.000
;AFTER_LAYER_CHANGE
;0.35
M104 S210 ; set temperature
G1 E-3.20000 F4200.00000
G1 Z0.550 F9000.000
G1 X130.375 Y62.341
G1 Z0.350
G1 E3.20000 F2400.00000
G1 X130.576 Y63.227 E0.02197
G1 X130.577 Y116.727 E1.29389
G1 X130.405 Y117.588 E0.02125
G1 X129.932 Y118.329 E0.02125
G1 X129.145 Y118.881 E0.02324
G1 X128.205 Y119.077 E0.02324
G1 X75.773 Y119.077 E1.26805
G1 X74.912 Y118.905 E0.02125
G1 X74.171 Y118.432 E0.02125
G1 X73.619 Y117.645 E0.02324
G1 X73.423 Y116.705 E0.02324
G1 X73.423 Y63.273 E1.29224
G1 X73.595 Y62.412 E0.02125
G1 X74.068 Y61.671 E0.02125
G1 X74.844 Y61.124 E0.02297
G1 X75.768 Y60.923 E0.02288
G1 X128.204 Y60.923 E1.26814
G1 X129.095 Y61.098 E0.02197
G1 X129.856 Y61.595 E0.02197
G1 X130.341 Y62.291 E0.02052
; printing object trafic_lights_box.stl id:0 copy 0
G1 E-2.24000 F4200.00000
G1 F7200.000
G1 X130.576 Y63.227 E-0.53445
G1 X130.576 Y63.908 E-0.37755
G1 E-0.04800 F4200.00000
G1 Z0.550 F9000.000
G1 X127.557 Y63.943
G1 Z0.350
G1 E3.20000 F2400.00000
M204 S800
G1 F3000.000
G1 X127.557 Y116.057 E1.35788
G1 X76.443 Y116.057 E1.33182
G1 X76.443 Y63.943 E1.35788
G1 X127.497 Y63.943 E1.33026
M204 S1250
G1 X127.975 Y63.525 F9000.000
M204 S800
G1 F2400.000
G1 X127.975 Y116.475 E1.37965
G1 X76.025 Y116.475 E1.35360
G1 X76.025 Y63.525 E1.37965
G1 X127.915 Y63.525 E1.35203
M204 S1250
G1 X127.873 Y63.912 F9000.000
G1 E-2.24000 F4200.00000
G1 F7200.000
G1 X127.917 Y65.171 E-0.91200
G1 E-0.04800 F4200.00000
G1 Z0.550 F9000.000
G1 X126.582 Y115.932
G1 Z0.350
G1 E3.20000 F2400.00000
M204 S1000
G1 F8400.000
G1 X127.244 Y115.270 E0.02452
G1 X127.244 Y114.676 E0.01557
G1 X126.176 Y115.744 E0.03958
G1 X125.582 Y115.744 E0.01557
G1 X127.244 Y114.082 E0.06160
G1 X127.244 Y113.487 E0.01557
G1 X124.987 Y115.744 E0.08363
G1 X124.393 Y115.744 E0.01557
G1 X127.244 Y112.893 E0.10565
G1 X127.244 Y112.299 E0.01557
G1 X123.799 Y115.744 E0.12768
G1 X123.204 Y115.744 E0.01557
G1 X127.244 Y111.704 E0.14970
G1 X127.244 Y111.110 E0.01557
