; generated by PrusaSlicer 2.3.3+win64 on 2021-12-08 at 19:22:41 UTC


;
;

;
;
; 

; external perimeters extrusion width = 0.45mm
; perimeters extrusion width = 0.45mm
; infill extrusion width = 0.45mm
; solid infill extrusion width = 0.45mm
; top infill extrusion width = 0.40mm
; first layer extrusion width = 0.42mm

M73 P0 R34
M201 X1250 Y1250 Z400 E5000 ; sets maximum accelerations, mm/sec^2
M203 X180 Y180 Z12 E80 ; sets maximum feedrates, mm/sec
M204 P1250 R1250 T1250 ; sets acceleration (P, T) and retract acceleration (R), mm/sec^2
M205 X8.00 Y8.00 Z2.00 E10.00 ; sets the jerk limits, mm/sec
M205 S0 T0 ; sets the minimum extruding and travel feed rate, mm/sec
M107
;TYPE:Custom
G90 ; use absolute coordinates
M83 ; extruder relative mode
M104 S170 ; set extruder temp for bed leveling
M140 S60 ; set bed temp
M109 R170 ; wait for bed leveling temp
M190 S60 ; wait for bed temp
G28 ; home all without mesh bed level
G29 ; mesh bed leveling 
M104 S215 ; set extruder temp
G92 E0.0
G1 Y-2.0 X179 F2400
G1 Z3 F720
M109 S215 ; wait for extruder temp

; intro line
G1 X170 F1000
G1 Z0.2 F720
G1 X110.0 E8.0 F900
G1 X40.0 E10.0 F700
G92 E0.0

M221 S95 ; set flow
G21 ; set units to millimeters
G90 ; use absolute coordinates
M83 ; use relative distances for extrusion
M900 K0.2 ; Filament gcode LA 1.5
; ; Filament gcode LA 1.0
;LAYER_CHANGE
;Z:0.2
;HEIGHT:0.2
;BEFORE_LAYER_CHANGE
G92 E0.0
;0.2


G1 E-3.20000 F4200.000
G1 Z0.200 F9000.000
;AFTER_LAYER_CHANGE
;0.2
G1 Z0.400
G1 X70.792 Y58.347
G1 Z0.200
G1 E3.20000 F2400.000
M204 S800
;TYPE:Skirt
;WIDTH:0.42
G1 F1200.000
G1 X71.267 Y57.968 E0.01906
G1 X71.823 Y57.721 E0.01906
G1 X72.423 Y57.624 E0.01906
G1 X107.504 Y57.623 E1.09994
G1 X108.392 Y57.797 E0.02837
G1 X109.153 Y58.292 E0.02849
G1 X109.673 Y59.037 E0.02849
G1 X109.876 Y59.923 E0.02849
G1 X109.877 Y120.011 E1.88404
M73 P1 R34
G1 X109.798 Y120.606 E0.01882
G1 X109.573 Y121.163 E0.01882
G1 X109.205 Y121.656 E0.01929
G1 X108.723 Y122.038 E0.01929
G1 X108.159 Y122.284 E0.01929
G1 X107.554 Y122.376 E0.01917
G1 X72.481 Y122.377 E1.09970
G1 X71.890 Y122.297 E0.01870
G1 X71.337 Y122.073 E0.01870
G1 X70.841 Y121.703 E0.01941
G1 X70.458 Y121.217 E0.01941
G1 X70.213 Y120.648 E0.01941
G1 X70.123 Y120.035 E0.01941
G1 X70.123 Y59.989 E1.88272
G1 X70.202 Y59.394 E0.01882
G1 X70.427 Y58.837 E0.01882
G1 X70.756 Y58.395 E0.01729
M204 S1250
; printing object Trafic_Lights_Netta_PCB_small_leds_holder_back.stl id:0 copy 0
G1 E-2.24000 F4200.000
;WIPE_START
G1 F7200.000
G1 X71.267 Y57.968 E-0.36906
G1 X71.823 Y57.721 E-0.33681
G1 X72.190 Y57.662 E-0.20613
;WIPE_END
G1 E-0.04800 F4200.000
G1 Z0.400 F9000.000
G1 X103.028 Y114.316
G1 Z0.200
G1 E3.20000 F2400.000
M204 S800
;TYPE:Perimeter
G1 F1200.000
G1 X103.502 Y114.162 E0.01564
G1 X103.962 Y114.112 E0.01451
G1 X104.262 Y114.125 E0.00942
G1 X104.739 Y114.226 E0.01527
G1 X105.195 Y114.430 E0.01567
G1 X105.600 Y114.723 E0.01567
G1 X105.934 Y115.095 E0.01567
G1 X106.184 Y115.528 E0.01567
G1 X106.338 Y116.003 E0.01567
G1 X106.391 Y116.500 E0.01567
G1 X106.338 Y116.997 E0.01567
G1 X106.184 Y117.472 E0.01567
G1 X105.934 Y117.905 E0.01567
G1 X105.600 Y118.277 E0.01567
G1 X105.195 Y118.570 E0.01567
G1 X104.753 Y118.767 E0.01518
G1 X104.482 Y118.840 E0.00881
G1 X104.000 Y118.891 E0.01518
G1 X103.518 Y118.840 E0.01518
G1 X103.247 Y118.767 E0.00881
G1 X102.805 Y118.570 E0.01518
G1 X102.400 Y118.277 E0.01567
G1 X102.066 Y117.905 E0.01567
G1 X101.816 Y117.472 E0.01567
G1 X101.662 Y116.997 E0.01567
G1 X101.609 Y116.500 E0.01567
G1 X101.662 Y116.003 E0.01567
G1 X101.816 Y115.528 E0.01567
G1 X102.058 Y115.108 E0.01518
G1 X102.235 Y114.890 E0.00881
G1 X102.595 Y114.566 E0.01518
G1 X102.976 Y114.346 E0.01379
M204 S1250
G1 X103.164 Y114.673 F9000.000
M204 S800
;TYPE:External perimeter
G1 F1200.000
G1 X103.582 Y114.533 E0.01380
G1 X103.974 Y114.490 E0.01239
G1 X104.215 Y114.501 E0.00754
G1 X104.622 Y114.587 E0.01304
G1 X105.006 Y114.758 E0.01318
G1 X105.346 Y115.005 E0.01318
G1 X105.627 Y115.318 E0.01318
G1 X105.838 Y115.682 E0.01318
G1 X105.967 Y116.082 E0.01318
G1 X106.011 Y116.500 E0.01318
G1 X105.967 Y116.918 E0.01318
G1 X105.838 Y117.318 E0.01318
G1 X105.627 Y117.682 E0.01318
G1 X105.346 Y117.995 E0.01318
G1 X105.006 Y118.242 E0.01318
G1 X104.627 Y118.411 E0.01301
G1 X104.413 Y118.468 E0.00694
G1 X104.000 Y118.511 E0.01301
G1 X103.587 Y118.468 E0.01301
G1 X103.373 Y118.411 E0.00694
G1 X102.994 Y118.242 E0.01301
G1 X102.654 Y117.995 E0.01318
G1 X102.373 Y117.682 E0.01318
G1 X102.162 Y117.318 E0.01318
G1 X102.033 Y116.918 E0.01318
G1 X101.989 Y116.500 E0.01318
G1 X102.033 Y116.082 E0.01318
G1 X102.162 Y115.682 E0.01318
G1 X102.370 Y115.323 E0.01301
G1 X102.509 Y115.150 E0.00694
G1 X102.818 Y114.873 E0.01301
G1 X103.112 Y114.703 E0.01066
M204 S1250
G1 X103.203 Y114.275 F9000.000
G1 E-2.24000 F4200.000
;WIPE_START
G1 F7200.000
G1 X103.582 Y114.533 E-0.27658
G1 X103.974 Y114.490 E-0.21897
G1 X104.215 Y114.501 E-0.13330
G1 X104.622 Y114.587 E-0.23052
G1 X104.708 Y114.626 E-0.05263
;WIPE_END
G1 E-0.04800 F4200.000
G1 Z0.400 F9000.000
G1 X106.336 Y117.963
G1 Z0.200
G1 E3.20000 F2400.000
M204 S800
;TYPE:Perimeter
G1 F1200.000
G1 X106.336 Y118.836 E0.02736
G1 X105.471 Y118.836 E0.02711
G1 X105.853 Y118.558 E0.01480
G1 X106.241 Y118.128 E0.01816
G1 X106.306 Y118.015 E0.00408
M204 S1250
G1 E-2.24000 F4200.000
;WIPE_START
G1 F7200.000
G1 X106.336 Y118.836 E-0.45502
G1 X105.511 Y118.836 E-0.45698
;WIPE_END
G1 E-0.04800 F4200.000
G1 Z0.400 F9000.000
G1 X78.391 Y116.500
G1 Z0.200
G1 E3.20000 F2400.000
M204 S800
G1 F1200.000
G1 X78.338 Y116.997 E0.01567
G1 X78.184 Y117.472 E0.01567
G1 X77.934 Y117.905 E0.01567
G1 X77.600 Y118.277 E0.01567
G1 X77.196 Y118.570 E0.01564
G1 X76.774 Y118.759 E0.01451
G1 X76.484 Y118.840 E0.00942
G1 X76.000 Y118.891 E0.01527
G1 X75.518 Y118.840 E0.01518
G1 X75.247 Y118.767 E0.00881
G1 X74.805 Y118.570 E0.01518
G1 X74.400 Y118.277 E0.01567
G1 X74.066 Y117.905 E0.01567
G1 X73.816 Y117.472 E0.01567
G1 X73.662 Y116.997 E0.01567
G1 X73.609 Y116.500 E0.01567
G1 X73.662 Y116.003 E0.01567
G1 X73.816 Y115.528 E0.01567
G1 X74.058 Y115.108 E0.01518
G1 X74.235 Y114.890 E0.00881
G1 X74.595 Y114.566 E0.01518
G1 X75.028 Y114.316 E0.01567
G1 X75.502 Y114.162 E0.01564
G1 X75.962 Y114.112 E0.01451
G1 X76.262 Y114.125 E0.00942
G1 X76.739 Y114.226 E0.01527
G1 X77.195 Y114.430 E0.01567
G1 X77.600 Y114.723 E0.01567
G1 X77.934 Y115.095 E0.01567
G1 X78.184 Y115.528 E0.01567
G1 X78.338 Y116.003 E0.01567
G1 X78.384 Y116.440 E0.01379
M204 S1250
G1 X78.009 Y116.480 F9000.000
M204 S800
;TYPE:External perimeter
G1 F1200.000
G1 X77.967 Y116.918 E0.01381
G1 X77.838 Y117.318 E0.01318
G1 X77.627 Y117.682 E0.01318
G1 X77.346 Y117.995 E0.01318
G1 X77.006 Y118.242 E0.01318
G1 X76.645 Y118.403 E0.01239
G1 X76.414 Y118.468 E0.00754
G1 X76.000 Y118.511 E0.01304
G1 X75.587 Y118.468 E0.01301
G1 X75.373 Y118.411 E0.00694
G1 X74.994 Y118.242 E0.01301
G1 X74.654 Y117.995 E0.01318
G1 X74.373 Y117.682 E0.01318
G1 X74.162 Y117.318 E0.01318
G1 X74.033 Y116.918 E0.01318
G1 X73.989 Y116.500 E0.01318
G1 X74.033 Y116.082 E0.01318
G1 X74.162 Y115.682 E0.01318
G1 X74.370 Y115.323 E0.01301
G1 X74.509 Y115.150 E0.00694
G1 X74.818 Y114.873 E0.01301
G1 X75.182 Y114.662 E0.01318
G1 X75.582 Y114.533 E0.01318
G1 X75.974 Y114.490 E0.01239
G1 X76.215 Y114.501 E0.00754
G1 X76.622 Y114.587 E0.01304
G1 X77.006 Y114.758 E0.01318
G1 X77.346 Y115.005 E0.01318
G1 X77.627 Y115.318 E0.01318
G1 X77.838 Y115.682 E0.01318
G1 X77.967 Y116.082 E0.01318
G1 X78.003 Y116.420 E0.01066
M204 S1250
G1 X78.357 Y116.677 F9000.000
G1 E-2.24000 F4200.000
;WIPE_START
G1 F7200.000
G1 X77.967 Y116.918 E-0.27675
G1 X77.838 Y117.318 E-0.23303
G1 X77.627 Y117.682 E-0.23303
G1 X77.423 Y117.909 E-0.16919
;WIPE_END
G1 E-0.04800 F4200.000
G1 Z0.400 F9000.000
G1 X74.529 Y118.836
G1 Z0.200
G1 E3.20000 F2400.000
M204 S800
;TYPE:Perimeter
G1 F1200.000
G1 X73.664 Y118.836 E0.02711
G1 X73.664 Y117.963 E0.02736
G1 X73.759 Y118.128 E0.00596
G1 X74.147 Y118.558 E0.01816
G1 X74.480 Y118.801 E0.01292
M204 S1250
G1 E-2.24000 F4200.000
;WIPE_START
G1 F7200.000
G1 X73.664 Y118.836 E-0.45260
G1 X73.664 Y118.007 E-0.45940
;WIPE_END
G1 E-0.04800 F4200.000
G1 Z0.400 F9000.000
G1 X73.664 Y62.037
G1 Z0.200
G1 E3.20000 F2400.000
M204 S800
G1 F1200.000
G1 X73.664 Y61.164 E0.02736
G1 X74.537 Y61.164 E0.02736
G1 X74.372 Y61.259 E0.00596
G1 X73.961 Y61.630 E0.01736
G1 X73.747 Y61.894 E0.01067
G1 X73.694 Y61.985 E0.00328
M204 S1250
G1 X73.816 Y62.528 F9000.000
M204 S800
G1 F1200.000
G1 X74.058 Y62.108 E0.01518
G1 X74.235 Y61.890 E0.00881
G1 X74.595 Y61.566 E0.01518
G1 X75.028 Y61.316 E0.01567
G1 X75.502 Y61.162 E0.01564
G1 X75.962 Y61.112 E0.01451
G1 X76.262 Y61.125 E0.00942
G1 X76.739 Y61.226 E0.01527
G1 X77.195 Y61.430 E0.01567
G1 X77.600 Y61.723 E0.01567
G1 X77.934 Y62.095 E0.01567
G1 X78.184 Y62.528 E0.01567
G1 X78.338 Y63.003 E0.01567
G1 X78.391 Y63.500 E0.01567
G1 X78.338 Y63.997 E0.01567
G1 X78.184 Y64.472 E0.01567
G1 X77.942 Y64.892 E0.01518
G1 X77.765 Y65.110 E0.00881
G1 X77.405 Y65.434 E0.01518
G1 X76.972 Y65.684 E0.01567
G1 X76.497 Y65.838 E0.01567
G1 X76.000 Y65.891 E0.01567
G1 X75.503 Y65.838 E0.01567
G1 X75.028 Y65.684 E0.01567
G1 X74.595 Y65.434 E0.01567
G1 X74.235 Y65.110 E0.01518
G1 X74.058 Y64.892 E0.00881
G1 X73.816 Y64.472 E0.01518
G1 X73.662 Y63.997 E0.01567
G1 X73.609 Y63.500 E0.01567
G1 X73.662 Y63.003 E0.01567
G1 X73.798 Y62.585 E0.01379
M204 S1250
G1 X74.156 Y62.701 F9000.000
M204 S800
;TYPE:External perimeter
G1 F1200.000
G1 X74.370 Y62.323 E0.01364
G1 X74.509 Y62.150 E0.00694
G1 X74.818 Y61.873 E0.01301
G1 X75.182 Y61.662 E0.01318
G1 X75.582 Y61.533 E0.01318
G1 X75.974 Y61.490 E0.01239
G1 X76.215 Y61.501 E0.00754
G1 X76.622 Y61.587 E0.01304
G1 X77.006 Y61.758 E0.01318
G1 X77.346 Y62.005 E0.01318
G1 X77.627 Y62.318 E0.01318
G1 X77.838 Y62.682 E0.01318
G1 X77.967 Y63.082 E0.01318
G1 X78.011 Y63.500 E0.01318
G1 X77.967 Y63.918 E0.01318
G1 X77.838 Y64.318 E0.01318
G1 X77.630 Y64.677 E0.01301
G1 X77.491 Y64.850 E0.00694
G1 X77.182 Y65.127 E0.01301
G1 X76.818 Y65.338 E0.01318
G1 X76.418 Y65.467 E0.01318
G1 X76.000 Y65.511 E0.01318
G1 X75.582 Y65.467 E0.01318
G1 X75.182 Y65.338 E0.01318
G1 X74.818 Y65.127 E0.01318
G1 X74.509 Y64.850 E0.01301
G1 X74.370 Y64.677 E0.00694
G1 X74.162 Y64.318 E0.01301
G1 X74.033 Y63.918 E0.01318
G1 X73.989 Y63.500 E0.01318
G1 X74.033 Y63.082 E0.01318
G1 X74.138 Y62.758 E0.01066
M204 S1250
G1 X73.919 Y62.379 F9000.000
G1 E-2.24000 F4200.000
;WIPE_START
G1 F7200.000
G1 X74.370 Y62.323 E-0.27368
G1 X74.509 Y62.150 E-0.12274
G1 X74.818 Y61.873 E-0.22996
G1 X75.182 Y61.662 E-0.23303
G1 X75.272 Y61.633 E-0.05259
;WIPE_END
G1 E-0.04800 F4200.000
G1 Z0.400 F9000.000
G1 X73.664 Y64.963
G1 Z0.200
G1 E3.20000 F2400.000
M204 S800
;TYPE:Perimeter
G1 F1200.000
G1 X73.747 Y65.106 E0.00516
G1 X73.961 Y65.370 E0.01067
G1 X74.372 Y65.741 E0.01736
G1 X74.873 Y66.030 E0.01816
G1 X75.424 Y66.209 E0.01816
G1 X76.000 Y66.270 E0.01816
G1 X76.576 Y66.209 E0.01816
G1 X77.127 Y66.030 E0.01816
G1 X77.628 Y65.741 E0.01816
G1 X78.039 Y65.370 E0.01736
G1 X78.253 Y65.106 E0.01067
G1 X78.530 Y64.627 E0.01736
G1 X78.709 Y64.076 E0.01816
G1 X78.770 Y63.500 E0.01816
G1 X78.709 Y62.924 E0.01816
G1 X78.530 Y62.373 E0.01816
G1 X78.241 Y61.872 E0.01816
G1 X77.853 Y61.442 E0.01816
G1 X77.471 Y61.164 E0.01480
G1 X102.537 Y61.164 E0.78591
G1 X102.372 Y61.259 E0.00596
G1 X101.961 Y61.630 E0.01736
G1 X101.746 Y61.894 E0.01067
G1 X101.470 Y62.373 E0.01736
G1 X101.291 Y62.924 E0.01816
G1 X101.230 Y63.500 E0.01816
G1 X101.291 Y64.076 E0.01816
G1 X101.470 Y64.627 E0.01816
G1 X101.759 Y65.128 E0.01816
G1 X102.147 Y65.558 E0.01816
G1 X102.595 Y65.884 E0.01736
G1 X102.898 Y66.038 E0.01067
G1 X103.424 Y66.209 E0.01736
G1 X104.000 Y66.270 E0.01816
G1 X104.551 Y66.212 E0.01736
G1 X104.879 Y66.124 E0.01067
G1 X105.385 Y65.899 E0.01736
G1 X105.853 Y65.558 E0.01816
G1 X106.241 Y65.128 E0.01816
G1 X106.336 Y64.963 E0.00596
G1 X106.336 Y115.037 E1.57001
G1 X106.241 Y114.872 E0.00596
G1 X105.853 Y114.442 E0.01816
G1 X105.385 Y114.101 E0.01816
G1 X104.856 Y113.866 E0.01816
G1 X104.310 Y113.750 E0.01750
G1 X103.950 Y113.734 E0.01130
G1 X103.423 Y113.791 E0.01662
G1 X102.873 Y113.970 E0.01811
G1 X102.372 Y114.259 E0.01816
G1 X101.961 Y114.630 E0.01736
G1 X101.746 Y114.894 E0.01067
G1 X101.470 Y115.373 E0.01736
G1 X101.291 Y115.924 E0.01816
G1 X101.230 Y116.500 E0.01816
G1 X101.291 Y117.076 E0.01816
G1 X101.470 Y117.627 E0.01816
G1 X101.759 Y118.128 E0.01816
G1 X102.147 Y118.558 E0.01816
G1 X102.529 Y118.836 E0.01480
G1 X77.471 Y118.836 E0.78565
M73 P2 R34
G1 X77.853 Y118.558 E0.01480
G1 X78.241 Y118.128 E0.01816
G1 X78.530 Y117.627 E0.01816
G1 X78.709 Y117.076 E0.01816
G1 X78.770 Y116.500 E0.01816
G1 X78.709 Y115.924 E0.01816
G1 X78.530 Y115.373 E0.01816
G1 X78.241 Y114.872 E0.01816
G1 X77.853 Y114.442 E0.01816
G1 X77.385 Y114.101 E0.01816
G1 X76.856 Y113.866 E0.01816
G1 X76.310 Y113.750 E0.01750
G1 X75.950 Y113.734 E0.01130
G1 X75.423 Y113.791 E0.01662
G1 X74.873 Y113.970 E0.01811
G1 X74.372 Y114.259 E0.01816
G1 X73.961 Y114.630 E0.01736
G1 X73.747 Y114.894 E0.01067
G1 X73.664 Y115.037 E0.00516
G1 X73.664 Y65.023 E1.56813
M204 S1250
G1 E-2.24000 F4200.000
;WIPE_START
G1 F7200.000
G1 X73.747 Y65.106 E-0.06464
G1 X73.961 Y65.370 E-0.18853
G1 X74.372 Y65.741 E-0.30678
G1 X74.873 Y66.030 E-0.32088
G1 X74.927 Y66.048 E-0.03117
;WIPE_END
G1 E-0.04800 F4200.000
G1 Z0.400 F9000.000
G1 X101.609 Y63.500
G1 Z0.200
G1 E3.20000 F2400.000
M204 S800
G1 F1200.000
G1 X101.662 Y63.003 E0.01567
G1 X101.816 Y62.528 E0.01567
G1 X102.058 Y62.108 E0.01518
G1 X102.235 Y61.890 E0.00881
G1 X102.595 Y61.566 E0.01518
G1 X103.028 Y61.316 E0.01567
G1 X103.502 Y61.162 E0.01564
G1 X103.962 Y61.112 E0.01451
G1 X104.262 Y61.125 E0.00942
G1 X104.739 Y61.226 E0.01527
G1 X105.195 Y61.430 E0.01567
G1 X105.600 Y61.723 E0.01567
G1 X105.934 Y62.095 E0.01567
G1 X106.184 Y62.528 E0.01567
G1 X106.338 Y63.003 E0.01567
G1 X106.391 Y63.500 E0.01567
G1 X106.338 Y63.997 E0.01567
G1 X106.184 Y64.472 E0.01567
G1 X105.934 Y64.905 E0.01567
G1 X105.600 Y65.277 E0.01567
G1 X105.195 Y65.570 E0.01567
G1 X104.753 Y65.767 E0.01518
G1 X104.482 Y65.840 E0.00881
G1 X104.000 Y65.891 E0.01518
G1 X103.503 Y65.838 E0.01567
G1 X103.042 Y65.689 E0.01518
G1 X102.792 Y65.561 E0.00881
G1 X102.400 Y65.277 E0.01518
G1 X102.066 Y64.905 E0.01567
G1 X101.816 Y64.472 E0.01567
G1 X101.662 Y63.997 E0.01567
G1 X101.616 Y63.560 E0.01379
M204 S1250
G1 X101.991 Y63.520 F9000.000
M204 S800
;TYPE:External perimeter
G1 F1200.000
G1 X102.033 Y63.082 E0.01381
G1 X102.162 Y62.682 E0.01318
G1 X102.370 Y62.323 E0.01301
G1 X102.509 Y62.150 E0.00694
G1 X102.818 Y61.873 E0.01301
G1 X103.182 Y61.662 E0.01318
G1 X103.582 Y61.533 E0.01318
G1 X103.974 Y61.490 E0.01239
G1 X104.215 Y61.501 E0.00754
G1 X104.622 Y61.587 E0.01304
G1 X105.006 Y61.758 E0.01318
G1 X105.346 Y62.005 E0.01318
G1 X105.627 Y62.318 E0.01318
G1 X105.838 Y62.682 E0.01318
G1 X105.967 Y63.082 E0.01318
G1 X106.011 Y63.500 E0.01318
G1 X105.967 Y63.918 E0.01318
G1 X105.838 Y64.318 E0.01318
G1 X105.627 Y64.682 E0.01318
G1 X105.346 Y64.995 E0.01318
G1 X105.006 Y65.242 E0.01318
G1 X104.627 Y65.411 E0.01301
G1 X104.413 Y65.468 E0.00694
G1 X104.000 Y65.511 E0.01301
G1 X103.582 Y65.467 E0.01318
G1 X103.187 Y65.339 E0.01301
G1 X102.990 Y65.239 E0.00694
G1 X102.654 Y64.995 E0.01301
G1 X102.373 Y64.682 E0.01318
G1 X102.162 Y64.318 E0.01318
G1 X102.033 Y63.918 E0.01318
G1 X101.997 Y63.580 E0.01066
M204 S1250
G1 X101.643 Y63.323 F9000.000
G1 E-2.24000 F4200.000
;WIPE_START
G1 F7200.000
G1 X102.033 Y63.082 E-0.27675
G1 X102.162 Y62.682 E-0.23303
G1 X102.370 Y62.323 E-0.22996
G1 X102.509 Y62.150 E-0.12274
G1 X102.576 Y62.091 E-0.04952
;WIPE_END
G1 E-0.04800 F4200.000
G1 Z0.400 F9000.000
G1 X105.471 Y61.164
G1 Z0.200
G1 E3.20000 F2400.000
M204 S800
;TYPE:Perimeter
G1 F1200.000
G1 X106.336 Y61.164 E0.02711
G1 X106.336 Y62.037 E0.02736
G1 X106.241 Y61.872 E0.00596
G1 X105.853 Y61.442 E0.01816
G1 X105.520 Y61.199 E0.01292
M204 S1250
G1 X106.713 Y60.787 F9000.000
M204 S800
G1 F1200.000
G1 X106.713 Y119.213 E1.83190
G1 X73.287 Y119.213 E1.04804
