; generated by PrusaSlicer 2.3.3+win64 on 2021-12-11 at 06:41:41 UTC


;
;

;
;
; 

; external perimeters extrusion width = 0.45mm
; perimeters extrusion width = 0.45mm
; infill extrusion width = 0.45mm
; solid infill extrusion width = 0.45mm
; top infill extrusion width = 0.40mm
; first layer extrusion width = 0.42mm

M73 P0 R138
M201 X1250 Y1250 Z400 E5000 ; sets maximum accelerations, mm/sec^2
M203 X180 Y180 Z12 E80 ; sets maximum feedrates, mm/sec
M204 P1250 R1250 T1250 ; sets acceleration (P, T) and retract acceleration (R), mm/sec^2
M205 X8.00 Y8.00 Z2.00 E10.00 ; sets the jerk limits, mm/sec
M205 S0 T0 ; sets the minimum extruding and travel feed rate, mm/sec
M107
;TYPE:Custom
G90 ; use absolute coordinates
M83 ; extruder relative mode
M104 S170 ; set extruder temp for bed leveling
M140 S60 ; set bed temp
M109 R170 ; wait for bed leveling temp
M190 S60 ; wait for bed temp
G28 ; home all without mesh bed level
G29 ; mesh bed leveling 
M104 S215 ; set extruder temp
G92 E0.0
G1 Y-2.0 X179 F2400
G1 Z3 F720
M109 S215 ; wait for extruder temp

; intro line
G1 X170 F1000
G1 Z0.2 F720
G1 X110.0 E8.0 F900
G1 X40.0 E10.0 F700
G92 E0.0

M221 S95 ; set flow
G21 ; set units to millimeters
G90 ; use absolute coordinates
M83 ; use relative distances for extrusion
M900 K0.2 ; Filament gcode LA 1.5
; ; Filament gcode LA 1.0
;LAYER_CHANGE
;Z:0.2
;HEIGHT:0.2
;BEFORE_LAYER_CHANGE
G92 E0.0
;0.2


G1 E-3.20000 F4200.000
G1 Z0.200 F9000.000
;AFTER_LAYER_CHANGE
;0.2
G1 Z0.400
G1 X43.764 Y70.470
G1 Z0.200
G1 E3.20000 F2400.000
M204 S800
;TYPE:Skirt
;WIDTH:0.42
G1 F1200.000
G1 X44.533 Y70.169 E0.02590
G1 X132.544 Y52.667 E2.81354
G1 X135.004 Y52.623 E0.07714
G1 X135.906 Y52.802 E0.02884
G1 X136.670 Y53.308 E0.02872
G1 X137.185 Y54.065 E0.02872
G1 X137.377 Y54.961 E0.02872
G1 X137.377 Y125.038 E2.19722
G1 X137.292 Y125.629 E0.01870
G1 X137.062 Y126.183 E0.01882
G1 X136.703 Y126.659 E0.01870
G1 X136.236 Y127.030 E0.01870
G1 X135.735 Y127.260 E0.01728
G1 X135.195 Y127.369 E0.01728
G1 X132.542 Y127.333 E0.08319
G1 X44.518 Y109.828 E2.81398
G1 X43.633 Y109.444 E0.03024
G1 X42.971 Y108.738 E0.03036
G1 X42.714 Y108.153 E0.02000
G1 X42.623 Y107.522 E0.02000
G1 X42.623 Y72.450 E1.09964
G1 X42.711 Y71.860 E0.01870
G1 X42.940 Y71.314 E0.01858
G1 X43.300 Y70.838 E0.01870
G1 X43.717 Y70.507 E0.01670
M204 S1250
; printing object Trafic_Lights_Netta_PCB_small_leds_v2.stl id:0 copy 0
G1 E-2.24000 F4200.000
;WIPE_START
G1 F7200.000
G1 X44.533 Y70.169 E-0.48969
G1 X45.281 Y70.021 E-0.42231
;WIPE_END
G1 E-0.04800 F4200.000
G1 Z0.400 F9000.000
G1 X99.430 Y102.805
M73 P0 R137
G1 Z0.200
G1 E3.20000 F2400.000
M204 S800
;TYPE:Perimeter
G1 F1200.000
G1 X99.723 Y102.400 E0.01567
G1 X100.095 Y102.066 E0.01567
G1 X100.528 Y101.816 E0.01567
G1 X100.991 Y101.666 E0.01527
G1 X101.288 Y101.621 E0.00942
G1 X101.751 Y101.623 E0.01451
G1 X102.239 Y101.726 E0.01564
G1 X102.695 Y101.930 E0.01567
G1 X103.100 Y102.223 E0.01567
G1 X103.434 Y102.595 E0.01567
G1 X103.684 Y103.027 E0.01564
G1 X103.828 Y103.467 E0.01451
G1 X103.877 Y103.763 E0.00942
G1 X103.877 Y104.250 E0.01527
G1 X103.774 Y104.739 E0.01567
G1 X103.570 Y105.195 E0.01567
G1 X103.277 Y105.600 E0.01567
G1 X102.905 Y105.934 E0.01567
G1 X102.472 Y106.184 E0.01567
G1 X102.012 Y106.334 E0.01518
G1 X101.734 Y106.377 E0.00881
G1 X101.250 Y106.377 E0.01518
G1 X100.761 Y106.274 E0.01567
G1 X100.305 Y106.070 E0.01567
G1 X99.900 Y105.777 E0.01567
G1 X99.566 Y105.405 E0.01567
G1 X99.317 Y104.973 E0.01564
G1 X99.172 Y104.533 E0.01451
G1 X99.123 Y104.237 E0.00942
G1 X99.123 Y103.750 E0.01527
G1 X99.226 Y103.261 E0.01567
G1 X99.405 Y102.860 E0.01379
M204 S1250
G1 X99.750 Y103.013 F9000.000
M204 S800
;TYPE:External perimeter
G1 F1200.000
G1 X100.005 Y102.654 E0.01381
G1 X100.318 Y102.373 E0.01318
G1 X100.682 Y102.162 E0.01318
G1 X101.077 Y102.034 E0.01304
G1 X101.315 Y101.999 E0.00754
G1 X101.711 Y102.000 E0.01239
G1 X102.122 Y102.087 E0.01318
G1 X102.506 Y102.258 E0.01318
G1 X102.846 Y102.505 E0.01318
G1 X103.127 Y102.818 E0.01318
G1 X103.337 Y103.182 E0.01318
G1 X103.461 Y103.557 E0.01239
G1 X103.500 Y103.794 E0.00754
G1 X103.500 Y104.210 E0.01304
G1 X103.413 Y104.622 E0.01318
G1 X103.242 Y105.006 E0.01318
G1 X102.995 Y105.346 E0.01318
G1 X102.682 Y105.627 E0.01318
G1 X102.318 Y105.838 E0.01318
G1 X101.923 Y105.966 E0.01301
G1 X101.705 Y106.000 E0.00694
G1 X101.290 Y106.000 E0.01301
G1 X100.878 Y105.913 E0.01318
G1 X100.494 Y105.742 E0.01318
G1 X100.154 Y105.495 E0.01318
G1 X99.873 Y105.182 E0.01318
G1 X99.663 Y104.818 E0.01318
G1 X99.539 Y104.443 E0.01239
G1 X99.500 Y104.206 E0.00754
G1 X99.500 Y103.790 E0.01304
G1 X99.587 Y103.378 E0.01318
G1 X99.725 Y103.068 E0.01066
M204 S1250
G1 X99.547 Y102.668 F9000.000
G1 E-2.24000 F4200.000
;WIPE_START
G1 F7200.000
G1 X100.005 Y102.654 E-0.27675
G1 X100.318 Y102.373 E-0.23303
G1 X100.682 Y102.162 E-0.23303
G1 X100.972 Y102.068 E-0.16919
;WIPE_END
G1 E-0.04800 F4200.000
G1 Z0.400 F9000.000
G1 X101.250 Y78.377
G1 Z0.200
G1 E3.20000 F2400.000
M204 S800
;TYPE:Perimeter
G1 F1200.000
G1 X100.761 Y78.274 E0.01567
G1 X100.305 Y78.070 E0.01567
G1 X99.900 Y77.777 E0.01567
G1 X99.566 Y77.405 E0.01567
G1 X99.316 Y76.972 E0.01567
G1 X99.166 Y76.512 E0.01518
G1 X99.123 Y76.234 E0.00881
G1 X99.123 Y75.750 E0.01518
G1 X99.226 Y75.261 E0.01567
G1 X99.430 Y74.805 E0.01567
G1 X99.723 Y74.400 E0.01567
G1 X100.095 Y74.066 E0.01567
G1 X100.528 Y73.816 E0.01567
G1 X100.991 Y73.666 E0.01527
G1 X101.288 Y73.621 E0.00942
G1 X101.751 Y73.623 E0.01451
G1 X102.239 Y73.726 E0.01564
G1 X102.695 Y73.930 E0.01567
G1 X103.100 Y74.223 E0.01567
G1 X103.434 Y74.595 E0.01567
G1 X103.684 Y75.027 E0.01564
G1 X103.828 Y75.467 E0.01451
G1 X103.877 Y75.763 E0.00942
G1 X103.877 Y76.250 E0.01527
G1 X103.774 Y76.739 E0.01567
G1 X103.570 Y77.195 E0.01567
G1 X103.277 Y77.600 E0.01567
G1 X102.905 Y77.934 E0.01567
G1 X102.472 Y78.184 E0.01567
G1 X102.012 Y78.334 E0.01518
G1 X101.734 Y78.377 E0.00881
G1 X101.310 Y78.377 E0.01330
M204 S1250
G1 X101.310 Y78.000 F9000.000
M204 S800
;TYPE:External perimeter
G1 F1200.000
G1 X100.878 Y77.913 E0.01381
G1 X100.494 Y77.742 E0.01318
G1 X100.154 Y77.495 E0.01318
G1 X99.873 Y77.182 E0.01318
G1 X99.662 Y76.818 E0.01318
G1 X99.534 Y76.423 E0.01301
G1 X99.500 Y76.205 E0.00694
G1 X99.500 Y75.790 E0.01301
G1 X99.587 Y75.378 E0.01318
G1 X99.758 Y74.994 E0.01318
G1 X100.005 Y74.654 E0.01318
G1 X100.318 Y74.373 E0.01318
G1 X100.682 Y74.162 E0.01318
G1 X101.077 Y74.034 E0.01304
G1 X101.315 Y73.999 E0.00754
G1 X101.711 Y74.000 E0.01239
G1 X102.122 Y74.087 E0.01318
G1 X102.506 Y74.258 E0.01318
G1 X102.846 Y74.505 E0.01318
G1 X103.127 Y74.818 E0.01318
G1 X103.337 Y75.182 E0.01318
G1 X103.461 Y75.557 E0.01239
G1 X103.500 Y75.794 E0.00754
G1 X103.500 Y76.210 E0.01304
G1 X103.413 Y76.622 E0.01318
G1 X103.242 Y77.006 E0.01318
G1 X102.995 Y77.346 E0.01318
G1 X102.682 Y77.627 E0.01318
G1 X102.318 Y77.838 E0.01318
G1 X101.923 Y77.966 E0.01301
G1 X101.705 Y78.000 E0.00694
G1 X101.370 Y78.000 E0.01049
M204 S1250
G1 X101.072 Y78.322 F9000.000
G1 E-2.24000 F4200.000
;WIPE_START
G1 F7200.000
G1 X100.878 Y77.913 E-0.27675
G1 X100.494 Y77.742 E-0.23303
G1 X100.154 Y77.495 E-0.23303
G1 X99.950 Y77.268 E-0.16919
;WIPE_END
G1 E-0.04800 F4200.000
G1 Z0.400 F9000.000
G1 X50.877 Y76.250
G1 Z0.200
G1 E3.20000 F2400.000
M204 S800
;TYPE:Perimeter
G1 F1200.000
G1 X50.774 Y76.739 E0.01567
G1 X50.570 Y77.195 E0.01567
G1 X50.277 Y77.600 E0.01567
G1 X49.915 Y77.926 E0.01527
G1 X49.661 Y78.087 E0.00942
G1 X49.238 Y78.274 E0.01451
G1 X48.750 Y78.377 E0.01564
G1 X48.250 Y78.377 E0.01567
G1 X47.761 Y78.274 E0.01567
G1 X47.305 Y78.070 E0.01567
G1 X46.900 Y77.777 E0.01567
G1 X46.576 Y77.417 E0.01518
G1 X46.423 Y77.181 E0.00881
G1 X46.226 Y76.739 E0.01518
G1 X46.123 Y76.250 E0.01567
G1 X46.123 Y75.750 E0.01567
G1 X46.226 Y75.261 E0.01567
G1 X46.430 Y74.805 E0.01567
G1 X46.723 Y74.400 E0.01567
G1 X47.095 Y74.066 E0.01567
G1 X47.528 Y73.816 E0.01567
G1 X47.991 Y73.666 E0.01527
G1 X48.288 Y73.621 E0.00942
G1 X48.751 Y73.623 E0.01451
G1 X49.239 Y73.726 E0.01564
G1 X49.695 Y73.930 E0.01567
G1 X50.087 Y74.214 E0.01518
G1 X50.286 Y74.413 E0.00881
G1 X50.570 Y74.805 E0.01518
G1 X50.774 Y75.261 E0.01567
G1 X50.877 Y75.750 E0.01567
G1 X50.877 Y76.190 E0.01379
M204 S1250
G1 X50.500 Y76.190 F9000.000
M204 S800
;TYPE:External perimeter
G1 F1200.000
G1 X50.413 Y76.622 E0.01381
G1 X50.242 Y77.006 E0.01318
G1 X49.995 Y77.346 E0.01318
G1 X49.686 Y77.624 E0.01304
G1 X49.483 Y77.753 E0.00754
G1 X49.121 Y77.913 E0.01239
G1 X48.710 Y78.000 E0.01318
G1 X48.290 Y78.000 E0.01318
G1 X47.878 Y77.913 E0.01318
G1 X47.494 Y77.742 E0.01318
G1 X47.154 Y77.495 E0.01318
G1 X46.876 Y77.186 E0.01301
G1 X46.756 Y77.001 E0.00694
G1 X46.587 Y76.622 E0.01301
G1 X46.500 Y76.210 E0.01318
G1 X46.500 Y75.790 E0.01318
G1 X46.587 Y75.378 E0.01318
G1 X46.758 Y74.994 E0.01318
G1 X47.005 Y74.654 E0.01318
G1 X47.318 Y74.373 E0.01318
G1 X47.682 Y74.162 E0.01318
G1 X48.077 Y74.034 E0.01304
G1 X48.315 Y73.999 E0.00754
G1 X48.711 Y74.000 E0.01239
G1 X49.122 Y74.087 E0.01318
G1 X49.506 Y74.258 E0.01318
G1 X49.841 Y74.502 E0.01301
G1 X49.998 Y74.659 E0.00694
G1 X50.242 Y74.994 E0.01301
G1 X50.413 Y75.378 E0.01318
G1 X50.500 Y75.790 E0.01318
G1 X50.500 Y76.130 E0.01066
M204 S1250
G1 X50.826 Y76.423 F9000.000
G1 E-2.24000 F4200.000
;WIPE_START
G1 F7200.000
G1 X50.413 Y76.622 E-0.27675
G1 X50.242 Y77.006 E-0.23303
G1 X49.995 Y77.346 E-0.23303
G1 X49.768 Y77.550 E-0.16919
;WIPE_END
G1 E-0.04800 F4200.000
G1 Z0.400 F9000.000
G1 X48.751 Y101.623
G1 Z0.200
G1 E3.20000 F2400.000
M204 S800
;TYPE:Perimeter
G1 F1200.000
G1 X49.239 Y101.726 E0.01564
G1 X49.695 Y101.930 E0.01567
G1 X50.087 Y102.214 E0.01518
G1 X50.286 Y102.413 E0.00881
G1 X50.570 Y102.805 E0.01518
G1 X50.774 Y103.261 E0.01567
G1 X50.877 Y103.750 E0.01567
G1 X50.877 Y104.250 E0.01567
G1 X50.774 Y104.739 E0.01567
G1 X50.570 Y105.195 E0.01567
G1 X50.277 Y105.600 E0.01567
G1 X49.915 Y105.926 E0.01527
G1 X49.661 Y106.087 E0.00942
G1 X49.238 Y106.274 E0.01451
G1 X48.750 Y106.377 E0.01564
G1 X48.250 Y106.377 E0.01567
G1 X47.761 Y106.274 E0.01567
G1 X47.305 Y106.070 E0.01567
G1 X46.900 Y105.777 E0.01567
G1 X46.576 Y105.417 E0.01518
G1 X46.423 Y105.181 E0.00881
G1 X46.226 Y104.739 E0.01518
G1 X46.123 Y104.250 E0.01567
G1 X46.123 Y103.750 E0.01567
G1 X46.226 Y103.261 E0.01567
G1 X46.430 Y102.805 E0.01567
G1 X46.723 Y102.400 E0.01567
G1 X47.095 Y102.066 E0.01567
G1 X47.528 Y101.816 E0.01567
G1 X47.991 Y101.666 E0.01527
G1 X48.288 Y101.621 E0.00942
G1 X48.691 Y101.623 E0.01262
M204 S1250
G1 X48.690 Y102.000 F9000.000
M204 S800
;TYPE:External perimeter
G1 F1200.000
G1 X49.122 Y102.087 E0.01382
G1 X49.506 Y102.258 E0.01318
G1 X49.841 Y102.502 E0.01301
G1 X49.998 Y102.659 E0.00694
G1 X50.242 Y102.994 E0.01301
G1 X50.413 Y103.378 E0.01318
G1 X50.500 Y103.790 E0.01318
G1 X50.500 Y104.210 E0.01318
G1 X50.413 Y104.622 E0.01318
G1 X50.242 Y105.006 E0.01318
G1 X49.995 Y105.346 E0.01318
G1 X49.686 Y105.624 E0.01304
G1 X49.483 Y105.753 E0.00754
G1 X49.121 Y105.913 E0.01239
G1 X48.710 Y106.000 E0.01318
G1 X48.290 Y106.000 E0.01318
G1 X47.878 Y105.913 E0.01318
G1 X47.494 Y105.742 E0.01318
G1 X47.154 Y105.495 E0.01318
G1 X46.876 Y105.186 E0.01301
G1 X46.756 Y105.001 E0.00694
G1 X46.587 Y104.622 E0.01301
G1 X46.500 Y104.210 E0.01318
G1 X46.500 Y103.790 E0.01318
G1 X46.587 Y103.378 E0.01318
G1 X46.758 Y102.994 E0.01318
G1 X47.005 Y102.654 E0.01318
G1 X47.318 Y102.373 E0.01318
G1 X47.682 Y102.162 E0.01318
G1 X48.077 Y102.034 E0.01304
G1 X48.315 Y101.999 E0.00754
G1 X48.630 Y101.999 E0.00985
M204 S1250
G1 X48.928 Y101.678 F9000.000
G1 E-2.24000 F4200.000
;WIPE_START
G1 F7200.000
G1 X49.122 Y102.087 E-0.27690
G1 X49.506 Y102.258 E-0.23303
G1 X49.841 Y102.502 E-0.22995
G1 X49.998 Y102.659 E-0.12274
G1 X50.050 Y102.731 E-0.04937
;WIPE_END
G1 E-0.04800 F4200.000
G1 Z0.400 F9000.000
G1 X133.787 Y92.713
G1 Z0.200
G1 E3.20000 F2400.000
M204 S800
;TYPE:Perimeter
G1 F1200.000
G1 X104.213 Y92.713 E0.92728
G1 X104.213 Y106.713 E0.43896
G1 X45.787 Y106.713 E1.83190
G1 X45.787 Y73.287 E1.04804
G1 X104.213 Y73.287 E1.83190
G1 X104.213 Y87.287 E0.43896
G1 X133.787 Y87.287 E0.92728
G1 X133.787 Y55.787 E0.98766
G1 X134.213 Y55.787 E0.01335
G1 X134.213 Y124.213 E2.14544
G1 X133.787 Y124.213 E0.01335
G1 X133.787 Y92.773 E0.98578
M204 S1250
G1 X133.410 Y93.090 F9000.000
M204 S800
;TYPE:External perimeter
G1 F1200.000
G1 X104.590 Y93.090 E0.90363
G1 X104.590 Y107.090 E0.43896
G1 X45.410 Y107.090 E1.85555
G1 X45.410 Y72.910 E1.07169
G1 X104.590 Y72.910 E1.85555
G1 X104.590 Y86.910 E0.43896
G1 X133.410 Y86.910 E0.90363
G1 X133.410 Y55.410 E0.98766
G1 X134.590 Y55.410 E0.03700
G1 X134.590 Y124.590 E2.16909
G1 X133.410 Y124.590 E0.03700
G1 X133.410 Y93.150 E0.98578
M204 S1250
G1 X133.405 Y92.690 F9000.000
G1 E-2.24000 F4200.000
;WIPE_START
G1 F7200.000
G1 X131.764 Y93.147 E-0.91200
;WIPE_END
G1 E-0.04800 F4200.000
G1 Z0.400 F9000.000
G1 X134.100 Y88.128
G1 Z0.200
G1 E3.20000 F2400.000
M204 S800
;TYPE:Solid infill
;WIDTH:0.420034
G1 F1200.000
G1 X133.541 Y87.570 E0.02477
G1 X133.008 Y87.570 E0.01672
G1 X133.930 Y88.492 E0.04089
G1 X133.930 Y89.025 E0.01672
G1 X132.475 Y87.570 E0.06454
G1 X131.941 Y87.570 E0.01672
G1 X133.930 Y89.559 E0.08819
G1 X133.930 Y90.092 E0.01672
G1 X131.408 Y87.570 E0.11185
G1 X130.875 Y87.570 E0.01672
G1 X133.930 Y90.625 E0.13550
G1 X133.930 Y91.159 E0.01672
G1 X130.341 Y87.570 E0.15915
G1 X129.808 Y87.570 E0.01672
G1 X133.930 Y91.692 E0.18280
G1 X133.930 Y92.225 E0.01672
G1 X129.275 Y87.570 E0.20645
G1 X128.741 Y87.570 E0.01672
G1 X133.602 Y92.430 E0.21553
G1 X133.068 Y92.430 E0.01672
G1 X128.208 Y87.570 E0.21553
G1 X127.675 Y87.570 E0.01672
G1 X132.535 Y92.430 E0.21553
G1 X132.002 Y92.430 E0.01672
G1 X127.141 Y87.570 E0.21553
G1 X126.608 Y87.570 E0.01672
G1 X131.468 Y92.430 E0.21553
G1 X130.935 Y92.430 E0.01672
G1 X126.075 Y87.570 E0.21553
M73 P1 R137
G1 X125.541 Y87.570 E0.01672
G1 X130.402 Y92.430 E0.21553
G1 X129.868 Y92.430 E0.01672
G1 X125.008 Y87.570 E0.21553
G1 X124.475 Y87.570 E0.01672
G1 X129.335 Y92.430 E0.21553
G1 X128.802 Y92.430 E0.01672
G1 X123.942 Y87.570 E0.21553
G1 X123.408 Y87.570 E0.01672
G1 X128.268 Y92.430 E0.21553
G1 X127.735 Y92.430 E0.01672
G1 X122.875 Y87.570 E0.21553
G1 X122.342 Y87.570 E0.01672
G1 X127.202 Y92.430 E0.21553
G1 X126.669 Y92.430 E0.01672
G1 X121.808 Y87.570 E0.21553
G1 X121.275 Y87.570 E0.01672
G1 X126.135 Y92.430 E0.21553
G1 X125.602 Y92.430 E0.01672
G1 X120.742 Y87.570 E0.21553
G1 X120.208 Y87.570 E0.01672
G1 X125.069 Y92.430 E0.21553
G1 X124.535 Y92.430 E0.01672
G1 X119.675 Y87.570 E0.21553
G1 X119.142 Y87.570 E0.01672
G1 X124.002 Y92.430 E0.21553
G1 X123.469 Y92.430 E0.01672
G1 X118.608 Y87.570 E0.21553
G1 X118.075 Y87.570 E0.01672
G1 X122.935 Y92.430 E0.21553
G1 X122.402 Y92.430 E0.01672
G1 X117.542 Y87.570 E0.21553
G1 X117.008 Y87.570 E0.01672
G1 X121.869 Y92.430 E0.21553
G1 X121.335 Y92.430 E0.01672
G1 X116.475 Y87.570 E0.21553
G1 X115.942 Y87.570 E0.01672
G1 X120.802 Y92.430 E0.21553
G1 X120.269 Y92.430 E0.01672
G1 X115.408 Y87.570 E0.21553
G1 X114.875 Y87.570 E0.01672
G1 X119.735 Y92.430 E0.21553
G1 X119.202 Y92.430 E0.01672
G1 X114.342 Y87.570 E0.21553
G1 X113.808 Y87.570 E0.01672
G1 X118.669 Y92.430 E0.21553
G1 X118.135 Y92.430 E0.01672
G1 X113.275 Y87.570 E0.21553
M73 P1 R136
G1 X112.742 Y87.570 E0.01672
G1 X117.602 Y92.430 E0.21553
G1 X117.069 Y92.430 E0.01672
G1 X112.209 Y87.570 E0.21553
G1 X111.675 Y87.570 E0.01672
G1 X116.535 Y92.430 E0.21553
G1 X116.002 Y92.430 E0.01672
G1 X111.142 Y87.570 E0.21553
G1 X110.609 Y87.570 E0.01672
G1 X115.469 Y92.430 E0.21553
G1 X114.935 Y92.430 E0.01672
G1 X110.075 Y87.570 E0.21553
G1 X109.542 Y87.570 E0.01672
G1 X114.402 Y92.430 E0.21553
G1 X113.869 Y92.430 E0.01672
G1 X109.009 Y87.570 E0.21553
G1 X108.475 Y87.570 E0.01672
G1 X113.336 Y92.430 E0.21553
G1 X112.802 Y92.430 E0.01672
G1 X107.942 Y87.570 E0.21553
G1 X107.409 Y87.570 E0.01672
G1 X112.269 Y92.430 E0.21553
G1 X111.736 Y92.430 E0.01672
G1 X106.875 Y87.570 E0.21553
G1 X106.342 Y87.570 E0.01672
G1 X111.202 Y92.430 E0.21553
G1 X110.669 Y92.430 E0.01672
G1 X105.809 Y87.570 E0.21553
