; generated by PrusaSlicer 2.2.0+win64 on 2021-01-11 at 12:00:58 UTC


;
;

;
;
; 

; external perimeters extrusion width = 0.45mm
; perimeters extrusion width = 0.45mm
; infill extrusion width = 0.45mm
; solid infill extrusion width = 0.45mm
; top infill extrusion width = 0.40mm
; first layer extrusion width = 0.42mm

M73 P0 R65
M201 X1250 Y1250 Z400 E5000 ; sets maximum accelerations, mm/sec^2
M203 X180 Y180 Z12 E80 ; sets maximum feedrates, mm/sec
M204 P1250 R1250 T1250 ; sets acceleration (P, T) and retract acceleration (R), mm/sec^2
M205 X8.00 Y8.00 Z2.00 E10.00 ; sets the jerk limits, mm/sec
M205 S0 T0 ; sets the minimum extruding and travel feed rate, mm/sec
M107
G90 ; use absolute coordinates
M83 ; extruder relative mode
M104 S170 ; set extruder temp for bed leveling
M140 S60 ; set bed temp
M109 R170 ; wait for bed leveling temp
M190 S60 ; wait for bed temp
G28 ; home all without mesh bed level
G29 ; mesh bed leveling 
M104 S215 ; set extruder temp
G92 E0.0
G1 Y-2.0 X179 F2400
G1 Z3 F720
M109 S215 ; wait for extruder temp

; intro line
G1 X170 F1000
G1 Z0.2 F720
G1 X110.0 E8.0 F900
M73 P0 R64
G1 X40.0 E10.0 F700
G92 E0.0

M221 S95 ; set flow
G21 ; set units to millimeters
G90 ; use absolute coordinates
M83 ; use relative distances for extrusion
M900 K0.2 ; Filament gcode LA 1.5
; ; Filament gcode LA 1.0
;BEFORE_LAYER_CHANGE
G92 E0.0
;0.2


G1 Z0.200 F9000.000
;AFTER_LAYER_CHANGE
;0.2
G1 E-3.20000 F4200.00000
G1 Z0.400 F9000.000
G1 X28.244 Y75.203
G1 Z0.200
G1 E3.20000 F2400.00000
M204 S800
G1 F1200.000
G1 X28.785 Y74.850 E0.02024
G1 X29.274 Y74.682 E0.01621
G1 X29.791 Y74.623 E0.01633
G1 X90.004 Y74.623 E1.88792
G1 X90.892 Y74.797 E0.02837
G1 X91.653 Y75.292 E0.02849
G1 X92.173 Y76.037 E0.02849
G1 X92.376 Y76.923 E0.02849
G1 X92.374 Y103.114 E0.82122
G1 X92.257 Y103.745 E0.02012
G1 X91.976 Y104.322 E0.02012
G1 X91.550 Y104.802 E0.02012
G1 X91.015 Y105.150 E0.02000
G1 X90.526 Y105.318 E0.01621
G1 X90.009 Y105.377 E0.01633
G1 X29.758 Y105.377 E1.88912
G1 X29.109 Y105.275 E0.02060
G1 X28.510 Y104.997 E0.02071
G1 X28.013 Y104.567 E0.02060
G1 X27.650 Y104.015 E0.02071
G1 X27.483 Y103.530 E0.01609
G1 X27.423 Y103.020 E0.01609
G1 X27.425 Y76.909 E0.81871
G1 X27.537 Y76.273 E0.02024
G1 X27.816 Y75.691 E0.02024
G1 X28.205 Y75.248 E0.01848
M204 S1250
; printing object trafic_lights_box_v1.stl id:0 copy 0
G1 E-2.24000 F4200.00000
G1 F7200.000
G1 X28.785 Y74.850 E-0.38985
G1 X29.274 Y74.682 E-0.28650
G1 X29.696 Y74.634 E-0.23564
G1 E-0.04800 F4200.00000
G1 Z0.400 F9000.000
G1 X56.490 Y88.254
G1 Z0.200
G1 E3.20000 F2400.00000
M204 S800
G1 F1200.000
G1 X57.063 Y87.212 E0.03728
G1 X57.876 Y86.345 E0.03728
G1 X58.880 Y85.708 E0.03728
G1 X60.011 Y85.341 E0.03728
G1 X61.198 Y85.266 E0.03728
G1 X62.366 Y85.489 E0.03728
G1 X63.442 Y85.995 E0.03728
G1 X64.358 Y86.753 E0.03728
G1 X65.057 Y87.715 E0.03728
G1 X65.494 Y88.820 E0.03728
G1 X65.643 Y90.000 E0.03728
G1 X65.494 Y91.180 E0.03728
G1 X65.057 Y92.285 E0.03728
G1 X64.358 Y93.247 E0.03728
G1 X63.442 Y94.005 E0.03728
G1 X62.366 Y94.511 E0.03728
G1 X61.198 Y94.734 E0.03728
G1 X60.011 Y94.659 E0.03728
G1 X58.880 Y94.292 E0.03728
G1 X57.876 Y93.655 E0.03728
G1 X57.063 Y92.788 E0.03728
G1 X56.490 Y91.746 E0.03728
G1 X56.194 Y90.594 E0.03728
G1 X56.194 Y89.406 E0.03728
G1 X56.475 Y88.312 E0.03540
M204 S1250
G1 X56.840 Y88.406 F9000.000
M204 S800
G1 F1200.000
G1 X57.370 Y87.435 E0.03467
G1 X58.119 Y86.638 E0.03429
G1 X59.042 Y86.052 E0.03429
G1 X60.082 Y85.714 E0.03429
G1 X61.174 Y85.645 E0.03429
G1 X62.248 Y85.850 E0.03429
G1 X63.238 Y86.316 E0.03429
G1 X64.081 Y87.013 E0.03429
G1 X64.724 Y87.898 E0.03429
G1 X65.126 Y88.915 E0.03429
G1 X65.263 Y90.000 E0.03429
G1 X65.126 Y91.085 E0.03429
G1 X64.724 Y92.102 E0.03429
G1 X64.081 Y92.987 E0.03429
G1 X63.238 Y93.684 E0.03429
G1 X62.248 Y94.150 E0.03429
G1 X61.174 Y94.355 E0.03429
G1 X60.082 Y94.286 E0.03429
G1 X59.042 Y93.948 E0.03429
G1 X58.119 Y93.362 E0.03429
G1 X57.370 Y92.565 E0.03429
G1 X56.843 Y91.606 E0.03429
G1 X56.571 Y90.547 E0.03429
G1 X56.571 Y89.453 E0.03429
G1 X56.825 Y88.464 E0.03202
M204 S1250
G1 X56.591 Y88.093 F9000.000
G1 E-2.24000 F4200.00000
G1 F7200.000
G1 X57.370 Y87.435 E-0.64503
G1 X57.700 Y87.084 E-0.26697
G1 E-0.04800 F4200.00000
G1 Z0.400 F9000.000
G1 X54.294 Y88.820
G1 Z0.200
G1 E3.20000 F2400.00000
M204 S800
G1 F1200.000
G1 X54.443 Y90.000 E0.03728
G1 X54.294 Y91.180 E0.03728
G1 X53.857 Y92.285 E0.03728
G1 X53.158 Y93.247 E0.03728
G1 X52.242 Y94.005 E0.03728
G1 X51.166 Y94.511 E0.03728
G1 X49.998 Y94.734 E0.03728
G1 X48.811 Y94.659 E0.03728
G1 X47.680 Y94.292 E0.03728
G1 X46.677 Y93.655 E0.03728
G1 X45.863 Y92.788 E0.03728
G1 X45.290 Y91.746 E0.03728
G1 X44.994 Y90.595 E0.03728
G1 X44.994 Y89.405 E0.03728
G1 X45.290 Y88.254 E0.03728
G1 X45.863 Y87.212 E0.03728
G1 X46.677 Y86.345 E0.03728
G1 X47.680 Y85.708 E0.03728
G1 X48.811 Y85.341 E0.03728
G1 X49.998 Y85.266 E0.03728
G1 X51.166 Y85.489 E0.03728
G1 X52.242 Y85.995 E0.03728
G1 X53.158 Y86.753 E0.03728
G1 X53.857 Y87.715 E0.03728
G1 X54.272 Y88.765 E0.03540
M204 S1250
G1 X53.922 Y88.903 F9000.000
M204 S800
G1 F1200.000
G1 X54.063 Y90.000 E0.03467
G1 X53.926 Y91.085 E0.03429
G1 X53.524 Y92.102 E0.03429
G1 X52.881 Y92.987 E0.03429
G1 X52.038 Y93.684 E0.03429
G1 X51.048 Y94.150 E0.03429
G1 X49.974 Y94.355 E0.03429
G1 X48.882 Y94.286 E0.03429
G1 X47.842 Y93.948 E0.03429
G1 X46.919 Y93.362 E0.03429
G1 X46.170 Y92.565 E0.03429
G1 X45.643 Y91.606 E0.03429
G1 X45.371 Y90.547 E0.03429
G1 X45.371 Y89.453 E0.03429
G1 X45.643 Y88.394 E0.03429
G1 X46.170 Y87.435 E0.03429
G1 X46.919 Y86.638 E0.03429
G1 X47.842 Y86.052 E0.03429
G1 X48.882 Y85.714 E0.03429
G1 X49.974 Y85.645 E0.03429
G1 X51.048 Y85.850 E0.03429
G1 X52.038 Y86.316 E0.03429
G1 X52.881 Y87.013 E0.03429
G1 X53.524 Y87.898 E0.03429
G1 X53.900 Y88.848 E0.03202
M204 S1250
G1 X54.307 Y89.010 F9000.000
G1 E-2.24000 F4200.00000
G1 F7200.000
G1 X54.063 Y90.000 E-0.64502
G1 X54.003 Y90.478 E-0.26698
G1 E-0.04800 F4200.00000
G1 Z0.400 F9000.000
G1 X43.243 Y90.000
G1 Z0.200
G1 E3.20000 F2400.00000
M204 S800
G1 F1200.000
G1 X43.094 Y91.180 E0.03728
G1 X43.040 Y91.317 E0.00463
G1 X42.657 Y92.285 E0.03265
G1 X41.958 Y93.247 E0.03728
G1 X41.042 Y94.005 E0.03728
G1 X39.966 Y94.511 E0.03728
G1 X38.798 Y94.734 E0.03728
G1 X37.611 Y94.659 E0.03728
G1 X36.480 Y94.292 E0.03728
G1 X35.477 Y93.655 E0.03728
G1 X34.663 Y92.788 E0.03728
G1 X34.090 Y91.746 E0.03728
G1 X33.794 Y90.595 E0.03728
G1 X33.794 Y89.405 E0.03728
G1 X34.090 Y88.254 E0.03728
G1 X34.663 Y87.212 E0.03728
G1 X35.477 Y86.345 E0.03728
G1 X36.480 Y85.708 E0.03728
G1 X37.611 Y85.341 E0.03728
G1 X38.798 Y85.266 E0.03728
G1 X39.966 Y85.489 E0.03728
G1 X41.042 Y85.995 E0.03728
G1 X41.958 Y86.753 E0.03728
G1 X42.657 Y87.715 E0.03728
G1 X43.094 Y88.820 E0.03728
G1 X43.236 Y89.940 E0.03540
M204 S1250
G1 X42.862 Y89.988 F9000.000
M204 S800
G1 F1200.000
G1 X42.726 Y91.085 E0.03467
G1 X42.324 Y92.102 E0.03429
G1 X41.681 Y92.987 E0.03429
G1 X40.838 Y93.684 E0.03429
G1 X39.848 Y94.150 E0.03429
G1 X38.774 Y94.355 E0.03429
G1 X37.682 Y94.286 E0.03429
G1 X36.642 Y93.948 E0.03429
G1 X35.719 Y93.362 E0.03429
G1 X34.970 Y92.565 E0.03429
G1 X34.443 Y91.606 E0.03429
G1 X34.171 Y90.547 E0.03429
G1 X34.171 Y89.453 E0.03429
G1 X34.443 Y88.394 E0.03429
G1 X34.970 Y87.435 E0.03429
G1 X35.719 Y86.638 E0.03429
G1 X36.642 Y86.052 E0.03429
G1 X37.682 Y85.714 E0.03429
G1 X38.774 Y85.645 E0.03429
G1 X39.848 Y85.850 E0.03429
G1 X40.838 Y86.316 E0.03429
G1 X41.681 Y87.013 E0.03429
G1 X42.324 Y87.898 E0.03429
G1 X42.726 Y88.915 E0.03429
G1 X42.854 Y89.928 E0.03202
M204 S1250
G1 X43.209 Y90.187 F9000.000
G1 E-2.24000 F4200.00000
G1 F7200.000
G1 X42.726 Y91.085 E-0.64502
G1 X42.549 Y91.533 E-0.26698
G1 E-0.04800 F4200.00000
G1 Z0.400 F9000.000
G1 X30.587 Y77.787
G1 Z0.200
G1 E3.20000 F2400.00000
M204 S800
G1 F1200.000
G1 X89.213 Y77.787 E1.83817
G1 X89.213 Y102.213 E0.76586
G1 X30.587 Y102.213 E1.83817
G1 X30.587 Y77.847 E0.76397
M204 S1250
G1 X30.210 Y77.410 F9000.000
M204 S800
G1 F1200.000
G1 X89.590 Y77.410 E1.86182
G1 X89.590 Y102.590 E0.78950
G1 X30.210 Y102.590 E1.86182
G1 X30.210 Y77.470 E0.78762
M204 S1250
G1 X30.606 Y77.463 F9000.000
G1 E-2.24000 F4200.00000
G1 F7200.000
G1 X31.856 Y77.468 E-0.91200
G1 E-0.04800 F4200.00000
G1 Z0.400 F9000.000
G1 X40.652 Y85.687
G1 Z0.200
G1 E3.20000 F2400.00000
M204 S800
G1 F1200.000
G1 X33.035 Y78.070 E0.33781
G1 X32.502 Y78.070 E0.01673
G1 X39.554 Y85.122 E0.31279
G1 X38.895 Y84.997 E0.02104
G1 X31.968 Y78.070 E0.30721
G1 X31.435 Y78.070 E0.01673
G1 X38.374 Y85.009 E0.30777
G1 X37.873 Y85.041 E0.01577
G1 X30.901 Y78.070 E0.30917
G1 X30.870 Y78.070 E0.00099
G1 X30.870 Y78.572 E0.01574
G1 X37.408 Y85.109 E0.28996
G1 X37.005 Y85.240 E0.01327
G1 X30.870 Y79.105 E0.27210
G1 X30.870 Y79.638 E0.01673
G1 X36.603 Y85.371 E0.25425
G1 X36.359 Y85.450 E0.00803
G1 X36.230 Y85.532 E0.00479
G1 X30.870 Y80.172 E0.23773
G1 X30.870 Y80.705 E0.01673
G1 X35.904 Y85.739 E0.22326
G1 X35.577 Y85.946 E0.01212
G1 X30.870 Y81.239 E0.20879
G1 X30.870 Y81.772 E0.01673
G1 X35.260 Y86.162 E0.19472
G1 X35.002 Y86.437 E0.01183
G1 X30.870 Y82.305 E0.18326
G1 X30.870 Y82.839 E0.01673
G1 X34.744 Y86.712 E0.17181
G1 X34.485 Y86.988 E0.01183
G1 X30.870 Y83.372 E0.16035
G1 X30.870 Y83.905 E0.01673
G1 X34.282 Y87.317 E0.15132
G1 X34.093 Y87.662 E0.01232
G1 X30.870 Y84.439 E0.14293
G1 X30.870 Y84.972 E0.01673
G1 X33.903 Y88.006 E0.13454
G1 X33.825 Y88.149 E0.00512
G1 X33.761 Y88.397 E0.00803
G1 X30.870 Y85.506 E0.12823
G1 X30.870 Y86.039 E0.01673
G1 X33.652 Y88.821 E0.12339
G1 X33.543 Y89.246 E0.01374
G1 X30.870 Y86.572 E0.11856
G1 X30.870 Y87.106 E0.01673
G1 X33.511 Y89.747 E0.11715
G1 X33.511 Y90.281 E0.01673
G1 X30.870 Y87.639 E0.11715
G1 X30.870 Y88.173 E0.01673
G1 X33.575 Y90.877 E0.11996
G1 X33.759 Y91.595 E0.02324
G1 X30.870 Y88.706 E0.12814
G1 X30.870 Y89.239 E0.01673
G1 X43.561 Y101.930 E0.56285
G1 X44.094 Y101.930 E0.01673
G1 X36.884 Y94.721 E0.31975
G1 X37.558 Y94.939 E0.02220
G1 X37.642 Y94.945 E0.00265
G1 X44.627 Y101.930 E0.30982
G1 X45.161 Y101.930 E0.01673
G1 X38.211 Y94.980 E0.30823
G1 X38.780 Y95.016 E0.01789
G1 X45.694 Y101.930 E0.30664
G1 X46.228 Y101.930 E0.01673
G1 X39.236 Y94.938 E0.31009
G1 X39.684 Y94.853 E0.01430
G1 X46.761 Y101.930 E0.31388
G1 X47.294 Y101.930 E0.01673
G1 X40.117 Y94.753 E0.31833
G1 X40.480 Y94.582 E0.01257
G1 X47.828 Y101.930 E0.32590
G1 X48.361 Y101.930 E0.01673
G1 X40.842 Y94.411 E0.33347
G1 X41.203 Y94.239 E0.01254
G1 X48.895 Y101.930 E0.34113
G1 X49.428 Y101.930 E0.01673
G1 X41.495 Y93.997 E0.35184
M73 P1 R63
G1 X41.787 Y93.756 E0.01188
G1 X49.961 Y101.930 E0.36255
G1 X50.495 Y101.930 E0.01673
G1 X42.079 Y93.514 E0.37326
G1 X42.166 Y93.442 E0.00354
G1 X42.323 Y93.225 E0.00841
G1 X51.028 Y101.930 E0.38607
G1 X51.561 Y101.930 E0.01673
G1 X42.548 Y92.916 E0.39977
G1 X42.772 Y92.607 E0.01198
G1 X52.095 Y101.930 E0.41348
G1 X52.628 Y101.930 E0.01673
G1 X42.967 Y92.269 E0.42848
G1 X43.118 Y91.887 E0.01289
G1 X53.162 Y101.930 E0.44543
G1 X53.695 Y101.930 E0.01673
G1 X43.270 Y91.505 E0.46237
G1 X43.370 Y91.251 E0.00858
G1 X43.390 Y91.092 E0.00501
G1 X54.228 Y101.930 E0.48068
G1 X54.762 Y101.930 E0.01673
G1 X43.298 Y90.467 E0.50841
M204 S1250
G1 E-2.24000 F4200.00000
G1 F7200.000
G1 X44.462 Y91.630 E-0.91200
G1 E-0.04800 F4200.00000
G1 Z0.400 F9000.000
G1 X45.221 Y91.856
G1 Z0.200
G1 E3.20000 F2400.00000
M204 S800
G1 F1200.000
G1 X43.510 Y90.145 E0.07589
G1 X43.528 Y90.000 E0.00459
G1 X43.475 Y89.576 E0.01339
G1 X44.774 Y90.876 E0.05763
G1 X44.711 Y90.630 E0.00795
G1 X44.711 Y90.279 E0.01100
G1 X43.398 Y88.966 E0.05825
G1 X43.370 Y88.749 E0.00684
G1 X43.145 Y88.180 E0.01922
G1 X44.711 Y89.746 E0.06947
G1 X44.711 Y89.370 E0.01180
G1 X44.743 Y89.245 E0.00405
G1 X33.568 Y78.070 E0.49562
G1 X34.102 Y78.070 E0.01673
G1 X44.852 Y88.820 E0.47680
G1 X44.961 Y88.396 E0.01374
G1 X34.635 Y78.070 E0.45797
G1 X35.169 Y78.070 E0.01673
G1 X45.104 Y88.005 E0.44064
G1 X45.293 Y87.661 E0.01232
G1 X35.702 Y78.070 E0.42537
G1 X36.235 Y78.070 E0.01673
G1 X45.482 Y87.317 E0.41011
G1 X45.632 Y87.044 E0.00975
G1 X45.686 Y86.987 E0.00247
G1 X36.769 Y78.070 E0.39548
G1 X37.302 Y78.070 E0.01673
G1 X45.944 Y86.712 E0.38329
G1 X46.202 Y86.437 E0.01183
G1 X37.835 Y78.070 E0.37109
G1 X38.369 Y78.070 E0.01673
G1 X46.461 Y86.162 E0.35889
G1 X46.778 Y85.946 E0.01204
G1 X38.902 Y78.070 E0.34930
G1 X39.436 Y78.070 E0.01673
G1 X47.104 Y85.739 E0.34012
G1 X47.431 Y85.532 E0.01212
G1 X39.969 Y78.070 E0.33094
G1 X40.502 Y78.070 E0.01673
G1 X47.803 Y85.371 E0.32380
G1 X48.206 Y85.240 E0.01327
G1 X41.036 Y78.070 E0.31800
G1 X41.569 Y78.070 E0.01673
G1 X48.608 Y85.109 E0.31220
G1 X48.758 Y85.061 E0.00492
G1 X49.074 Y85.041 E0.00992
G1 X42.103 Y78.070 E0.30917
G1 X42.636 Y78.070 E0.01673
G1 X49.575 Y85.009 E0.30777
G1 X50.016 Y84.982 E0.01384
G1 X50.096 Y84.997 E0.00258
G1 X43.169 Y78.070 E0.30722
G1 X43.703 Y78.070 E0.01673
G1 X50.756 Y85.123 E0.31280
G1 X51.254 Y85.218 E0.01591
G1 X51.500 Y85.333 E0.00852
G1 X44.236 Y78.070 E0.32214
G1 X44.769 Y78.070 E0.01673
G1 X55.944 Y89.244 E0.49558
G1 X56.053 Y88.820 E0.01374
G1 X45.303 Y78.070 E0.47676
G1 X45.836 Y78.070 E0.01673
G1 X56.162 Y88.395 E0.45794
G1 X56.225 Y88.149 E0.00797
G1 X56.304 Y88.004 E0.00517
G1 X46.370 Y78.070 E0.44061
G1 X46.903 Y78.070 E0.01673
G1 X56.493 Y87.660 E0.42534
G1 X56.683 Y87.316 E0.01232
G1 X47.436 Y78.070 E0.41008
G1 X47.970 Y78.070 E0.01673
G1 X56.886 Y86.986 E0.39546
G1 X57.145 Y86.711 E0.01183
G1 X48.503 Y78.070 E0.38326
G1 X49.037 Y78.070 E0.01673
G1 X57.403 Y86.436 E0.37106
G1 X57.661 Y86.161 E0.01183
G1 X49.570 Y78.070 E0.35886
G1 X50.103 Y78.070 E0.01673
G1 X57.979 Y85.945 E0.34929
G1 X58.305 Y85.738 E0.01212
G1 X50.637 Y78.070 E0.34010
G1 X51.170 Y78.070 E0.01673
G1 X58.631 Y85.531 E0.33092
G1 X58.759 Y85.450 E0.00474
G1 X59.004 Y85.371 E0.00808
G1 X51.704 Y78.070 E0.32379
G1 X52.237 Y78.070 E0.01673
G1 X59.407 Y85.240 E0.31799
G1 X59.809 Y85.109 E0.01328
G1 X52.770 Y78.070 E0.31219
G1 X53.304 Y78.070 E0.01673
G1 X60.275 Y85.041 E0.30917
G1 X60.776 Y85.009 E0.01577
G1 X53.837 Y78.070 E0.30777
G1 X54.370 Y78.070 E0.01673
G1 X61.298 Y84.997 E0.30723
G1 X61.957 Y85.123 E0.02104
G1 X54.904 Y78.070 E0.31281
G1 X55.437 Y78.070 E0.01673
G1 X63.056 Y85.689 E0.33790
M204 S1250
G1 E-2.24000 F4200.00000
G1 F7200.000
G1 X61.892 Y84.525 E-0.91200
G1 E-0.04800 F4200.00000
G1 Z0.400 F9000.000
G1 X56.081 Y89.915
G1 Z0.200
G1 E3.20000 F2400.00000
M204 S800
G1 F1200.000
G1 X54.344 Y88.178 E0.07703
G1 X54.570 Y88.749 E0.01928
G1 X54.598 Y88.965 E0.00680
G1 X55.911 Y90.278 E0.05826
G1 X55.911 Y90.630 E0.01103
G1 X55.974 Y90.875 E0.00791
G1 X54.675 Y89.575 E0.05762
G1 X54.728 Y90.000 E0.01343
G1 X54.710 Y90.144 E0.00455
G1 X56.420 Y91.854 E0.07583
M204 S1250
G1 E-2.24000 F4200.00000
G1 F7200.000
G1 X55.256 Y90.690 E-0.91200
G1 E-0.04800 F4200.00000
G1 Z0.400 F9000.000
G1 X59.023 Y94.457
G1 Z0.200
G1 E3.20000 F2400.00000
M204 S800
G1 F1200.000
G1 X66.496 Y101.930 E0.33143
G1 X67.030 Y101.930 E0.01673
G1 X60.044 Y94.945 E0.30981
G1 X60.613 Y94.981 E0.01789
G1 X67.563 Y101.930 E0.30822
G1 X68.096 Y101.930 E0.01673
G1 X61.183 Y95.016 E0.30663
G1 X61.638 Y94.938 E0.01448
G1 X68.630 Y101.930 E0.31011
G1 X69.163 Y101.930 E0.01673
G1 X62.086 Y94.853 E0.31390
G1 X62.454 Y94.782 E0.01176
G1 X62.518 Y94.752 E0.00223
G1 X69.697 Y101.930 E0.31836
G1 X70.230 Y101.930 E0.01673
G1 X62.881 Y94.581 E0.32593
G1 X63.244 Y94.411 E0.01257
G1 X70.763 Y101.930 E0.33350
G1 X71.297 Y101.930 E0.01673
G1 X63.604 Y94.238 E0.34117
G1 X63.896 Y93.996 E0.01188
G1 X71.830 Y101.930 E0.35188
G1 X72.363 Y101.930 E0.01673
G1 X64.188 Y93.755 E0.36259
G1 X64.480 Y93.513 E0.01188
G1 X72.897 Y101.930 E0.37330
G1 X73.430 Y101.930 E0.01673
G1 X64.724 Y93.224 E0.38613
G1 X64.949 Y92.915 E0.01198
G1 X73.964 Y101.930 E0.39983
G1 X74.497 Y101.930 E0.01673
G1 X65.173 Y92.606 E0.41353
G1 X65.306 Y92.422 E0.00712
G1 X65.368 Y92.268 E0.00523
G1 X75.030 Y101.930 E0.42855
G1 X75.564 Y101.930 E0.01673
G1 X65.519 Y91.885 E0.44549
G1 X65.670 Y91.503 E0.01289
G1 X76.097 Y101.930 E0.46244
G1 X76.631 Y101.930 E0.01673
G1 X65.791 Y91.090 E0.48076
