; generated by PrusaSlicer 2.2.0+win64 on 2021-01-12 at 16:38:32 UTC


;
;

;
;
; 

; external perimeters extrusion width = 0.45mm
; perimeters extrusion width = 0.45mm
; infill extrusion width = 0.45mm
; solid infill extrusion width = 0.45mm
; top infill extrusion width = 0.40mm
; first layer extrusion width = 0.42mm

M73 P0 R143
M201 X1250 Y1250 Z400 E5000 ; sets maximum accelerations, mm/sec^2
M203 X180 Y180 Z12 E80 ; sets maximum feedrates, mm/sec
M204 P1250 R1250 T1250 ; sets acceleration (P, T) and retract acceleration (R), mm/sec^2
M205 X8.00 Y8.00 Z2.00 E10.00 ; sets the jerk limits, mm/sec
M205 S0 T0 ; sets the minimum extruding and travel feed rate, mm/sec
M107
G90 ; use absolute coordinates
M83 ; extruder relative mode
M104 S170 ; set extruder temp for bed leveling
M140 S60 ; set bed temp
M109 R170 ; wait for bed leveling temp
M190 S60 ; wait for bed temp
G28 ; home all without mesh bed level
G29 ; mesh bed leveling 
M104 S215 ; set extruder temp
G92 E0.0
G1 Y-2.0 X179 F2400
G1 Z3 F720
M109 S215 ; wait for extruder temp

; intro line
G1 X170 F1000
G1 Z0.2 F720
G1 X110.0 E8.0 F900
M73 P0 R142
G1 X40.0 E10.0 F700
G92 E0.0

M221 S95 ; set flow
G21 ; set units to millimeters
G90 ; use absolute coordinates
M83 ; use relative distances for extrusion
M900 K0.2 ; Filament gcode LA 1.5
; ; Filament gcode LA 1.0
;BEFORE_LAYER_CHANGE
G92 E0.0
;0.2


G1 Z0.200 F9000.000
;AFTER_LAYER_CHANGE
;0.2
G1 E-3.20000 F4200.00000
G1 Z0.400 F9000.000
G1 X28.195 Y75.579
G1 Z0.200
G1 E3.20000 F2400.00000
M204 S800
G1 F1200.000
G1 X28.690 Y75.086 E0.02190
G1 X29.307 Y74.759 E0.02190
G1 X29.825 Y74.639 E0.01667
G1 X147.379 Y60.938 E3.71076
G1 X149.154 Y60.923 E0.05566
G1 X149.999 Y61.080 E0.02696
G1 X150.731 Y61.525 E0.02684
G1 X151.257 Y62.200 E0.02684
G1 X151.511 Y63.022 E0.02696
G1 X152.277 Y87.468 E0.76689
G1 X152.276 Y92.561 E0.15968
G1 X151.521 Y116.876 E0.76276
G1 X151.372 Y117.543 E0.02142
G1 X151.038 Y118.144 E0.02154
G1 X150.550 Y118.621 E0.02142
G1 X149.942 Y118.941 E0.02154
G1 X149.264 Y119.074 E0.02166
G1 X147.384 Y119.062 E0.05895
G1 X29.806 Y105.359 E3.71153
G1 X29.172 Y105.188 E0.02060
G1 X28.608 Y104.851 E0.02060
G1 X28.159 Y104.372 E0.02060
G1 X27.859 Y103.792 E0.02048
G1 X27.723 Y103.011 E0.02484
G1 X27.726 Y76.882 E0.81926
G1 X27.863 Y76.197 E0.02190
G1 X28.166 Y75.631 E0.02013
M204 S1250
; printing object trafic_lights_box_v2.stl id:0 copy 0
G1 E-2.24000 F4200.00000
G1 F7200.000
G1 X28.690 Y75.086 E-0.41891
G1 X29.307 Y74.759 E-0.38699
G1 X29.493 Y74.716 E-0.10611
G1 E-0.04800 F4200.00000
G1 Z0.400 F9000.000
G1 X56.454 Y88.180
G1 Z0.200
G1 E3.20000 F2400.00000
M204 S800
G1 F1200.000
G1 X57.051 Y87.094 E0.03885
G1 X57.899 Y86.191 E0.03885
G1 X58.945 Y85.527 E0.03885
G1 X60.124 Y85.144 E0.03885
G1 X61.360 Y85.066 E0.03885
G1 X62.578 Y85.299 E0.03885
G1 X63.699 Y85.826 E0.03885
G1 X64.654 Y86.616 E0.03885
G1 X65.382 Y87.619 E0.03885
G1 X65.838 Y88.771 E0.03885
G1 X65.993 Y90.000 E0.03885
G1 X65.838 Y91.229 E0.03885
G1 X65.382 Y92.381 E0.03885
G1 X64.654 Y93.384 E0.03885
G1 X63.699 Y94.174 E0.03885
G1 X62.578 Y94.701 E0.03885
G1 X61.360 Y94.934 E0.03885
G1 X60.124 Y94.856 E0.03885
G1 X58.945 Y94.473 E0.03885
G1 X57.899 Y93.809 E0.03885
G1 X57.051 Y92.906 E0.03885
G1 X56.454 Y91.820 E0.03885
G1 X56.146 Y90.620 E0.03885
G1 X56.146 Y89.380 E0.03885
G1 X56.439 Y88.238 E0.03697
M204 S1250
G1 X56.804 Y88.332 F9000.000
M204 S800
G1 F1200.000
G1 X57.358 Y87.318 E0.03624
G1 X58.141 Y86.484 E0.03586
G1 X59.107 Y85.871 E0.03586
G1 X60.195 Y85.518 E0.03586
G1 X61.337 Y85.446 E0.03586
G1 X62.460 Y85.660 E0.03586
G1 X63.495 Y86.147 E0.03586
G1 X64.376 Y86.876 E0.03586
G1 X65.049 Y87.802 E0.03586
G1 X65.470 Y88.865 E0.03586
G1 X65.613 Y90.000 E0.03586
G1 X65.470 Y91.135 E0.03586
G1 X65.049 Y92.198 E0.03586
G1 X64.376 Y93.124 E0.03586
G1 X63.495 Y93.853 E0.03586
G1 X62.460 Y94.340 E0.03586
G1 X61.337 Y94.554 E0.03586
G1 X60.195 Y94.482 E0.03586
G1 X59.107 Y94.129 E0.03586
G1 X58.141 Y93.516 E0.03586
G1 X57.358 Y92.682 E0.03586
G1 X56.807 Y91.680 E0.03586
G1 X56.523 Y90.572 E0.03586
G1 X56.523 Y89.428 E0.03586
G1 X56.789 Y88.390 E0.03360
M204 S1250
G1 X56.555 Y88.019 F9000.000
G1 E-2.24000 F4200.00000
G1 F7200.000
G1 X57.358 Y87.318 E-0.67280
G1 X57.654 Y87.003 E-0.23920
G1 E-0.04800 F4200.00000
G1 Z0.400 F9000.000
G1 X54.638 Y88.771
G1 Z0.200
G1 E3.20000 F2400.00000
M204 S800
G1 F1200.000
G1 X54.793 Y90.000 E0.03885
G1 X54.638 Y91.229 E0.03885
G1 X54.182 Y92.381 E0.03885
G1 X53.454 Y93.384 E0.03885
G1 X52.499 Y94.174 E0.03885
G1 X51.378 Y94.701 E0.03885
G1 X50.160 Y94.934 E0.03885
G1 X48.924 Y94.856 E0.03885
G1 X47.745 Y94.473 E0.03885
G1 X46.699 Y93.809 E0.03885
G1 X45.851 Y92.906 E0.03885
G1 X45.254 Y91.820 E0.03885
G1 X44.946 Y90.620 E0.03885
G1 X44.946 Y89.380 E0.03885
G1 X45.254 Y88.180 E0.03885
G1 X45.851 Y87.094 E0.03885
G1 X46.699 Y86.191 E0.03885
G1 X47.745 Y85.527 E0.03885
G1 X48.924 Y85.144 E0.03885
G1 X50.160 Y85.066 E0.03885
G1 X51.378 Y85.299 E0.03885
G1 X52.499 Y85.826 E0.03885
G1 X53.454 Y86.616 E0.03885
G1 X54.182 Y87.619 E0.03885
G1 X54.616 Y88.715 E0.03697
M204 S1250
G1 X54.265 Y88.854 F9000.000
M204 S800
G1 F1200.000
G1 X54.413 Y90.000 E0.03624
G1 X54.270 Y91.135 E0.03586
G1 X53.849 Y92.198 E0.03586
G1 X53.176 Y93.124 E0.03586
G1 X52.295 Y93.853 E0.03586
G1 X51.260 Y94.340 E0.03586
G1 X50.137 Y94.554 E0.03586
G1 X48.995 Y94.482 E0.03586
G1 X47.907 Y94.129 E0.03587
G1 X46.941 Y93.516 E0.03586
G1 X46.158 Y92.682 E0.03586
G1 X45.607 Y91.680 E0.03587
G1 X45.323 Y90.572 E0.03587
G1 X45.323 Y89.428 E0.03586
G1 X45.607 Y88.320 E0.03587
G1 X46.158 Y87.318 E0.03587
G1 X46.941 Y86.484 E0.03586
G1 X47.907 Y85.871 E0.03586
G1 X48.995 Y85.518 E0.03587
G1 X50.137 Y85.446 E0.03586
G1 X51.260 Y85.660 E0.03586
G1 X52.295 Y86.147 E0.03586
G1 X53.176 Y86.876 E0.03586
G1 X53.849 Y87.802 E0.03586
G1 X54.243 Y88.798 E0.03360
M204 S1250
G1 X54.651 Y88.960 F9000.000
G1 E-2.24000 F4200.00000
G1 F7200.000
G1 X54.413 Y90.000 E-0.67280
G1 X54.359 Y90.428 E-0.23920
G1 E-0.04800 F4200.00000
G1 Z0.400 F9000.000
G1 X43.593 Y90.000
G1 Z0.200
G1 E3.20000 F2400.00000
M204 S800
G1 F1200.000
G1 X43.438 Y91.229 E0.03885
G1 X42.982 Y92.381 E0.03885
G1 X42.254 Y93.384 E0.03885
G1 X41.299 Y94.174 E0.03885
G1 X40.178 Y94.701 E0.03885
G1 X38.960 Y94.934 E0.03885
G1 X37.724 Y94.856 E0.03885
G1 X36.545 Y94.473 E0.03885
G1 X35.499 Y93.809 E0.03885
G1 X34.651 Y92.906 E0.03885
G1 X34.054 Y91.820 E0.03885
G1 X33.746 Y90.620 E0.03885
G1 X33.746 Y89.380 E0.03885
G1 X34.054 Y88.180 E0.03885
G1 X34.651 Y87.094 E0.03885
G1 X35.499 Y86.191 E0.03885
G1 X36.545 Y85.527 E0.03885
G1 X37.724 Y85.144 E0.03885
G1 X38.960 Y85.066 E0.03885
G1 X40.178 Y85.299 E0.03885
G1 X41.299 Y85.826 E0.03885
G1 X42.254 Y86.616 E0.03885
G1 X42.982 Y87.619 E0.03885
G1 X43.438 Y88.771 E0.03885
G1 X43.586 Y89.940 E0.03697
M204 S1250
G1 X43.212 Y89.988 F9000.000
M204 S800
G1 F1200.000
G1 X43.070 Y91.135 E0.03624
G1 X42.649 Y92.198 E0.03586
G1 X41.976 Y93.124 E0.03587
G1 X41.095 Y93.853 E0.03586
G1 X40.060 Y94.340 E0.03587
G1 X38.937 Y94.554 E0.03586
G1 X37.795 Y94.482 E0.03586
G1 X36.707 Y94.129 E0.03587
G1 X35.741 Y93.516 E0.03586
G1 X34.958 Y92.682 E0.03586
G1 X34.407 Y91.680 E0.03587
G1 X34.123 Y90.572 E0.03587
G1 X34.123 Y89.428 E0.03586
G1 X34.407 Y88.320 E0.03587
G1 X34.958 Y87.318 E0.03587
G1 X35.741 Y86.484 E0.03586
G1 X36.707 Y85.871 E0.03586
G1 X37.795 Y85.518 E0.03587
G1 X38.937 Y85.446 E0.03586
G1 X40.060 Y85.660 E0.03586
G1 X41.095 Y86.147 E0.03587
G1 X41.976 Y86.876 E0.03586
G1 X42.649 Y87.802 E0.03587
G1 X43.070 Y88.865 E0.03586
G1 X43.204 Y89.928 E0.03360
M204 S1250
G1 X43.559 Y90.187 F9000.000
G1 E-2.24000 F4200.00000
G1 F7200.000
G1 X43.070 Y91.135 E-0.67279
G1 X42.911 Y91.536 E-0.23921
G1 E-0.04800 F4200.00000
G1 Z0.400 F9000.000
G1 X89.213 Y88.287
G1 Z0.200
G1 E3.20000 F2400.00000
M204 S800
G1 F1200.000
G1 X149.113 Y88.287 E1.87812
G1 X149.113 Y91.713 E0.10741
G1 X89.213 Y91.713 E1.87812
G1 X89.213 Y102.213 E0.32922
G1 X30.887 Y102.213 E1.82877
G1 X30.887 Y77.787 E0.76586
G1 X89.213 Y77.787 E1.82877
G1 X89.213 Y88.227 E0.32734
M204 S1250
G1 X89.590 Y87.910 F9000.000
M204 S800
G1 F1200.000
G1 X148.060 Y87.910 E1.83329
G1 X148.060 Y63.710 E0.75877
G1 X148.740 Y63.710 E0.02132
G1 X148.740 Y87.910 E0.75877
G1 X149.490 Y87.910 E0.02352
G1 X149.490 Y92.090 E0.13106
G1 X148.740 Y92.090 E0.02352
G1 X148.740 Y116.290 E0.75877
G1 X148.060 Y116.290 E0.02132
G1 X148.060 Y92.090 E0.75877
G1 X89.590 Y92.090 E1.83329
M73 P0 R141
G1 X89.590 Y102.590 E0.32922
G1 X30.510 Y102.590 E1.85241
G1 X30.510 Y77.410 E0.78950
G1 X89.590 Y77.410 E1.85241
G1 X89.590 Y87.850 E0.32734
M204 S1250
G1 X89.769 Y88.268 F9000.000
G1 X89.552 Y88.400
M204 S800
G1 F1200.000
G1 X92.582 Y91.430 E0.13441
G1 X93.116 Y91.430 E0.01673
G1 X90.255 Y88.570 E0.12688
G1 X90.789 Y88.570 E0.01673
G1 X93.649 Y91.430 E0.12688
G1 X94.183 Y91.430 E0.01673
G1 X91.322 Y88.570 E0.12688
G1 X91.856 Y88.570 E0.01673
G1 X94.716 Y91.430 E0.12688
G1 X95.250 Y91.430 E0.01673
G1 X92.389 Y88.570 E0.12688
G1 X92.923 Y88.570 E0.01673
G1 X95.783 Y91.430 E0.12688
G1 X96.317 Y91.430 E0.01673
G1 X93.456 Y88.570 E0.12688
G1 X93.990 Y88.570 E0.01673
G1 X96.850 Y91.430 E0.12688
G1 X97.384 Y91.430 E0.01673
G1 X94.523 Y88.570 E0.12688
G1 X95.057 Y88.570 E0.01673
G1 X97.917 Y91.430 E0.12688
G1 X98.451 Y91.430 E0.01673
G1 X95.590 Y88.570 E0.12688
G1 X96.124 Y88.570 E0.01673
G1 X98.984 Y91.430 E0.12688
G1 X99.518 Y91.430 E0.01673
G1 X96.657 Y88.570 E0.12688
G1 X97.191 Y88.570 E0.01673
G1 X100.051 Y91.430 E0.12688
G1 X100.585 Y91.430 E0.01673
G1 X97.724 Y88.570 E0.12688
G1 X98.258 Y88.570 E0.01673
G1 X101.118 Y91.430 E0.12688
G1 X101.652 Y91.430 E0.01673
G1 X98.791 Y88.570 E0.12688
G1 X99.325 Y88.570 E0.01673
G1 X102.185 Y91.430 E0.12688
G1 X102.719 Y91.430 E0.01673
G1 X99.858 Y88.570 E0.12688
G1 X100.392 Y88.570 E0.01673
G1 X103.252 Y91.430 E0.12688
G1 X103.786 Y91.430 E0.01673
G1 X100.925 Y88.570 E0.12688
G1 X101.459 Y88.570 E0.01673
G1 X104.319 Y91.430 E0.12688
G1 X104.853 Y91.430 E0.01673
G1 X101.992 Y88.570 E0.12688
G1 X102.526 Y88.570 E0.01673
G1 X105.386 Y91.430 E0.12688
G1 X105.920 Y91.430 E0.01673
G1 X103.059 Y88.570 E0.12688
G1 X103.593 Y88.570 E0.01673
G1 X106.453 Y91.430 E0.12688
G1 X106.987 Y91.430 E0.01673
G1 X104.126 Y88.570 E0.12688
G1 X104.660 Y88.570 E0.01673
G1 X107.520 Y91.430 E0.12688
G1 X108.054 Y91.430 E0.01673
G1 X105.193 Y88.570 E0.12688
G1 X105.727 Y88.570 E0.01673
G1 X108.587 Y91.430 E0.12688
G1 X109.121 Y91.430 E0.01673
G1 X106.260 Y88.570 E0.12688
G1 X106.794 Y88.570 E0.01673
G1 X109.654 Y91.430 E0.12688
G1 X110.188 Y91.430 E0.01673
G1 X107.327 Y88.570 E0.12688
G1 X107.861 Y88.570 E0.01673
G1 X110.721 Y91.430 E0.12688
G1 X111.255 Y91.430 E0.01673
G1 X108.394 Y88.570 E0.12688
G1 X108.928 Y88.570 E0.01673
G1 X111.788 Y91.430 E0.12688
G1 X112.322 Y91.430 E0.01673
G1 X109.461 Y88.570 E0.12688
G1 X109.995 Y88.570 E0.01673
G1 X112.855 Y91.430 E0.12688
G1 X113.389 Y91.430 E0.01673
G1 X110.528 Y88.570 E0.12688
G1 X111.062 Y88.570 E0.01673
G1 X113.922 Y91.430 E0.12688
G1 X114.456 Y91.430 E0.01673
G1 X111.595 Y88.570 E0.12688
G1 X112.129 Y88.570 E0.01673
G1 X114.989 Y91.430 E0.12688
G1 X115.523 Y91.430 E0.01673
G1 X112.662 Y88.570 E0.12688
G1 X113.196 Y88.570 E0.01673
G1 X116.056 Y91.430 E0.12688
G1 X116.590 Y91.430 E0.01673
G1 X113.729 Y88.570 E0.12688
G1 X114.263 Y88.570 E0.01673
G1 X117.123 Y91.430 E0.12688
G1 X117.657 Y91.430 E0.01673
G1 X114.796 Y88.570 E0.12688
G1 X115.330 Y88.570 E0.01673
G1 X118.190 Y91.430 E0.12688
G1 X118.724 Y91.430 E0.01673
G1 X115.863 Y88.570 E0.12688
G1 X116.397 Y88.570 E0.01673
G1 X119.257 Y91.430 E0.12688
G1 X119.791 Y91.430 E0.01673
G1 X116.930 Y88.570 E0.12688
G1 X117.464 Y88.570 E0.01673
G1 X120.324 Y91.430 E0.12688
G1 X120.858 Y91.430 E0.01673
G1 X117.997 Y88.570 E0.12688
G1 X118.531 Y88.570 E0.01673
G1 X121.391 Y91.430 E0.12688
G1 X121.925 Y91.430 E0.01673
G1 X119.064 Y88.570 E0.12688
G1 X119.598 Y88.570 E0.01673
G1 X122.458 Y91.430 E0.12688
G1 X122.992 Y91.430 E0.01673
G1 X120.131 Y88.570 E0.12688
G1 X120.665 Y88.570 E0.01673
G1 X123.525 Y91.430 E0.12688
G1 X124.059 Y91.430 E0.01673
G1 X121.198 Y88.570 E0.12688
G1 X121.732 Y88.570 E0.01673
G1 X124.592 Y91.430 E0.12688
G1 X125.126 Y91.430 E0.01673
G1 X122.265 Y88.570 E0.12688
G1 X122.799 Y88.570 E0.01673
G1 X125.659 Y91.430 E0.12688
G1 X126.193 Y91.430 E0.01673
G1 X123.332 Y88.570 E0.12688
G1 X123.866 Y88.570 E0.01673
G1 X126.726 Y91.430 E0.12688
G1 X127.260 Y91.430 E0.01673
G1 X124.399 Y88.570 E0.12688
G1 X124.933 Y88.570 E0.01673
G1 X127.793 Y91.430 E0.12688
G1 X128.327 Y91.430 E0.01673
G1 X125.466 Y88.570 E0.12688
G1 X126.000 Y88.570 E0.01673
G1 X128.860 Y91.430 E0.12688
G1 X129.394 Y91.430 E0.01673
G1 X126.533 Y88.570 E0.12688
G1 X127.067 Y88.570 E0.01673
G1 X129.927 Y91.430 E0.12688
G1 X130.461 Y91.430 E0.01673
G1 X127.600 Y88.570 E0.12688
G1 X128.134 Y88.570 E0.01673
G1 X130.994 Y91.430 E0.12688
G1 X131.528 Y91.430 E0.01673
G1 X128.667 Y88.570 E0.12688
G1 X129.201 Y88.570 E0.01673
G1 X132.061 Y91.430 E0.12688
G1 X132.595 Y91.430 E0.01673
G1 X129.734 Y88.570 E0.12688
G1 X130.268 Y88.570 E0.01673
G1 X133.128 Y91.430 E0.12688
G1 X133.662 Y91.430 E0.01673
G1 X130.801 Y88.570 E0.12688
G1 X131.335 Y88.570 E0.01673
G1 X134.195 Y91.430 E0.12688
G1 X134.729 Y91.430 E0.01673
G1 X131.868 Y88.570 E0.12688
G1 X132.402 Y88.570 E0.01673
G1 X135.262 Y91.430 E0.12688
G1 X135.796 Y91.430 E0.01673
G1 X132.935 Y88.570 E0.12688
G1 X133.469 Y88.570 E0.01673
G1 X136.329 Y91.430 E0.12688
G1 X136.863 Y91.430 E0.01673
G1 X134.002 Y88.570 E0.12688
G1 X134.536 Y88.570 E0.01673
G1 X137.396 Y91.430 E0.12688
G1 X137.930 Y91.430 E0.01673
G1 X135.069 Y88.570 E0.12688
G1 X135.603 Y88.570 E0.01673
G1 X138.463 Y91.430 E0.12688
G1 X138.997 Y91.430 E0.01673
G1 X136.136 Y88.570 E0.12688
G1 X136.670 Y88.570 E0.01673
G1 X139.530 Y91.430 E0.12688
G1 X140.064 Y91.430 E0.01673
G1 X137.203 Y88.570 E0.12688
G1 X137.737 Y88.570 E0.01673
G1 X140.597 Y91.430 E0.12688
G1 X141.131 Y91.430 E0.01673
G1 X138.270 Y88.570 E0.12688
G1 X138.804 Y88.570 E0.01673
G1 X141.664 Y91.430 E0.12688
G1 X142.198 Y91.430 E0.01673
G1 X139.337 Y88.570 E0.12688
G1 X139.871 Y88.570 E0.01673
G1 X142.731 Y91.430 E0.12688
G1 X143.265 Y91.430 E0.01673
G1 X140.404 Y88.570 E0.12688
G1 X140.938 Y88.570 E0.01673
G1 X143.798 Y91.430 E0.12688
G1 X144.332 Y91.430 E0.01673
G1 X141.471 Y88.570 E0.12688
G1 X142.005 Y88.570 E0.01673
G1 X144.865 Y91.430 E0.12688
G1 X145.399 Y91.430 E0.01673
G1 X142.538 Y88.570 E0.12688
G1 X143.072 Y88.570 E0.01673
G1 X145.932 Y91.430 E0.12688
G1 X146.466 Y91.430 E0.01673
G1 X143.605 Y88.570 E0.12688
G1 X144.139 Y88.570 E0.01673
G1 X146.999 Y91.430 E0.12688
G1 X147.533 Y91.430 E0.01673
G1 X144.672 Y88.570 E0.12688
G1 X145.206 Y88.570 E0.01673
G1 X148.066 Y91.430 E0.12688
G1 X148.600 Y91.430 E0.01673
G1 X145.739 Y88.570 E0.12688
G1 X146.273 Y88.570 E0.01673
G1 X148.830 Y91.127 E0.11344
G1 X148.830 Y90.594 E0.01673
G1 X146.806 Y88.570 E0.08977
G1 X147.340 Y88.570 E0.01673
G1 X148.830 Y90.060 E0.06611
G1 X148.830 Y89.527 E0.01673
G1 X147.873 Y88.570 E0.04244
G1 X148.407 Y88.570 E0.01673
G1 X149.000 Y89.163 E0.02630
M204 S1250
G1 X148.400 Y88.099 F9000.000
M204 S800
G1 F1200.000
G1 X148.400 Y63.899 E0.60955
M204 S1250
G1 E-2.24000 F4200.00000
G1 F7200.000
G1 X148.400 Y65.544 E-0.91200
G1 E-0.04800 F4200.00000
G1 Z0.400 F9000.000
G1 X148.400 Y91.901
G1 Z0.200
G1 E3.20000 F2400.00000
M204 S800
G1 F1200.000
G1 X148.400 Y116.101 E0.60955
M204 S1250
G1 E-2.24000 F4200.00000
G1 F7200.000
G1 X148.400 Y114.456 E-0.91200
G1 E-0.04800 F4200.00000
G1 Z0.400 F9000.000
G1 X89.100 Y78.345
G1 Z0.200
G1 E3.20000 F2400.00000
M204 S800
G1 F1200.000
G1 X88.825 Y78.070 E0.01219
G1 X88.291 Y78.070 E0.01673
G1 X88.930 Y78.709 E0.02833
G1 X88.930 Y79.242 E0.01673
G1 X87.758 Y78.070 E0.05200
G1 X87.224 Y78.070 E0.01673
G1 X88.930 Y79.776 E0.07567
G1 X88.930 Y80.309 E0.01673
G1 X86.691 Y78.070 E0.09933
G1 X86.157 Y78.070 E0.01673
G1 X88.930 Y80.843 E0.12300
G1 X88.930 Y81.376 E0.01673
G1 X85.624 Y78.070 E0.14666
G1 X85.090 Y78.070 E0.01673
G1 X88.930 Y81.910 E0.17033
G1 X88.930 Y82.443 E0.01673
