; generated by PrusaSlicer 2.3.3+win64 on 2021-12-07 at 20:30:51 UTC


;
;

;
;
; 

; external perimeters extrusion width = 0.45mm
; perimeters extrusion width = 0.45mm
; infill extrusion width = 0.45mm
; solid infill extrusion width = 0.45mm
; top infill extrusion width = 0.40mm
; first layer extrusion width = 0.42mm

M73 P0 R66
M201 X1250 Y1250 Z400 E5000 ; sets maximum accelerations, mm/sec^2
M203 X180 Y180 Z12 E80 ; sets maximum feedrates, mm/sec
M204 P1250 R1250 T1250 ; sets acceleration (P, T) and retract acceleration (R), mm/sec^2
M205 X8.00 Y8.00 Z2.00 E10.00 ; sets the jerk limits, mm/sec
M205 S0 T0 ; sets the minimum extruding and travel feed rate, mm/sec
M107
;TYPE:Custom
G90 ; use absolute coordinates
M83 ; extruder relative mode
M104 S170 ; set extruder temp for bed leveling
M140 S60 ; set bed temp
M109 R170 ; wait for bed leveling temp
M190 S60 ; wait for bed temp
G28 ; home all without mesh bed level
G29 ; mesh bed leveling 
M104 S215 ; set extruder temp
G92 E0.0
G1 Y-2.0 X179 F2400
G1 Z3 F720
M109 S215 ; wait for extruder temp

; intro line
G1 X170 F1000
G1 Z0.2 F720
G1 X110.0 E8.0 F900
G1 X40.0 E10.0 F700
G92 E0.0

M221 S95 ; set flow
G21 ; set units to millimeters
G90 ; use absolute coordinates
M83 ; use relative distances for extrusion
M900 K0.2 ; Filament gcode LA 1.5
; ; Filament gcode LA 1.0
;LAYER_CHANGE
;Z:0.2
;HEIGHT:0.2
;BEFORE_LAYER_CHANGE
G92 E0.0
;0.2


G1 E-3.20000 F4200.000
G1 Z0.200 F9000.000
;AFTER_LAYER_CHANGE
;0.2
G1 Z0.400
G1 X57.768 Y54.183
G1 Z0.200
G1 E3.20000 F2400.000
M204 S800
;TYPE:Skirt
;WIDTH:0.42
G1 F1200.000
G1 X58.170 Y53.483 E0.02532
G1 X58.538 Y53.125 E0.01609
G1 X58.975 Y52.855 E0.01609
G1 X59.459 Y52.685 E0.01609
G1 X59.968 Y52.623 E0.01609
G1 X120.004 Y52.623 E1.88237
G1 X120.899 Y52.799 E0.02860
G1 X121.662 Y53.300 E0.02860
G1 X122.179 Y54.051 E0.02860
G1 X122.376 Y54.942 E0.02860
G1 X122.377 Y125.019 E2.19722
G1 X122.232 Y125.817 E0.02543
G1 X121.830 Y126.517 E0.02532
G1 X121.459 Y126.877 E0.01621
G1 X121.015 Y127.150 E0.01633
G1 X120.526 Y127.318 E0.01621
G1 X120.013 Y127.377 E0.01621
G1 X59.981 Y127.377 E1.88225
G1 X59.183 Y127.232 E0.02543
G1 X58.483 Y126.830 E0.02532
G1 X58.123 Y126.459 E0.01621
G1 X57.850 Y126.015 E0.01633
G1 X57.682 Y125.526 E0.01621
G1 X57.623 Y125.009 E0.01633
G1 X57.623 Y54.981 E2.19567
M73 P0 R65
G1 X57.757 Y54.242 E0.02355
M204 S1250
; printing object Trafic_Lights_Netta_PCB_small_leds_cover.stl id:0 copy 0
G1 E-2.24000 F4200.000
;WIPE_START
G1 F7200.000
G1 X58.170 Y53.483 E-0.47888
G1 X58.538 Y53.125 E-0.28441
G1 X58.767 Y52.984 E-0.14871
;WIPE_END
G1 E-0.04800 F4200.000
G1 Z0.400 F9000.000
G1 X115.095 Y119.566
G1 Z0.200
G1 E3.20000 F2400.000
M204 S800
;TYPE:Perimeter
G1 F1200.000
G1 X115.528 Y119.316 E0.01567
G1 X116.002 Y119.162 E0.01564
G1 X116.462 Y119.112 E0.01451
G1 X116.762 Y119.125 E0.00942
G1 X117.239 Y119.226 E0.01527
G1 X117.695 Y119.430 E0.01567
G1 X118.100 Y119.723 E0.01567
G1 X118.434 Y120.095 E0.01567
G1 X118.684 Y120.528 E0.01567
G1 X118.838 Y121.003 E0.01567
G1 X118.891 Y121.500 E0.01567
G1 X118.838 Y121.997 E0.01567
G1 X118.684 Y122.472 E0.01567
G1 X118.434 Y122.905 E0.01567
G1 X118.100 Y123.277 E0.01567
G1 X117.695 Y123.570 E0.01567
G1 X117.253 Y123.767 E0.01518
G1 X116.982 Y123.840 E0.00881
G1 X116.500 Y123.891 E0.01518
G1 X116.003 Y123.838 E0.01567
G1 X115.528 Y123.684 E0.01567
G1 X115.095 Y123.434 E0.01567
G1 X114.723 Y123.100 E0.01567
G1 X114.437 Y122.706 E0.01527
G1 X114.303 Y122.437 E0.00942
G1 X114.162 Y121.996 E0.01451
G1 X114.109 Y121.500 E0.01564
G1 X114.162 Y121.003 E0.01567
G1 X114.311 Y120.542 E0.01518
G1 X114.439 Y120.292 E0.00881
G1 X114.723 Y119.900 E0.01518
G1 X115.050 Y119.606 E0.01379
M204 S1250
G1 X115.303 Y119.886 F9000.000
M204 S800
;TYPE:External perimeter
G1 F1200.000
G1 X115.682 Y119.662 E0.01381
G1 X116.082 Y119.533 E0.01318
G1 X116.474 Y119.490 E0.01239
G1 X116.715 Y119.501 E0.00754
G1 X117.122 Y119.587 E0.01304
G1 X117.506 Y119.758 E0.01318
G1 X117.846 Y120.005 E0.01318
G1 X118.127 Y120.318 E0.01318
G1 X118.338 Y120.682 E0.01318
G1 X118.467 Y121.082 E0.01318
G1 X118.511 Y121.500 E0.01318
G1 X118.467 Y121.918 E0.01318
G1 X118.338 Y122.318 E0.01318
G1 X118.127 Y122.682 E0.01318
G1 X117.846 Y122.995 E0.01318
G1 X117.506 Y123.242 E0.01318
G1 X117.127 Y123.411 E0.01301
G1 X116.913 Y123.468 E0.00694
G1 X116.500 Y123.511 E0.01301
G1 X116.082 Y123.467 E0.01318
G1 X115.682 Y123.338 E0.01318
G1 X115.318 Y123.127 E0.01318
G1 X115.005 Y122.846 E0.01318
G1 X114.761 Y122.509 E0.01304
G1 X114.654 Y122.294 E0.00754
G1 X114.532 Y121.918 E0.01239
G1 X114.489 Y121.500 E0.01318
G1 X114.533 Y121.082 E0.01318
G1 X114.661 Y120.687 E0.01301
G1 X114.761 Y120.490 E0.00694
G1 X115.005 Y120.154 E0.01301
G1 X115.258 Y119.926 E0.01066
M204 S1250
G1 X115.258 Y119.489 F9000.000
G1 E-2.24000 F4200.000
;WIPE_START
G1 F7200.000
G1 X115.682 Y119.662 E-0.27675
G1 X116.082 Y119.533 E-0.23287
G1 X116.474 Y119.490 E-0.21896
G1 X116.715 Y119.501 E-0.13330
G1 X116.803 Y119.519 E-0.05012
;WIPE_END
G1 E-0.04800 F4200.000
G1 Z0.400 F9000.000
G1 X118.836 Y122.963
G1 Z0.200
G1 E3.20000 F2400.000
M204 S800
;TYPE:Perimeter
G1 F1200.000
G1 X118.836 Y123.836 E0.02736
G1 X117.971 Y123.836 E0.02711
G1 X118.353 Y123.558 E0.01480
G1 X118.741 Y123.128 E0.01816
G1 X118.806 Y123.015 E0.00408
M204 S1250
G1 E-2.24000 F4200.000
;WIPE_START
G1 F7200.000
G1 X118.836 Y123.836 E-0.45502
G1 X118.011 Y123.836 E-0.45698
;WIPE_END
G1 E-0.04800 F4200.000
G1 Z0.400 F9000.000
G1 X65.891 Y121.500
G1 Z0.200
G1 E3.20000 F2400.000
M204 S800
G1 F1200.000
G1 X65.840 Y121.982 E0.01518
G1 X65.767 Y122.253 E0.00881
G1 X65.570 Y122.695 E0.01518
G1 X65.277 Y123.100 E0.01567
G1 X64.905 Y123.434 E0.01567
G1 X64.472 Y123.684 E0.01567
G1 X63.997 Y123.838 E0.01567
G1 X63.500 Y123.891 E0.01567
G1 X63.003 Y123.838 E0.01567
G1 X62.528 Y123.684 E0.01567
G1 X62.095 Y123.434 E0.01567
G1 X61.723 Y123.100 E0.01567
G1 X61.439 Y122.708 E0.01518
G1 X61.311 Y122.458 E0.00881
G1 X61.162 Y121.997 E0.01518
G1 X61.109 Y121.500 E0.01567
G1 X61.162 Y121.003 E0.01567
G1 X61.311 Y120.542 E0.01518
G1 X61.439 Y120.292 E0.00881
G1 X61.723 Y119.900 E0.01518
G1 X62.095 Y119.566 E0.01567
G1 X62.528 Y119.316 E0.01567
G1 X63.002 Y119.162 E0.01564
G1 X63.462 Y119.112 E0.01451
G1 X63.762 Y119.125 E0.00942
G1 X64.239 Y119.226 E0.01527
G1 X64.695 Y119.430 E0.01567
G1 X65.100 Y119.723 E0.01567
G1 X65.434 Y120.095 E0.01567
G1 X65.684 Y120.528 E0.01567
G1 X65.838 Y121.003 E0.01567
G1 X65.884 Y121.440 E0.01379
M204 S1250
G1 X65.509 Y121.480 F9000.000
M204 S800
;TYPE:External perimeter
G1 F1200.000
G1 X65.468 Y121.913 E0.01364
G1 X65.411 Y122.127 E0.00694
G1 X65.242 Y122.506 E0.01301
G1 X64.995 Y122.846 E0.01318
G1 X64.682 Y123.127 E0.01318
G1 X64.318 Y123.338 E0.01318
G1 X63.918 Y123.467 E0.01318
G1 X63.500 Y123.511 E0.01318
G1 X63.082 Y123.467 E0.01318
G1 X62.682 Y123.338 E0.01318
G1 X62.318 Y123.127 E0.01318
G1 X62.005 Y122.846 E0.01318
G1 X61.761 Y122.510 E0.01301
G1 X61.661 Y122.313 E0.00694
G1 X61.533 Y121.918 E0.01301
G1 X61.489 Y121.500 E0.01318
G1 X61.533 Y121.082 E0.01318
G1 X61.661 Y120.687 E0.01301
G1 X61.761 Y120.490 E0.00694
G1 X62.005 Y120.154 E0.01301
G1 X62.318 Y119.873 E0.01318
G1 X62.682 Y119.662 E0.01318
G1 X63.082 Y119.533 E0.01318
G1 X63.474 Y119.490 E0.01239
G1 X63.715 Y119.501 E0.00754
G1 X64.122 Y119.587 E0.01304
G1 X64.506 Y119.758 E0.01318
G1 X64.846 Y120.005 E0.01318
G1 X65.127 Y120.318 E0.01318
G1 X65.338 Y120.682 E0.01318
G1 X65.467 Y121.082 E0.01318
G1 X65.503 Y121.420 E0.01066
M204 S1250
G1 X65.857 Y121.677 F9000.000
G1 E-2.24000 F4200.000
;WIPE_START
G1 F7200.000
G1 X65.468 Y121.913 E-0.27368
G1 X65.411 Y122.127 E-0.12275
G1 X65.242 Y122.506 E-0.22996
G1 X64.995 Y122.846 E-0.23303
G1 X64.924 Y122.909 E-0.05259
;WIPE_END
G1 E-0.04800 F4200.000
G1 Z0.400 F9000.000
G1 X62.037 Y123.836
G1 Z0.200
G1 E3.20000 F2400.000
M204 S800
;TYPE:Perimeter
G1 F1200.000
G1 X61.164 Y123.836 E0.02736
G1 X61.164 Y122.971 E0.02711
G1 X61.442 Y123.353 E0.01480
G1 X61.872 Y123.741 E0.01816
G1 X61.985 Y123.806 E0.00408
M204 S1250
G1 E-2.24000 F4200.000
;WIPE_START
G1 F7200.000
G1 X61.164 Y123.836 E-0.45502
G1 X61.164 Y123.011 E-0.45698
;WIPE_END
G1 E-0.04800 F4200.000
G1 Z0.400 F9000.000
G1 X61.164 Y57.029
G1 Z0.200
G1 E3.20000 F2400.000
M204 S800
G1 F1200.000
G1 X61.164 Y56.164 E0.02711
G1 X62.037 Y56.164 E0.02736
G1 X61.872 Y56.259 E0.00596
G1 X61.442 Y56.647 E0.01816
G1 X61.199 Y56.980 E0.01292
M204 S1250
G1 X61.723 Y56.900 F9000.000
M204 S800
G1 F1200.000
G1 X62.095 Y56.566 E0.01567
G1 X62.528 Y56.316 E0.01567
G1 X63.002 Y56.162 E0.01564
G1 X63.462 Y56.112 E0.01451
G1 X63.762 Y56.125 E0.00942
G1 X64.239 Y56.226 E0.01527
G1 X64.695 Y56.430 E0.01567
G1 X65.100 Y56.723 E0.01567
G1 X65.434 Y57.095 E0.01567
G1 X65.684 Y57.528 E0.01567
G1 X65.838 Y58.003 E0.01567
G1 X65.891 Y58.500 E0.01567
G1 X65.838 Y58.997 E0.01567
G1 X65.684 Y59.472 E0.01567
G1 X65.434 Y59.905 E0.01567
G1 X65.100 Y60.277 E0.01567
G1 X64.695 Y60.570 E0.01567
G1 X64.253 Y60.767 E0.01518
G1 X63.982 Y60.840 E0.00881
G1 X63.500 Y60.891 E0.01518
G1 X63.003 Y60.838 E0.01567
G1 X62.542 Y60.689 E0.01518
G1 X62.292 Y60.561 E0.00881
G1 X61.900 Y60.277 E0.01518
G1 X61.566 Y59.905 E0.01567
G1 X61.316 Y59.472 E0.01567
G1 X61.162 Y58.997 E0.01567
G1 X61.109 Y58.500 E0.01567
G1 X61.162 Y58.003 E0.01567
G1 X61.311 Y57.542 E0.01518
G1 X61.439 Y57.292 E0.00881
G1 X61.688 Y56.949 E0.01330
M204 S1250
G1 X61.993 Y57.171 F9000.000
M204 S800
;TYPE:External perimeter
G1 F1200.000
G1 X62.318 Y56.873 E0.01381
G1 X62.682 Y56.662 E0.01318
G1 X63.082 Y56.533 E0.01318
G1 X63.474 Y56.490 E0.01239
G1 X63.715 Y56.501 E0.00754
G1 X64.122 Y56.587 E0.01304
G1 X64.506 Y56.758 E0.01318
G1 X64.846 Y57.005 E0.01318
G1 X65.127 Y57.318 E0.01318
G1 X65.338 Y57.682 E0.01318
G1 X65.467 Y58.082 E0.01318
G1 X65.511 Y58.500 E0.01318
G1 X65.467 Y58.918 E0.01318
G1 X65.338 Y59.318 E0.01318
G1 X65.127 Y59.682 E0.01318
G1 X64.846 Y59.995 E0.01318
G1 X64.506 Y60.242 E0.01318
G1 X64.127 Y60.411 E0.01301
G1 X63.913 Y60.468 E0.00694
G1 X63.500 Y60.511 E0.01301
G1 X63.082 Y60.467 E0.01318
G1 X62.687 Y60.339 E0.01301
G1 X62.490 Y60.239 E0.00694
G1 X62.154 Y59.995 E0.01301
G1 X61.873 Y59.682 E0.01318
G1 X61.662 Y59.318 E0.01318
G1 X61.533 Y58.918 E0.01318
G1 X61.489 Y58.500 E0.01318
G1 X61.533 Y58.082 E0.01318
G1 X61.661 Y57.687 E0.01301
G1 X61.761 Y57.490 E0.00694
G1 X61.958 Y57.219 E0.01049
M204 S1250
G1 X61.873 Y56.789 F9000.000
G1 E-2.24000 F4200.000
;WIPE_START
G1 F7200.000
G1 X62.318 Y56.873 E-0.27675
G1 X62.682 Y56.662 E-0.23303
G1 X63.082 Y56.533 E-0.23287
G1 X63.385 Y56.500 E-0.16936
;WIPE_END
G1 E-0.04800 F4200.000
G1 Z0.400 F9000.000
G1 X76.877 Y94.726
G1 Z0.200
G1 E3.20000 F2400.000
M204 S800
;TYPE:Perimeter
G1 F1200.000
G1 X77.327 Y94.580 E0.01483
G1 X77.751 Y94.534 E0.01340
G1 X78.057 Y94.547 E0.00958
G1 X78.501 Y94.641 E0.01425
G1 X78.935 Y94.834 E0.01488
G1 X79.319 Y95.113 E0.01488
G1 X79.636 Y95.466 E0.01488
G1 X79.874 Y95.877 E0.01488
G1 X80.020 Y96.328 E0.01488
G1 X80.070 Y96.800 E0.01488
G1 X80.020 Y97.272 E0.01488
G1 X79.874 Y97.723 E0.01488
G1 X79.636 Y98.134 E0.01488
G1 X79.336 Y98.468 E0.01408
G1 X79.112 Y98.649 E0.00903
G1 X78.723 Y98.874 E0.01408
G1 X78.272 Y99.020 E0.01488
G1 X77.800 Y99.070 E0.01488
G1 X77.328 Y99.020 E0.01488
G1 X76.877 Y98.874 E0.01488
G1 X76.466 Y98.636 E0.01488
G1 X76.132 Y98.336 E0.01408
G1 X75.951 Y98.112 E0.00903
G1 X75.726 Y97.723 E0.01408
G1 X75.580 Y97.272 E0.01488
M73 P1 R65
G1 X75.530 Y96.800 E0.01488
G1 X75.580 Y96.328 E0.01488
G1 X75.726 Y95.877 E0.01488
G1 X75.951 Y95.488 E0.01408
G1 X76.132 Y95.264 E0.00903
G1 X76.466 Y94.964 E0.01408
G1 X76.825 Y94.756 E0.01300
M204 S1250
G1 X77.013 Y95.083 F9000.000
M204 S800
G1 F1200.000
G1 X77.406 Y94.951 E0.01299
G1 X77.764 Y94.912 E0.01129
G1 X78.010 Y94.922 E0.00770
G1 X78.384 Y95.002 E0.01201
G1 X78.745 Y95.163 E0.01239
G1 X79.065 Y95.395 E0.01239
G1 X79.330 Y95.689 E0.01239
G1 X79.527 Y96.031 E0.01239
G1 X79.649 Y96.407 E0.01239
G1 X79.691 Y96.800 E0.01239
G1 X79.649 Y97.193 E0.01239
G1 X79.527 Y97.569 E0.01239
G1 X79.330 Y97.911 E0.01239
G1 X79.075 Y98.193 E0.01191
G1 X78.898 Y98.337 E0.00716
G1 X78.569 Y98.527 E0.01191
G1 X78.193 Y98.649 E0.01239
G1 X77.800 Y98.691 E0.01239
G1 X77.407 Y98.649 E0.01239
G1 X77.031 Y98.527 E0.01239
G1 X76.689 Y98.330 E0.01239
G1 X76.407 Y98.075 E0.01191
G1 X76.263 Y97.898 E0.00716
G1 X76.073 Y97.569 E0.01191
G1 X75.951 Y97.193 E0.01239
G1 X75.909 Y96.800 E0.01239
G1 X75.951 Y96.407 E0.01239
G1 X76.073 Y96.031 E0.01239
G1 X76.263 Y95.702 E0.01191
G1 X76.407 Y95.525 E0.00716
G1 X76.689 Y95.270 E0.01191
G1 X76.961 Y95.113 E0.00987
M204 S1250
G1 X76.681 Y95.785 F9000.000
M204 S800
;TYPE:External perimeter
G1 F1200.000
G1 X76.912 Y95.577 E0.00973
G1 X77.185 Y95.419 E0.00991
G1 X77.485 Y95.322 E0.00990
G1 X77.777 Y95.290 E0.00919
G1 X77.962 Y95.298 E0.00582
G1 X78.267 Y95.363 E0.00977
G1 X78.556 Y95.491 E0.00991
G1 X78.811 Y95.677 E0.00991
G1 X79.023 Y95.912 E0.00991
G1 X79.181 Y96.185 E0.00991
G1 X79.278 Y96.486 E0.00991
G1 X79.311 Y96.800 E0.00991
G1 X79.278 Y97.114 E0.00991
G1 X79.181 Y97.415 E0.00991
G1 X79.023 Y97.688 E0.00991
G1 X78.815 Y97.919 E0.00973
G1 X78.684 Y98.026 E0.00530
G1 X78.415 Y98.181 E0.00973
G1 X78.114 Y98.278 E0.00991
G1 X77.800 Y98.311 E0.00991
G1 X77.486 Y98.278 E0.00991
G1 X77.185 Y98.181 E0.00991
G1 X76.912 Y98.023 E0.00991
G1 X76.681 Y97.815 E0.00973
G1 X76.574 Y97.684 E0.00530
G1 X76.419 Y97.415 E0.00973
G1 X76.322 Y97.114 E0.00991
G1 X76.289 Y96.800 E0.00991
G1 X76.322 Y96.486 E0.00991
G1 X76.419 Y96.185 E0.00991
G1 X76.574 Y95.916 E0.00973
G1 X76.643 Y95.832 E0.00342
M204 S1250
G1 X76.590 Y95.488 F9000.000
G1 E-2.24000 F4200.000
;WIPE_START
G1 F7200.000
G1 X76.912 Y95.577 E-0.20494
G1 X77.185 Y95.419 E-0.17510
G1 X77.485 Y95.322 E-0.17491
G1 X77.777 Y95.290 E-0.16239
G1 X77.962 Y95.298 E-0.10289
G1 X78.124 Y95.332 E-0.09177
;WIPE_END
G1 E-0.04800 F4200.000
G1 Z0.400 F9000.000
G1 X66.470 Y96.800
G1 Z0.200
G1 E3.20000 F2400.000
M204 S800
;TYPE:Perimeter
G1 F1200.000
G1 X66.420 Y97.272 E0.01488
G1 X66.274 Y97.723 E0.01488
G1 X66.049 Y98.112 E0.01408
G1 X65.868 Y98.336 E0.00903
G1 X65.534 Y98.636 E0.01408
G1 X65.123 Y98.874 E0.01488
G1 X64.672 Y99.020 E0.01488
G1 X64.200 Y99.070 E0.01488
G1 X63.728 Y99.020 E0.01488
G1 X63.277 Y98.874 E0.01488
G1 X62.883 Y98.646 E0.01425
G1 X62.648 Y98.451 E0.00958
G1 X62.363 Y98.133 E0.01340
G1 X62.126 Y97.723 E0.01483
G1 X61.980 Y97.272 E0.01488
G1 X61.930 Y96.800 E0.01488
G1 X61.980 Y96.328 E0.01488
G1 X62.126 Y95.877 E0.01488
G1 X62.351 Y95.488 E0.01408
G1 X62.532 Y95.264 E0.00903
G1 X62.866 Y94.964 E0.01408
G1 X63.277 Y94.726 E0.01488
G1 X63.727 Y94.580 E0.01483
G1 X64.151 Y94.534 E0.01340
G1 X64.457 Y94.547 E0.00958
G1 X64.901 Y94.641 E0.01425
G1 X65.335 Y94.834 E0.01488
G1 X65.719 Y95.113 E0.01488
G1 X66.036 Y95.466 E0.01488
G1 X66.274 Y95.877 E0.01488
G1 X66.420 Y96.328 E0.01488
G1 X66.463 Y96.740 E0.01300
M204 S1250
G1 X66.088 Y96.780 F9000.000
M204 S800
G1 F1200.000
G1 X66.049 Y97.193 E0.01302
G1 X65.927 Y97.569 E0.01239
G1 X65.737 Y97.898 E0.01191
G1 X65.593 Y98.075 E0.00716
G1 X65.311 Y98.330 E0.01191
G1 X64.969 Y98.527 E0.01239
G1 X64.593 Y98.649 E0.01239
G1 X64.200 Y98.691 E0.01239
G1 X63.807 Y98.649 E0.01239
G1 X63.431 Y98.527 E0.01239
G1 X63.099 Y98.336 E0.01201
G1 X62.910 Y98.179 E0.00770
G1 X62.670 Y97.910 E0.01129
G1 X62.473 Y97.569 E0.01236
G1 X62.351 Y97.193 E0.01239
G1 X62.309 Y96.800 E0.01239
G1 X62.351 Y96.407 E0.01239
G1 X62.473 Y96.031 E0.01239
G1 X62.663 Y95.702 E0.01191
G1 X62.807 Y95.525 E0.00716
G1 X63.089 Y95.270 E0.01191
G1 X63.431 Y95.073 E0.01239
G1 X63.806 Y94.951 E0.01236
G1 X64.164 Y94.912 E0.01129
G1 X64.410 Y94.922 E0.00770
G1 X64.784 Y95.002 E0.01201
G1 X65.145 Y95.163 E0.01239
G1 X65.465 Y95.395 E0.01239
G1 X65.730 Y95.689 E0.01239
G1 X65.927 Y96.031 E0.01239
G1 X66.049 Y96.407 E0.01239
G1 X66.082 Y96.720 E0.00987
M204 S1250
G1 X65.711 Y96.800 F9000.000
M204 S800
;TYPE:External perimeter
G1 F1200.000
G1 X65.678 Y97.114 E0.00991
G1 X65.581 Y97.415 E0.00991
G1 X65.426 Y97.684 E0.00973
G1 X65.319 Y97.815 E0.00530
G1 X65.088 Y98.023 E0.00973
