; generated by PrusaSlicer 2.2.0+win64 on 2021-01-09 at 10:57:34 UTC


;
;

;
;
; 

; external perimeters extrusion width = 0.45mm
; perimeters extrusion width = 0.45mm
; infill extrusion width = 0.45mm
; solid infill extrusion width = 0.45mm
; top infill extrusion width = 0.40mm
; first layer extrusion width = 0.42mm

M73 P0 R21
M201 X1250 Y1250 Z400 E5000 ; sets maximum accelerations, mm/sec^2
M203 X180 Y180 Z12 E80 ; sets maximum feedrates, mm/sec
M204 P1250 R1250 T1250 ; sets acceleration (P, T) and retract acceleration (R), mm/sec^2
M205 X8.00 Y8.00 Z2.00 E10.00 ; sets the jerk limits, mm/sec
M205 S0 T0 ; sets the minimum extruding and travel feed rate, mm/sec
M107
G90 ; use absolute coordinates
M83 ; extruder relative mode
M104 S170 ; set extruder temp for bed leveling
M140 S60 ; set bed temp
M109 R170 ; wait for bed leveling temp
M190 S60 ; wait for bed temp
G28 ; home all without mesh bed level
G29 ; mesh bed leveling 
M104 S215 ; set extruder temp
G92 E0.0
G1 Y-2.0 X179 F2400
G1 Z3 F720
M109 S215 ; wait for extruder temp

; intro line
G1 X170 F1000
G1 Z0.2 F720
G1 X110.0 E8.0 F900
M73 P0 R21
G1 X40.0 E10.0 F700
G92 E0.0

M221 S95 ; set flow
G21 ; set units to millimeters
G90 ; use absolute coordinates
M83 ; use relative distances for extrusion
M900 K0.2 ; Filament gcode LA 1.5
; ; Filament gcode LA 1.0
;BEFORE_LAYER_CHANGE
G92 E0.0
;0.2


G1 Z0.200 F9000.000
;AFTER_LAYER_CHANGE
;0.2
G1 E-3.20000 F4200.00000
G1 Z0.400 F9000.000
G1 X70.485 Y73.567
G1 Z0.200
G1 E3.20000 F2400.00000
M204 S800
G1 F1200.000
G1 X71.268 Y73.423 E0.02496
G1 X108.704 Y73.423 E1.17376
G1 X109.588 Y73.595 E0.02825
G1 X110.342 Y74.081 E0.02813
G1 X110.862 Y74.813 E0.02813
G1 X111.074 Y75.688 E0.02825
G1 X111.076 Y104.269 E0.89611
G1 X111.008 Y104.770 E0.01585
G1 X110.835 Y105.245 E0.01585
G1 X110.564 Y105.676 E0.01597
G1 X110.209 Y106.037 E0.01585
G1 X109.515 Y106.433 E0.02508
G1 X108.732 Y106.577 E0.02496
G1 X71.281 Y106.577 E1.17424
G1 X70.764 Y106.516 E0.01633
G1 X70.276 Y106.345 E0.01621
G1 X69.836 Y106.073 E0.01621
G1 X69.463 Y105.709 E0.01633
G1 X69.069 Y105.022 E0.02484
G1 X68.923 Y104.243 E0.02484
G1 X68.923 Y75.773 E0.89265
G1 X68.985 Y75.260 E0.01621
G1 X69.157 Y74.772 E0.01621
G1 X69.429 Y74.333 E0.01621
G1 X69.791 Y73.963 E0.01621
G1 X70.433 Y73.597 E0.02320
M204 S1250
; printing object wemos_d1_mini_clip.stl id:0 copy 0
G1 E-2.24000 F4200.00000
G1 F7200.000
G1 X71.268 Y73.423 E-0.47269
G1 X72.061 Y73.423 E-0.43931
G1 E-0.04800 F4200.00000
G1 Z0.400 F9000.000
G1 X72.087 Y76.587
G1 Z0.200
G1 E3.20000 F2400.00000
M204 S800
G1 F1200.000
G1 X107.913 Y76.587 E1.12329
G1 X107.913 Y103.413 E0.84111
G1 X72.087 Y103.413 E1.12329
G1 X72.087 Y76.647 E0.83922
M204 S1250
G1 X71.710 Y76.210 F9000.000
M204 S800
G1 F1200.000
G1 X108.290 Y76.210 E1.14694
G1 X108.290 Y103.790 E0.86475
G1 X71.710 Y103.790 E1.14694
G1 X71.710 Y76.270 E0.86287
M204 S1250
G1 X72.101 Y76.295 F9000.000
G1 E-2.24000 F4200.00000
G1 F7200.000
G1 X73.356 Y76.267 E-0.91200
G1 E-0.04800 F4200.00000
G1 Z0.400 F9000.000
G1 X107.800 Y77.468
G1 Z0.200
G1 E3.20000 F2400.00000
M204 S800
G1 F1200.000
G1 X107.202 Y76.870 E0.02669
G1 X106.665 Y76.870 E0.01695
G1 X107.630 Y77.835 E0.04308
G1 X107.630 Y78.372 E0.01695
G1 X106.128 Y76.870 E0.06705
G1 X105.591 Y76.870 E0.01695
G1 X107.630 Y78.909 E0.09101
G1 X107.630 Y79.446 E0.01695
G1 X105.054 Y76.870 E0.11498
G1 X104.518 Y76.870 E0.01695
G1 X107.630 Y79.982 E0.13894
G1 X107.630 Y80.519 E0.01695
G1 X103.981 Y76.870 E0.16290
G1 X103.444 Y76.870 E0.01695
G1 X107.630 Y81.056 E0.18687
G1 X107.630 Y81.593 E0.01695
G1 X102.907 Y76.870 E0.21083
G1 X102.370 Y76.870 E0.01695
G1 X107.630 Y82.130 E0.23480
G1 X107.630 Y82.667 E0.01695
G1 X101.833 Y76.870 E0.25876
G1 X101.297 Y76.870 E0.01695
G1 X107.630 Y83.203 E0.28273
G1 X107.630 Y83.740 E0.01695
G1 X100.760 Y76.870 E0.30669
G1 X100.223 Y76.870 E0.01695
G1 X107.630 Y84.277 E0.33066
G1 X107.630 Y84.814 E0.01695
G1 X99.686 Y76.870 E0.35462
G1 X99.149 Y76.870 E0.01695
G1 X107.630 Y85.351 E0.37859
G1 X107.630 Y85.888 E0.01695
G1 X98.612 Y76.870 E0.40255
G1 X98.075 Y76.870 E0.01695
G1 X107.630 Y86.425 E0.42651
G1 X107.630 Y86.961 E0.01695
G1 X97.539 Y76.870 E0.45048
G1 X97.002 Y76.870 E0.01695
G1 X107.630 Y87.498 E0.47444
G1 X107.630 Y88.035 E0.01695
G1 X96.465 Y76.870 E0.49841
G1 X95.928 Y76.870 E0.01695
G1 X107.630 Y88.572 E0.52237
G1 X107.630 Y89.109 E0.01695
G1 X95.391 Y76.870 E0.54634
G1 X94.854 Y76.870 E0.01695
G1 X107.630 Y89.646 E0.57030
G1 X107.630 Y90.183 E0.01695
G1 X94.317 Y76.870 E0.59427
G1 X93.781 Y76.870 E0.01695
G1 X107.630 Y90.719 E0.61823
G1 X107.630 Y91.256 E0.01695
G1 X93.244 Y76.870 E0.64220
G1 X92.707 Y76.870 E0.01695
G1 X107.630 Y91.793 E0.66616
G1 X107.630 Y92.330 E0.01695
G1 X92.170 Y76.870 E0.69013
G1 X91.633 Y76.870 E0.01695
G1 X107.630 Y92.867 E0.71409
G1 X107.630 Y93.404 E0.01695
G1 X91.096 Y76.870 E0.73805
G1 X90.560 Y76.870 E0.01695
G1 X107.630 Y93.940 E0.76202
G1 X107.630 Y94.477 E0.01695
G1 X90.023 Y76.870 E0.78598
G1 X89.486 Y76.870 E0.01695
G1 X107.630 Y95.014 E0.80995
G1 X107.630 Y95.551 E0.01695
G1 X88.949 Y76.870 E0.83391
G1 X88.412 Y76.870 E0.01695
G1 X107.630 Y96.088 E0.85788
G1 X107.630 Y96.625 E0.01695
G1 X87.875 Y76.870 E0.88184
G1 X87.338 Y76.870 E0.01695
G1 X107.630 Y97.162 E0.90581
G1 X107.630 Y97.698 E0.01695
G1 X86.802 Y76.870 E0.92977
G1 X86.265 Y76.870 E0.01695
G1 X107.630 Y98.235 E0.95374
M73 P5 R20
G1 X107.630 Y98.772 E0.01695
G1 X85.728 Y76.870 E0.97770
G1 X85.191 Y76.870 E0.01695
G1 X107.630 Y99.309 E1.00166
G1 X107.630 Y99.846 E0.01695
G1 X84.654 Y76.870 E1.02563
G1 X84.117 Y76.870 E0.01695
G1 X107.630 Y100.383 E1.04959
G1 X107.630 Y100.920 E0.01695
G1 X83.580 Y76.870 E1.07356
G1 X83.044 Y76.870 E0.01695
G1 X107.630 Y101.456 E1.09752
G1 X107.630 Y101.993 E0.01695
G1 X82.507 Y76.870 E1.12149
G1 X81.970 Y76.870 E0.01695
G1 X107.630 Y102.530 E1.14545
G1 X107.630 Y103.067 E0.01695
G1 X81.433 Y76.870 E1.16942
G1 X80.896 Y76.870 E0.01695
G1 X107.156 Y103.130 E1.17224
G1 X106.620 Y103.130 E0.01695
G1 X80.359 Y76.870 E1.17224
G1 X79.823 Y76.870 E0.01695
G1 X106.083 Y103.130 E1.17224
G1 X105.546 Y103.130 E0.01695
G1 X79.286 Y76.870 E1.17224
G1 X78.749 Y76.870 E0.01695
G1 X105.009 Y103.130 E1.17224
G1 X104.472 Y103.130 E0.01695
G1 X78.212 Y76.870 E1.17224
G1 X77.675 Y76.870 E0.01695
G1 X103.935 Y103.130 E1.17224
G1 X103.399 Y103.130 E0.01695
G1 X77.138 Y76.870 E1.17224
G1 X76.601 Y76.870 E0.01695
G1 X102.862 Y103.130 E1.17224
G1 X102.325 Y103.130 E0.01695
G1 X76.065 Y76.870 E1.17224
G1 X75.528 Y76.870 E0.01695
G1 X101.788 Y103.130 E1.17224
G1 X101.251 Y103.130 E0.01695
G1 X74.991 Y76.870 E1.17224
G1 X74.454 Y76.870 E0.01695
G1 X100.714 Y103.130 E1.17224
G1 X100.177 Y103.130 E0.01695
G1 X73.917 Y76.870 E1.17224
G1 X73.380 Y76.870 E0.01695
G1 X99.641 Y103.130 E1.17224
G1 X99.104 Y103.130 E0.01695
G1 X72.843 Y76.870 E1.17224
G1 X72.370 Y76.870 E0.01495
G1 X72.370 Y76.933 E0.00200
G1 X98.567 Y103.130 E1.16941
G1 X98.030 Y103.130 E0.01695
G1 X72.370 Y77.470 E1.14545
G1 X72.370 Y78.007 E0.01695
G1 X97.493 Y103.130 E1.12148
G1 X96.956 Y103.130 E0.01695
G1 X72.370 Y78.544 E1.09752
G1 X72.370 Y79.081 E0.01695
G1 X96.419 Y103.130 E1.07356
G1 X95.883 Y103.130 E0.01695
G1 X72.370 Y79.617 E1.04959
G1 X72.370 Y80.154 E0.01695
G1 X95.346 Y103.130 E1.02563
G1 X94.809 Y103.130 E0.01695
G1 X72.370 Y80.691 E1.00166
M73 P10 R19
G1 X72.370 Y81.228 E0.01695
G1 X94.272 Y103.130 E0.97770
G1 X93.735 Y103.130 E0.01695
G1 X72.370 Y81.765 E0.95373
G1 X72.370 Y82.302 E0.01695
G1 X93.198 Y103.130 E0.92977
G1 X92.662 Y103.130 E0.01695
G1 X72.370 Y82.838 E0.90580
G1 X72.370 Y83.375 E0.01695
G1 X92.125 Y103.130 E0.88184
G1 X91.588 Y103.130 E0.01695
G1 X72.370 Y83.912 E0.85787
G1 X72.370 Y84.449 E0.01695
G1 X91.051 Y103.130 E0.83391
G1 X90.514 Y103.130 E0.01695
G1 X72.370 Y84.986 E0.80995
G1 X72.370 Y85.523 E0.01695
G1 X89.977 Y103.130 E0.78598
G1 X89.440 Y103.130 E0.01695
G1 X72.370 Y86.060 E0.76202
G1 X72.370 Y86.596 E0.01695
G1 X88.904 Y103.130 E0.73805
G1 X88.367 Y103.130 E0.01695
G1 X72.370 Y87.133 E0.71409
G1 X72.370 Y87.670 E0.01695
G1 X87.830 Y103.130 E0.69012
G1 X87.293 Y103.130 E0.01695
G1 X72.370 Y88.207 E0.66616
G1 X72.370 Y88.744 E0.01695
G1 X86.756 Y103.130 E0.64219
G1 X86.219 Y103.130 E0.01695
G1 X72.370 Y89.281 E0.61823
G1 X72.370 Y89.818 E0.01695
G1 X85.682 Y103.130 E0.59426
G1 X85.146 Y103.130 E0.01695
G1 X72.370 Y90.354 E0.57030
G1 X72.370 Y90.891 E0.01695
G1 X84.609 Y103.130 E0.54634
G1 X84.072 Y103.130 E0.01695
G1 X72.370 Y91.428 E0.52237
G1 X72.370 Y91.965 E0.01695
G1 X83.535 Y103.130 E0.49841
G1 X82.998 Y103.130 E0.01695
G1 X72.370 Y92.502 E0.47444
G1 X72.370 Y93.039 E0.01695
G1 X82.461 Y103.130 E0.45048
G1 X81.925 Y103.130 E0.01695
G1 X72.370 Y93.575 E0.42651
G1 X72.370 Y94.112 E0.01695
G1 X81.388 Y103.130 E0.40255
G1 X80.851 Y103.130 E0.01695
G1 X72.370 Y94.649 E0.37858
G1 X72.370 Y95.186 E0.01695
G1 X80.314 Y103.130 E0.35462
G1 X79.777 Y103.130 E0.01695
G1 X72.370 Y95.723 E0.33065
G1 X72.370 Y96.260 E0.01695
G1 X79.240 Y103.130 E0.30669
G1 X78.703 Y103.130 E0.01695
G1 X72.370 Y96.797 E0.28273
G1 X72.370 Y97.333 E0.01695
G1 X78.167 Y103.130 E0.25876
G1 X77.630 Y103.130 E0.01695
G1 X72.370 Y97.870 E0.23480
G1 X72.370 Y98.407 E0.01695
G1 X77.093 Y103.130 E0.21083
G1 X76.556 Y103.130 E0.01695
G1 X72.370 Y98.944 E0.18687
G1 X72.370 Y99.481 E0.01695
G1 X76.019 Y103.130 E0.16290
G1 X75.482 Y103.130 E0.01695
G1 X72.370 Y100.018 E0.13894
G1 X72.370 Y100.555 E0.01695
G1 X74.945 Y103.130 E0.11497
G1 X74.409 Y103.130 E0.01695
G1 X72.370 Y101.091 E0.09101
G1 X72.370 Y101.628 E0.01695
G1 X73.872 Y103.130 E0.06704
G1 X73.335 Y103.130 E0.01695
G1 X72.370 Y102.165 E0.04308
G1 X72.370 Y102.702 E0.01695
G1 X72.968 Y103.300 E0.02669
M204 S1250
; stop printing object wemos_d1_mini_clip.stl id:0 copy 0
M106 S255
;BEFORE_LAYER_CHANGE
G92 E0.0
;0.35


G1 Z0.350 F9000.000
;AFTER_LAYER_CHANGE
;0.35
M104 S210 ; set temperature
G1 E-3.20000 F4200.00000
G1 Z0.550 F9000.000
G1 X69.069 Y105.022
G1 Z0.350
G1 E3.20000 F2400.00000
G1 X68.923 Y104.243 E0.01916
G1 X68.923 Y75.773 E0.68853
G1 X68.985 Y75.260 E0.01250
G1 X69.157 Y74.772 E0.01250
G1 X69.429 Y74.333 E0.01250
G1 X69.791 Y73.963 E0.01250
G1 X70.485 Y73.567 E0.01934
G1 X71.268 Y73.423 E0.01925
G1 X108.704 Y73.423 E0.90537
G1 X109.588 Y73.595 E0.02179
G1 X110.342 Y74.081 E0.02170
G1 X110.862 Y74.813 E0.02170
G1 X111.074 Y75.688 E0.02179
G1 X111.076 Y104.269 E0.69121
G1 X111.008 Y104.770 E0.01223
G1 X110.835 Y105.245 E0.01223
G1 X110.564 Y105.676 E0.01232
G1 X110.209 Y106.037 E0.01223
G1 X109.515 Y106.433 E0.01934
G1 X108.732 Y106.577 E0.01925
G1 X71.281 Y106.577 E0.90574
G1 X70.764 Y106.516 E0.01260
G1 X70.276 Y106.345 E0.01250
G1 X69.836 Y106.073 E0.01250
G1 X69.463 Y105.709 E0.01260
G1 X69.099 Y105.074 E0.01771
; printing object wemos_d1_mini_clip.stl id:0 copy 0
G1 E-2.24000 F4200.00000
G1 F7200.000
G1 X68.923 Y104.243 E-0.47063
G1 X68.923 Y103.447 E-0.44137
G1 E-0.04800 F4200.00000
G1 Z0.550 F9000.000
G1 X71.943 Y103.557
G1 Z0.350
G1 E3.20000 F2400.00000
M204 S800
G1 F3000.000
G1 X71.943 Y76.443 E0.70649
G1 X108.057 Y76.443 E0.94099
G1 X108.057 Y103.557 E0.70649
G1 X72.003 Y103.557 E0.93942
M204 S1250
G1 X71.525 Y103.975 F9000.000
M204 S800
G1 F2400.000
G1 X71.525 Y76.025 E0.72826
G1 X108.475 Y76.025 E0.96276
G1 X108.475 Y103.975 E0.72826
G1 X71.585 Y103.975 E0.96120
M204 S1250
G1 X71.646 Y103.594 F9000.000
G1 E-2.24000 F4200.00000
G1 F7200.000
G1 X71.581 Y102.329 E-0.91200
G1 E-0.04800 F4200.00000
G1 Z0.550 F9000.000
G1 X107.085 Y103.432
G1 Z0.350
G1 E3.20000 F2400.00000
M204 S1000
G1 F8400.000
G1 X107.744 Y102.773 E0.02436
G1 X107.744 Y102.180 E0.01548
G1 X106.680 Y103.244 E0.03931
G1 X106.088 Y103.244 E0.01548
G1 X107.744 Y101.588 E0.06120
G1 X107.744 Y100.995 E0.01548
G1 X105.495 Y103.244 E0.08310
G1 X104.903 Y103.244 E0.01548
G1 X107.744 Y100.403 E0.10500
G1 X107.744 Y99.810 E0.01548
G1 X104.310 Y103.244 E0.12689
G1 X103.717 Y103.244 E0.01548
G1 X107.744 Y99.217 E0.14879
G1 X107.744 Y98.625 E0.01548
G1 X103.125 Y103.244 E0.17069
G1 X102.532 Y103.244 E0.01548
G1 X107.744 Y98.032 E0.19258
G1 X107.744 Y97.440 E0.01548
G1 X101.940 Y103.244 E0.21448
G1 X101.347 Y103.244 E0.01548
G1 X107.744 Y96.847 E0.23638
G1 X107.744 Y96.255 E0.01548
G1 X100.755 Y103.244 E0.25827
G1 X100.162 Y103.244 E0.01548
G1 X107.744 Y95.662 E0.28017
G1 X107.744 Y95.070 E0.01548
G1 X99.570 Y103.244 E0.30207
G1 X98.977 Y103.244 E0.01548
G1 X107.744 Y94.477 E0.32397
G1 X107.744 Y93.884 E0.01548
G1 X98.384 Y103.244 E0.34586
G1 X97.792 Y103.244 E0.01548
G1 X107.744 Y93.292 E0.36776
G1 X107.744 Y92.699 E0.01548
G1 X97.199 Y103.244 E0.38966
G1 X96.607 Y103.244 E0.01548
G1 X107.744 Y92.107 E0.41155
G1 X107.744 Y91.514 E0.01548
G1 X96.014 Y103.244 E0.43345
G1 X95.422 Y103.244 E0.01548
G1 X107.744 Y90.922 E0.45535
G1 X107.744 Y90.329 E0.01548
G1 X94.829 Y103.244 E0.47724
G1 X94.237 Y103.244 E0.01548
G1 X107.744 Y89.737 E0.49914
G1 X107.744 Y89.144 E0.01548
G1 X93.644 Y103.244 E0.52104
G1 X93.051 Y103.244 E0.01548
G1 X107.744 Y88.551 E0.54294
G1 X107.744 Y87.959 E0.01548
G1 X92.459 Y103.244 E0.56483
G1 X91.866 Y103.244 E0.01548
G1 X107.744 Y87.366 E0.58673
G1 X107.744 Y86.774 E0.01548
G1 X91.274 Y103.244 E0.60863
G1 X90.681 Y103.244 E0.01548
G1 X107.744 Y86.181 E0.63052
G1 X107.744 Y85.589 E0.01548
G1 X90.089 Y103.244 E0.65242
G1 X89.496 Y103.244 E0.01548
G1 X107.744 Y84.996 E0.67432
G1 X107.744 Y84.404 E0.01548
G1 X88.904 Y103.244 E0.69621
G1 X88.311 Y103.244 E0.01548
G1 X107.744 Y83.811 E0.71811
G1 X107.744 Y83.218 E0.01548
G1 X87.718 Y103.244 E0.74001
G1 X87.126 Y103.244 E0.01548
G1 X107.744 Y82.626 E0.76190
G1 X107.744 Y82.033 E0.01548
G1 X86.533 Y103.244 E0.78380
G1 X85.941 Y103.244 E0.01548
G1 X107.744 Y81.441 E0.80570
G1 X107.744 Y80.848 E0.01548
G1 X85.348 Y103.244 E0.82760
G1 X84.756 Y103.244 E0.01548
G1 X107.744 Y80.256 E0.84949
G1 X107.744 Y79.663 E0.01548
G1 X84.163 Y103.244 E0.87139
G1 X83.571 Y103.244 E0.01548
G1 X107.744 Y79.071 E0.89329
G1 X107.744 Y78.478 E0.01548
G1 X82.978 Y103.244 E0.91518
G1 X82.385 Y103.244 E0.01548
G1 X107.744 Y77.885 E0.93708
G1 X107.744 Y77.293 E0.01548
G1 X81.793 Y103.244 E0.95898
G1 X81.200 Y103.244 E0.01548
G1 X107.688 Y76.756 E0.97881
G1 X107.095 Y76.756 E0.01548
G1 X80.608 Y103.244 E0.97881
G1 X80.015 Y103.244 E0.01548
G1 X106.503 Y76.756 E0.97881
G1 X105.910 Y76.756 E0.01548
G1 X79.423 Y103.244 E0.97881
G1 X78.830 Y103.244 E0.01548
G1 X105.318 Y76.756 E0.97881
G1 X104.725 Y76.756 E0.01548
G1 X78.238 Y103.244 E0.97881
G1 X77.645 Y103.244 E0.01548
M73 P14 R18
G1 X104.133 Y76.756 E0.97881
G1 X103.540 Y76.756 E0.01548
G1 X77.052 Y103.244 E0.97881
G1 X76.460 Y103.244 E0.01548
G1 X102.948 Y76.756 E0.97881
G1 X102.355 Y76.756 E0.01548
G1 X75.867 Y103.244 E0.97881
G1 X75.275 Y103.244 E0.01548
G1 X101.762 Y76.756 E0.97881
G1 X101.170 Y76.756 E0.01548
G1 X74.682 Y103.244 E0.97881
G1 X74.090 Y103.244 E0.01548
G1 X100.577 Y76.756 E0.97881
G1 X99.985 Y76.756 E0.01548
G1 X73.497 Y103.244 E0.97881
G1 X72.905 Y103.244 E0.01548
G1 X99.392 Y76.756 E0.97881
G1 X98.800 Y76.756 E0.01548
G1 X72.312 Y103.244 E0.97881
G1 X72.256 Y103.244 E0.00146
G1 X72.256 Y102.707 E0.01403
G1 X98.207 Y76.756 E0.95897
G1 X97.615 Y76.756 E0.01548
G1 X72.256 Y102.115 E0.93708
G1 X72.256 Y101.522 E0.01548
G1 X97.022 Y76.756 E0.91518
G1 X96.429 Y76.756 E0.01548
G1 X72.256 Y100.929 E0.89328
G1 X72.256 Y100.337 E0.01548
G1 X95.837 Y76.756 E0.87139
G1 X95.244 Y76.756 E0.01548
G1 X72.256 Y99.744 E0.84949
G1 X72.256 Y99.152 E0.01548
G1 X94.652 Y76.756 E0.82759
G1 X94.059 Y76.756 E0.01548
G1 X72.256 Y98.559 E0.80570
G1 X72.256 Y97.967 E0.01548
G1 X93.467 Y76.756 E0.78380
G1 X92.874 Y76.756 E0.01548
G1 X72.256 Y97.374 E0.76190
G1 X72.256 Y96.782 E0.01548
G1 X92.282 Y76.756 E0.74001
G1 X91.689 Y76.756 E0.01548
G1 X72.256 Y96.189 E0.71811
G1 X72.256 Y95.596 E0.01548
G1 X91.096 Y76.756 E0.69621
G1 X90.504 Y76.756 E0.01548
G1 X72.256 Y95.004 E0.67431
G1 X72.256 Y94.411 E0.01548
G1 X89.911 Y76.756 E0.65242
G1 X89.319 Y76.756 E0.01548
G1 X72.256 Y93.819 E0.63052
G1 X72.256 Y93.226 E0.01548
G1 X88.726 Y76.756 E0.60862
G1 X88.134 Y76.756 E0.01548
